; Generated by LaserForge
; Job: circle-cut fixture
; Objects: 1, Layers: 1
G21 ; mm mode
G90 ; absolute positioning
M5 S0

; --- Cut (pass 1) ---
M8 ; air assist ON
G0 X79.969 Y31.178
M4 S800
G1 X79.877 Y32.354 F150 S800
G1 X79.723 Y33.526 S800
G1 X79.508 Y34.693 S800
G1 X79.231 Y35.853 S800
G1 X78.895 Y37.003 S800
G1 X78.498 Y38.143 S800
G1 X78.042 Y39.271 S800
G1 X77.528 Y40.384 S800
G1 X76.955 Y41.481 S800
G1 X76.326 Y42.560 S800
G1 X75.640 Y43.620 S800
G1 X74.900 Y44.659 S800
G1 X74.106 Y45.675 S800
G1 X73.259 Y46.667 S800
G1 X72.361 Y47.634 S800
G1 X71.413 Y48.573 S800
G1 X70.416 Y49.483 S800
G1 X69.373 Y50.364 S800
G1 X68.284 Y51.213 S800
G1 X67.152 Y52.030 S800
G1 X65.978 Y52.812 S800
G1 X64.764 Y53.560 S800
G1 X63.511 Y54.271 S800
G1 X62.223 Y54.944 S800
G1 X60.900 Y55.579 S800
G1 X59.545 Y56.175 S800
G1 X58.160 Y56.730 S800
G1 X56.746 Y57.244 S800
G1 X55.307 Y57.716 S800
G1 X53.845 Y58.146 S800
G1 X52.361 Y58.532 S800
G1 X50.858 Y58.874 S800
G1 X49.338 Y59.171 S800
G1 X47.804 Y59.424 S800
G1 X46.257 Y59.631 S800
G1 X44.701 Y59.792 S800
G1 X43.138 Y59.908 S800
G1 X41.570 Y59.977 S800
G1 X40.000 Y60.000 S800
G1 X38.430 Y59.977 S800
G1 X36.862 Y59.908 S800
G1 X35.299 Y59.792 S800
G1 X33.743 Y59.631 S800
G1 X32.196 Y59.424 S800
G1 X30.662 Y59.171 S800
G1 X29.142 Y58.874 S800
G1 X27.639 Y58.532 S800
G1 X26.155 Y58.146 S800
G1 X24.693 Y57.716 S800
G1 X23.254 Y57.244 S800
G1 X21.840 Y56.730 S800
G1 X20.455 Y56.175 S800
G1 X19.100 Y55.579 S800
G1 X17.777 Y54.944 S800
G1 X16.489 Y54.271 S800
G1 X15.236 Y53.560 S800
G1 X14.022 Y52.812 S800
G1 X12.848 Y52.030 S800
G1 X11.716 Y51.213 S800
G1 X10.627 Y50.364 S800
G1 X9.584 Y49.483 S800
G1 X8.587 Y48.573 S800
G1 X7.639 Y47.634 S800
G1 X6.741 Y46.667 S800
G1 X5.894 Y45.675 S800
G1 X5.100 Y44.659 S800
G1 X4.360 Y43.620 S800
G1 X3.674 Y42.560 S800
G1 X3.045 Y41.481 S800
G1 X2.472 Y40.384 S800
G1 X1.958 Y39.271 S800
G1 X1.502 Y38.143 S800
G1 X1.105 Y37.003 S800
G1 X0.769 Y35.853 S800
G1 X0.492 Y34.693 S800
G1 X0.277 Y33.526 S800
G1 X0.123 Y32.354 S800
G1 X0.031 Y31.178 S800
G1 X0.000 Y30.000 S800
G1 X0.031 Y28.822 S800
G1 X0.123 Y27.646 S800
G1 X0.277 Y26.474 S800
G1 X0.492 Y25.307 S800
G1 X0.769 Y24.147 S800
G1 X1.105 Y22.997 S800
G1 X1.502 Y21.857 S800
G1 X1.958 Y20.729 S800
G1 X2.472 Y19.616 S800
G1 X3.045 Y18.519 S800
G1 X3.674 Y17.440 S800
G1 X4.360 Y16.380 S800
G1 X5.100 Y15.341 S800
G1 X5.894 Y14.325 S800
G1 X6.741 Y13.333 S800
G1 X7.639 Y12.366 S800
G1 X8.587 Y11.427 S800
G1 X9.584 Y10.517 S800
G1 X10.627 Y9.636 S800
G1 X11.716 Y8.787 S800
G1 X12.848 Y7.970 S800
G1 X14.022 Y7.188 S800
G1 X15.236 Y6.440 S800
G1 X16.489 Y5.729 S800
G1 X17.777 Y5.056 S800
G1 X19.100 Y4.421 S800
G1 X20.455 Y3.825 S800
G1 X21.840 Y3.270 S800
G1 X23.254 Y2.756 S800
G1 X24.693 Y2.284 S800
G1 X26.155 Y1.854 S800
G1 X27.639 Y1.468 S800
G1 X29.142 Y1.126 S800
G1 X30.662 Y0.829 S800
G1 X32.196 Y0.576 S800
G1 X33.743 Y0.369 S800
G1 X35.299 Y0.208 S800
G1 X36.862 Y0.092 S800
G1 X38.430 Y0.023 S800
G1 X40.000 Y0.000 S800
G1 X41.570 Y0.023 S800
G1 X43.138 Y0.092 S800
G1 X44.701 Y0.208 S800
G1 X46.257 Y0.369 S800
G1 X47.804 Y0.576 S800
G1 X49.338 Y0.829 S800
G1 X50.858 Y1.126 S800
G1 X52.361 Y1.468 S800
G1 X53.845 Y1.854 S800
G1 X55.307 Y2.284 S800
G1 X56.746 Y2.756 S800
G1 X58.160 Y3.270 S800
G1 X59.545 Y3.825 S800
G1 X60.900 Y4.421 S800
G1 X62.223 Y5.056 S800
G1 X63.511 Y5.729 S800
G1 X64.764 Y6.440 S800
G1 X65.978 Y7.188 S800
G1 X67.152 Y7.970 S800
G1 X68.284 Y8.787 S800
G1 X69.373 Y9.636 S800
G1 X70.416 Y10.517 S800
G1 X71.413 Y11.427 S800
G1 X72.361 Y12.366 S800
G1 X73.259 Y13.333 S800
G1 X74.106 Y14.325 S800
G1 X74.900 Y15.341 S800
G1 X75.640 Y16.380 S800
G1 X76.326 Y17.440 S800
G1 X76.955 Y18.519 S800
G1 X77.528 Y19.616 S800
G1 X78.042 Y20.729 S800
G1 X78.498 Y21.857 S800
G1 X78.895 Y22.997 S800
G1 X79.231 Y24.147 S800
G1 X79.508 Y25.307 S800
G1 X79.723 Y26.474 S800
G1 X79.877 Y27.646 S800
G1 X79.969 Y28.822 S800
G1 X80.000 Y30.000 S800
G1 X79.969 Y31.178 S800
M5 S0
M9 ; air assist OFF

M5 S0
G0 X0.000 Y0.000 ; return to job origin
M2 ; program end