; Generated by LaserForge
; Job: circle-cut fixture
; Objects: 1, Layers: 1
G21 ; mm mode
G91 ; relative positioning (Head mode)
M5 S0

; --- Cut (pass 1) ---
M8 ; air assist ON
; OBJ ids=mobm7fge-3-04o01g
G0 X79.969 Y31.178
M4 S800
G1 X-0.092 Y1.176 F150 S800
G1 X-0.154 Y1.172 S800
G1 X-0.215 Y1.167 S800
G1 X-0.276 Y1.160 S800
G1 X-0.337 Y1.151 S800
G1 X-0.397 Y1.140 S800
G1 X-0.456 Y1.127 S800
G1 X-0.515 Y1.113 S800
G1 X-0.572 Y1.097 S800
G1 X-0.629 Y1.079 S800
G1 X-0.685 Y1.060 S800
G1 X-0.740 Y1.039 S800
G1 X-0.794 Y1.016 S800
G1 X-0.847 Y0.992 S800
G1 X-0.898 Y0.966 S800
G1 X-0.948 Y0.939 S800
G1 X-0.996 Y0.911 S800
G1 X-1.043 Y0.881 S800
G1 X-1.089 Y0.849 S800
G1 X-1.132 Y0.816 S800
G1 X-1.174 Y0.783 S800
G1 X-1.214 Y0.747 S800
G1 X-1.252 Y0.711 S800
G1 X-1.289 Y0.674 S800
G1 X-1.323 Y0.635 S800
G1 X-1.355 Y0.596 S800
G1 X-1.385 Y0.555 S800
G1 X-1.413 Y0.514 S800
G1 X-1.439 Y0.472 S800
G1 X-1.463 Y0.429 S800
G1 X-1.484 Y0.386 S800
G1 X-1.503 Y0.342 S800
G1 X-1.520 Y0.297 S800
G1 X-1.534 Y0.252 S800
G1 X-1.546 Y0.207 S800
G1 X-1.556 Y0.161 S800
G1 X-1.563 Y0.115 S800
G1 X-1.568 Y0.069 S800
G1 X-1.570 Y0.023 S800
G1 X-1.570 Y-0.023 S800
G1 X-1.568 Y-0.069 S800
G1 X-1.563 Y-0.115 S800
G1 X-1.556 Y-0.161 S800
G1 X-1.546 Y-0.207 S800
G1 X-1.534 Y-0.252 S800
G1 X-1.520 Y-0.297 S800
G1 X-1.503 Y-0.342 S800
G1 X-1.484 Y-0.386 S800
G1 X-1.463 Y-0.429 S800
G1 X-1.439 Y-0.472 S800
G1 X-1.413 Y-0.514 S800
G1 X-1.385 Y-0.555 S800
G1 X-1.355 Y-0.596 S800
G1 X-1.323 Y-0.635 S800
G1 X-1.289 Y-0.674 S800
G1 X-1.252 Y-0.711 S800
G1 X-1.214 Y-0.747 S800
G1 X-1.174 Y-0.783 S800
G1 X-1.132 Y-0.816 S800
G1 X-1.089 Y-0.849 S800
G1 X-1.043 Y-0.881 S800
G1 X-0.996 Y-0.911 S800
G1 X-0.948 Y-0.939 S800
G1 X-0.898 Y-0.966 S800
G1 X-0.847 Y-0.992 S800
G1 X-0.794 Y-1.016 S800
G1 X-0.740 Y-1.039 S800
G1 X-0.685 Y-1.060 S800
G1 X-0.629 Y-1.079 S800
G1 X-0.572 Y-1.097 S800
G1 X-0.515 Y-1.113 S800
G1 X-0.456 Y-1.127 S800
G1 X-0.397 Y-1.140 S800
G1 X-0.337 Y-1.151 S800
G1 X-0.276 Y-1.160 S800
G1 X-0.215 Y-1.167 S800
G1 X-0.154 Y-1.172 S800
G1 X-0.092 Y-1.176 S800
G1 X-0.031 Y-1.178 S800
G1 X0.031 Y-1.178 S800
G1 X0.092 Y-1.176 S800
G1 X0.154 Y-1.172 S800
G1 X0.215 Y-1.167 S800
G1 X0.276 Y-1.160 S800
G1 X0.337 Y-1.151 S800
G1 X0.397 Y-1.140 S800
G1 X0.456 Y-1.127 S800
G1 X0.515 Y-1.113 S800
G1 X0.572 Y-1.097 S800
G1 X0.629 Y-1.079 S800
G1 X0.685 Y-1.060 S800
G1 X0.740 Y-1.039 S800
G1 X0.794 Y-1.016 S800
G1 X0.847 Y-0.992 S800
G1 X0.898 Y-0.966 S800
G1 X0.948 Y-0.939 S800
G1 X0.996 Y-0.911 S800
G1 X1.043 Y-0.881 S800
G1 X1.089 Y-0.849 S800
G1 X1.132 Y-0.816 S800
G1 X1.174 Y-0.783 S800
G1 X1.214 Y-0.747 S800
G1 X1.252 Y-0.711 S800
G1 X1.289 Y-0.674 S800
G1 X1.323 Y-0.635 S800
G1 X1.355 Y-0.596 S800
G1 X1.385 Y-0.555 S800
G1 X1.413 Y-0.514 S800
G1 X1.439 Y-0.472 S800
G1 X1.463 Y-0.429 S800
G1 X1.484 Y-0.386 S800
G1 X1.503 Y-0.342 S800
G1 X1.520 Y-0.297 S800
G1 X1.534 Y-0.252 S800
G1 X1.546 Y-0.207 S800
G1 X1.556 Y-0.161 S800
G1 X1.563 Y-0.115 S800
G1 X1.568 Y-0.069 S800
G1 X1.570 Y-0.023 S800
G1 X1.570 Y0.023 S800
G1 X1.568 Y0.069 S800
G1 X1.563 Y0.115 S800
G1 X1.556 Y0.161 S800
G1 X1.546 Y0.207 S800
G1 X1.534 Y0.252 S800
G1 X1.520 Y0.297 S800
G1 X1.503 Y0.342 S800
G1 X1.484 Y0.386 S800
G1 X1.463 Y0.429 S800
G1 X1.439 Y0.472 S800
G1 X1.413 Y0.514 S800
G1 X1.385 Y0.555 S800
G1 X1.355 Y0.596 S800
G1 X1.323 Y0.635 S800
G1 X1.289 Y0.674 S800
G1 X1.252 Y0.711 S800
G1 X1.214 Y0.747 S800
G1 X1.174 Y0.783 S800
G1 X1.132 Y0.816 S800
G1 X1.089 Y0.849 S800
G1 X1.043 Y0.881 S800
G1 X0.996 Y0.911 S800
G1 X0.948 Y0.939 S800
G1 X0.898 Y0.966 S800
G1 X0.847 Y0.992 S800
G1 X0.794 Y1.016 S800
G1 X0.740 Y1.039 S800
G1 X0.685 Y1.060 S800
G1 X0.629 Y1.079 S800
G1 X0.572 Y1.097 S800
G1 X0.515 Y1.113 S800
G1 X0.456 Y1.127 S800
G1 X0.397 Y1.140 S800
G1 X0.337 Y1.151 S800
G1 X0.276 Y1.160 S800
G1 X0.215 Y1.167 S800
G1 X0.154 Y1.172 S800
G1 X0.092 Y1.176 S800
G1 X0.031 Y1.178 S800
G1 X-0.031 Y1.178 S800
M5 S0
M9 ; air assist OFF

M5 S0
G0 X-79.969 Y-31.178 ; return to start
G90 ; restore absolute positioning
M2 ; program end