; Generated by LaserForge
; Job: engrave-fill fixture
; Objects: 1, Layers: 1
G21 ; mm mode
G91 ; relative positioning (Head mode)
M5 S0

; --- Engrave (pass 1) ---
; OBJ ids=mobm3um9-4-cticek
M4 S0
G0 Y29.900
G1 X1.250 F3000 S0
G1 X1.250 S350
G1 X37.500 S500
G1 X1.250 S350
G1 X1.250 S0
G0 Y-0.100
G1 X-1.250 S0
G1 X-1.250 S350
G1 X-37.500 S500
G1 X-1.250 S350
G1 X-1.250 S0
G0 Y-0.100
G1 X1.250 S0
G1 X1.250 S350
G1 X37.500 S500
G1 X1.250 S350
G1 X1.250 S0
G0 Y-0.100
G1 X-1.250 S0
G1 X-1.250 S350
G1 X-37.500 S500
G1 X-1.250 S350
G1 X-1.250 S0
G0 Y-0.100
G1 X1.250 S0
G1 X1.250 S350
G1 X37.500 S500
G1 X1.250 S350
G1 X1.250 S0
G0 Y-0.100
G1 X-1.250 S0
G1 X-1.250 S350
G1 X-37.500 S500
G1 X-1.250 S350
G1 X-1.250 S0
G0 Y-0.100
G1 X1.250 S0
G1 X1.250 S350
G1 X37.500 S500
G1 X1.250 S350
G1 X1.250 S0
G0 Y-0.100
G1 X-1.250 S0
G1 X-1.250 S350
G1 X-37.500 S500
G1 X-1.250 S350
G1 X-1.250 S0
G0 Y-0.100
G1 X1.250 S0
G1 X1.250 S350
G1 X37.500 S500
G1 X1.250 S350
G1 X1.250 S0
G0 Y-0.100
G1 X-1.250 S0
G1 X-1.250 S350
G1 X-37.500 S500
G1 X-1.250 S350
G1 X-1.250 S0
G0 Y-0.100
G1 X1.250 S0
G1 X1.250 S350
G1 X37.500 S500
G1 X1.250 S350
G1 X1.250 S0
G0 Y-0.100
G1 X-1.250 S0
G1 X-1.250 S350
G1 X-37.500 S500
G1 X-1.250 S350
G1 X-1.250 S0
G0 Y-0.100
G1 X1.250 S0
G1 X1.250 S350
G1 X37.500 S500
G1 X1.250 S350
G1 X1.250 S0
G0 Y-0.100
G1 X-1.250 S0
G1 X-1.250 S350
G1 X-37.500 S500
G1 X-1.250 S350
G1 X-1.250 S0
G0 Y-0.100
G1 X1.250 S0
G1 X1.250 S350
G1 X37.500 S500
G1 X1.250 S350
G1 X1.250 S0
G0 Y-0.100
G1 X-1.250 S0
G1 X-1.250 S350
G1 X-37.500 S500
G1 X-1.250 S350
G1 X-1.250 S0
G0 Y-0.100
G1 X1.250 S0
G1 X1.250 S350
G1 X37.500 S500
G1 X1.250 S350
G1 X1.250 S0
G0 Y-0.100
G1 X-1.250 S0
G1 X-1.250 S350
G1 X-37.500 S500
G1 X-1.250 S350
G1 X-1.250 S0
G0 Y-0.100
G1 X1.250 S0
G1 X1.250 S350
G1 X37.500 S500
G1 X1.250 S350
G1 X1.250 S0
G0 Y-0.100
G1 X-1.250 S0
G1 X-1.250 S350
G1 X-37.500 S500
G1 X-1.250 S350
G1 X-1.250 S0
G0 Y-0.100
G1 X1.250 S0
G1 X1.250 S350
G1 X37.500 S500
G1 X1.250 S350
G1 X1.250 S0
G0 Y-0.100
G1 X-1.250 S0
G1 X-1.250 S350
G1 X-37.500 S500
G1 X-1.250 S350
G1 X-1.250 S0
G0 Y-0.100
G1 X1.250 S0
G1 X1.250 S350
G1 X37.500 S500
G1 X1.250 S350
G1 X1.250 S0
G0 Y-0.100
G1 X-1.250 S0
G1 X-1.250 S350
G1 X-37.500 S500
G1 X-1.250 S350
G1 X-1.250 S0
G0 Y-0.100
G1 X1.250 S0
G1 X1.250 S350
G1 X37.500 S500
G1 X1.250 S350
G1 X1.250 S0
G0 Y-0.100
G1 X-1.250 S0
G1 X-1.250 S350
G1 X-37.500 S500
G1 X-1.250 S350
G1 X-1.250 S0
G0 Y-0.100
G1 X1.250 S0
G1 X1.250 S350
G1 X37.500 S500
G1 X1.250 S350
G1 X1.250 S0
G0 Y-0.100
G1 X-1.250 S0
G1 X-1.250 S350
G1 X-37.500 S500
G1 X-1.250 S350
G1 X-1.250 S0
G0 Y-0.100
G1 X1.250 S0
G1 X1.250 S350
G1 X37.500 S500
G1 X1.250 S350
G1 X1.250 S0
G0 Y-0.100
G1 X-1.250 S0
G1 X-1.250 S350
G1 X-37.500 S500
G1 X-1.250 S350
G1 X-1.250 S0
G0 Y-0.100
G1 X1.250 S0
G1 X1.250 S350
G1 X37.500 S500
G1 X1.250 S350
G1 X1.250 S0
G0 Y-0.100
G1 X-1.250 S0
G1 X-1.250 S350
G1 X-37.500 S500
G1 X-1.250 S350
G1 X-1.250 S0
G0 Y-0.100
G1 X1.250 S0
G1 X1.250 S350
G1 X37.500 S500
G1 X1.250 S350
G1 X1.250 S0
G0 Y-0.100
G1 X-1.250 S0
G1 X-1.250 S350
G1 X-37.500 S500
G1 X-1.250 S350
G1 X-1.250 S0
G0 Y-0.100
G1 X1.250 S0
G1 X1.250 S350
G1 X37.500 S500
G1 X1.250 S350
G1 X1.250 S0
G0 Y-0.100
G1 X-1.250 S0
G1 X-1.250 S350
G1 X-37.500 S500
G1 X-1.250 S350
G1 X-1.250 S0
G0 Y-0.100
G1 X1.250 S0
G1 X1.250 S350
G1 X37.500 S500
G1 X1.250 S350
G1 X1.250 S0
G0 Y-0.100
G1 X-1.250 S0
G1 X-1.250 S350
G1 X-37.500 S500
G1 X-1.250 S350
G1 X-1.250 S0
G0 Y-0.100
G1 X1.250 S0
G1 X1.250 S350
G1 X37.500 S500
G1 X1.250 S350
G1 X1.250 S0
G0 Y-0.100
G1 X-1.250 S0
G1 X-1.250 S350
G1 X-37.500 S500
G1 X-1.250 S350
G1 X-1.250 S0
G0 Y-0.100
G1 X1.250 S0
G1 X1.250 S350
G1 X37.500 S500
G1 X1.250 S350
G1 X1.250 S0
G0 Y-0.100
G1 X-1.250 S0
G1 X-1.250 S350
G1 X-37.500 S500
G1 X-1.250 S350
G1 X-1.250 S0
G0 Y-0.100
G1 X1.250 S0
G1 X1.250 S350
G1 X37.500 S500
G1 X1.250 S350
G1 X1.250 S0
G0 Y-0.100
G1 X-1.250 S0
G1 X-1.250 S350
G1 X-37.500 S500
G1 X-1.250 S350
G1 X-1.250 S0
G0 Y-0.100
G1 X1.250 S0
G1 X1.250 S350
G1 X37.500 S500
G1 X1.250 S350
G1 X1.250 S0
G0 Y-0.100
G1 X-1.250 S0
G1 X-1.250 S350
G1 X-37.500 S500
G1 X-1.250 S350
G1 X-1.250 S0
G0 Y-0.100
G1 X1.250 S0
G1 X1.250 S350
G1 X37.500 S500
G1 X1.250 S350
G1 X1.250 S0
G0 Y-0.100
G1 X-1.250 S0
G1 X-1.250 S350
G1 X-37.500 S500
G1 X-1.250 S350
G1 X-1.250 S0
G0 Y-0.100
G1 X1.250 S0
G1 X1.250 S350
G1 X37.500 S500
G1 X1.250 S350
G1 X1.250 S0
G0 Y-0.100
G1 X-1.250 S0
G1 X-1.250 S350
G1 X-37.500 S500
G1 X-1.250 S350
G1 X-1.250 S0
G0 Y-0.100
G1 X1.250 S0
G1 X1.250 S350
G1 X37.500 S500
G1 X1.250 S350
G1 X1.250 S0
G0 Y-0.100
G1 X-1.250 S0
G1 X-1.250 S350
G1 X-37.500 S500
G1 X-1.250 S350
G1 X-1.250 S0
G0 Y-0.100
G1 X1.250 S0
G1 X1.250 S350
G1 X37.500 S500
G1 X1.250 S350
G1 X1.250 S0
G0 Y-0.100
G1 X-1.250 S0
G1 X-1.250 S350
G1 X-37.500 S500
G1 X-1.250 S350
G1 X-1.250 S0
G0 Y-0.100
G1 X1.250 S0
G1 X1.250 S350
G1 X37.500 S500
G1 X1.250 S350
G1 X1.250 S0
G0 Y-0.100
G1 X-1.250 S0
G1 X-1.250 S350
G1 X-37.500 S500
G1 X-1.250 S350
G1 X-1.250 S0
G0 Y-0.100
G1 X1.250 S0
G1 X1.250 S350
G1 X37.500 S500
G1 X1.250 S350
G1 X1.250 S0
G0 Y-0.100
G1 X-1.250 S0
G1 X-1.250 S350
G1 X-37.500 S500
G1 X-1.250 S350
G1 X-1.250 S0
G0 Y-0.100
G1 X1.250 S0
G1 X1.250 S350
G1 X37.500 S500
G1 X1.250 S350
G1 X1.250 S0
G0 Y-0.100
G1 X-1.250 S0
G1 X-1.250 S350
G1 X-37.500 S500
G1 X-1.250 S350
G1 X-1.250 S0
G0 Y-0.100
G1 X1.250 S0
G1 X1.250 S350
G1 X37.500 S500
G1 X1.250 S350
G1 X1.250 S0
G0 Y-0.100
G1 X-1.250 S0
G1 X-1.250 S350
G1 X-37.500 S500
G1 X-1.250 S350
G1 X-1.250 S0
G0 Y-0.100
G1 X1.250 S0
G1 X1.250 S350
G1 X37.500 S500
G1 X1.250 S350
G1 X1.250 S0
G0 Y-0.100
G1 X-1.250 S0
G1 X-1.250 S350
G1 X-37.500 S500
G1 X-1.250 S350
G1 X-1.250 S0
G0 Y-0.100
G1 X1.250 S0
G1 X1.250 S350
G1 X37.500 S500
G1 X1.250 S350
G1 X1.250 S0
G0 Y-0.100
G1 X-1.250 S0
G1 X-1.250 S350
G1 X-37.500 S500
G1 X-1.250 S350
G1 X-1.250 S0
G0 Y-0.100
G1 X1.250 S0
G1 X1.250 S350
G1 X37.500 S500
G1 X1.250 S350
G1 X1.250 S0
G0 Y-0.100
G1 X-1.250 S0
G1 X-1.250 S350
G1 X-37.500 S500
G1 X-1.250 S350
G1 X-1.250 S0
G0 Y-0.100
G1 X1.250 S0
G1 X1.250 S350
G1 X37.500 S500
G1 X1.250 S350
G1 X1.250 S0
G0 Y-0.100
G1 X-1.250 S0
G1 X-1.250 S350
G1 X-37.500 S500
G1 X-1.250 S350
G1 X-1.250 S0
G0 Y-0.100
G1 X1.250 S0
G1 X1.250 S350
G1 X37.500 S500
G1 X1.250 S350
G1 X1.250 S0
G0 Y-0.100
G1 X-1.250 S0
G1 X-1.250 S350
G1 X-37.500 S500
G1 X-1.250 S350
G1 X-1.250 S0
G0 Y-0.100
G1 X1.250 S0
G1 X1.250 S350
G1 X37.500 S500
G1 X1.250 S350
G1 X1.250 S0
G0 Y-0.100
G1 X-1.250 S0
G1 X-1.250 S350
G1 X-37.500 S500
G1 X-1.250 S350
G1 X-1.250 S0
G0 Y-0.100
G1 X1.250 S0
G1 X1.250 S350
G1 X37.500 S500
G1 X1.250 S350
G1 X1.250 S0
G0 Y-0.100
G1 X-1.250 S0
G1 X-1.250 S350
G1 X-37.500 S500
G1 X-1.250 S350
G1 X-1.250 S0
G0 Y-0.100
G1 X1.250 S0
G1 X1.250 S350
G1 X37.500 S500
G1 X1.250 S350
G1 X1.250 S0
G0 Y-0.100
G1 X-1.250 S0
G1 X-1.250 S350
G1 X-37.500 S500
G1 X-1.250 S350
G1 X-1.250 S0
G0 Y-0.100
G1 X1.250 S0
G1 X1.250 S350
G1 X37.500 S500
G1 X1.250 S350
G1 X1.250 S0
G0 Y-0.100
G1 X-1.250 S0
G1 X-1.250 S350
G1 X-37.500 S500
G1 X-1.250 S350
G1 X-1.250 S0
G0 Y-0.100
G1 X1.250 S0
G1 X1.250 S350
G1 X37.500 S500
G1 X1.250 S350
G1 X1.250 S0
G0 Y-0.100
G1 X-1.250 S0
G1 X-1.250 S350
G1 X-37.500 S500
G1 X-1.250 S350
G1 X-1.250 S0
G0 Y-0.100
G1 X1.250 S0
G1 X1.250 S350
G1 X37.500 S500
G1 X1.250 S350
G1 X1.250 S0
G0 Y-0.100
G1 X-1.250 S0
G1 X-1.250 S350
G1 X-37.500 S500
G1 X-1.250 S350
G1 X-1.250 S0
G0 Y-0.100
G1 X1.250 S0
G1 X1.250 S350
G1 X37.500 S500
G1 X1.250 S350
G1 X1.250 S0
G0 Y-0.100
G1 X-1.250 S0
G1 X-1.250 S350
G1 X-37.500 S500
G1 X-1.250 S350
G1 X-1.250 S0
G0 Y-0.100
G1 X1.250 S0
G1 X1.250 S350
G1 X37.500 S500
G1 X1.250 S350
G1 X1.250 S0
G0 Y-0.100
G1 X-1.250 S0
G1 X-1.250 S350
G1 X-37.500 S500
G1 X-1.250 S350
G1 X-1.250 S0
G0 Y-0.100
G1 X1.250 S0
G1 X1.250 S350
G1 X37.500 S500
G1 X1.250 S350
G1 X1.250 S0
G0 Y-0.100
G1 X-1.250 S0
G1 X-1.250 S350
G1 X-37.500 S500
G1 X-1.250 S350
G1 X-1.250 S0
G0 Y-0.100
G1 X1.250 S0
G1 X1.250 S350
G1 X37.500 S500
G1 X1.250 S350
G1 X1.250 S0
G0 Y-0.100
G1 X-1.250 S0
G1 X-1.250 S350
G1 X-37.500 S500
G1 X-1.250 S350
G1 X-1.250 S0
G0 Y-0.100
G1 X1.250 S0
G1 X1.250 S350
G1 X37.500 S500
G1 X1.250 S350
G1 X1.250 S0
G0 Y-0.100
G1 X-1.250 S0
G1 X-1.250 S350
G1 X-37.500 S500
G1 X-1.250 S350
G1 X-1.250 S0
G0 Y-0.100
G1 X1.250 S0
G1 X1.250 S350
G1 X37.500 S500
G1 X1.250 S350
G1 X1.250 S0
G0 Y-0.100
G1 X-1.250 S0
G1 X-1.250 S350
G1 X-37.500 S500
G1 X-1.250 S350
G1 X-1.250 S0
G0 Y-0.100
G1 X1.250 S0
G1 X1.250 S350
G1 X37.500 S500
G1 X1.250 S350
G1 X1.250 S0
G0 Y-0.100
G1 X-1.250 S0
G1 X-1.250 S350
G1 X-37.500 S500
G1 X-1.250 S350
G1 X-1.250 S0
G0 Y-0.100
G1 X1.250 S0
G1 X1.250 S350
G1 X37.500 S500
G1 X1.250 S350
G1 X1.250 S0
G0 Y-0.100
G1 X-1.250 S0
G1 X-1.250 S350
G1 X-37.500 S500
G1 X-1.250 S350
G1 X-1.250 S0
G0 Y-0.100
G1 X1.250 S0
G1 X1.250 S350
G1 X37.500 S500
G1 X1.250 S350
G1 X1.250 S0
G0 Y-0.100
G1 X-1.250 S0
G1 X-1.250 S350
G1 X-37.500 S500
G1 X-1.250 S350
G1 X-1.250 S0
G0 Y-0.100
G1 X1.250 S0
G1 X1.250 S350
G1 X37.500 S500
G1 X1.250 S350
G1 X1.250 S0
G0 Y-0.100
G1 X-1.250 S0
G1 X-1.250 S350
G1 X-37.500 S500
G1 X-1.250 S350
G1 X-1.250 S0
G0 Y-0.100
G1 X1.250 S0
G1 X1.250 S350
G1 X37.500 S500
G1 X1.250 S350
G1 X1.250 S0
G0 Y-0.100
G1 X-1.250 S0
G1 X-1.250 S350
G1 X-37.500 S500
G1 X-1.250 S350
G1 X-1.250 S0
G0 Y-0.100
G1 X1.250 S0
G1 X1.250 S350
G1 X37.500 S500
G1 X1.250 S350
G1 X1.250 S0
G0 Y-0.100
G1 X-1.250 S0
G1 X-1.250 S350
G1 X-37.500 S500
G1 X-1.250 S350
G1 X-1.250 S0
G0 Y-0.100
G1 X1.250 S0
G1 X1.250 S350
G1 X37.500 S500
G1 X1.250 S350
G1 X1.250 S0
G0 Y-0.100
G1 X-1.250 S0
G1 X-1.250 S350
G1 X-37.500 S500
G1 X-1.250 S350
G1 X-1.250 S0
G0 Y-0.100
G1 X1.250 S0
G1 X1.250 S350
G1 X37.500 S500
G1 X1.250 S350
G1 X1.250 S0
G0 Y-0.100
G1 X-1.250 S0
G1 X-1.250 S350
G1 X-37.500 S500
G1 X-1.250 S350
G1 X-1.250 S0
G0 Y-0.100
G1 X1.250 S0
G1 X1.250 S350
G1 X37.500 S500
G1 X1.250 S350
G1 X1.250 S0
G0 Y-0.100
G1 X-1.250 S0
G1 X-1.250 S350
G1 X-37.500 S500
G1 X-1.250 S350
G1 X-1.250 S0
G0 Y-0.100
G1 X1.250 S0
G1 X1.250 S350
G1 X37.500 S500
G1 X1.250 S350
G1 X1.250 S0
G0 Y-0.100
G1 X-1.250 S0
G1 X-1.250 S350
G1 X-37.500 S500
G1 X-1.250 S350
G1 X-1.250 S0
G0 Y-0.100
G1 X1.250 S0
G1 X1.250 S350
G1 X37.500 S500
G1 X1.250 S350
G1 X1.250 S0
G0 Y-0.100
G1 X-1.250 S0
G1 X-1.250 S350
G1 X-37.500 S500
G1 X-1.250 S350
G1 X-1.250 S0
G0 Y-0.100
G1 X1.250 S0
G1 X1.250 S350
G1 X37.500 S500
G1 X1.250 S350
G1 X1.250 S0
G0 Y-0.100
G1 X-1.250 S0
G1 X-1.250 S350
G1 X-37.500 S500
G1 X-1.250 S350
G1 X-1.250 S0
G0 Y-0.100
G1 X1.250 S0
G1 X1.250 S350
G1 X37.500 S500
G1 X1.250 S350
G1 X1.250 S0
G0 Y-0.100
G1 X-1.250 S0
G1 X-1.250 S350
G1 X-37.500 S500
G1 X-1.250 S350
G1 X-1.250 S0
G0 Y-0.100
G1 X1.250 S0
G1 X1.250 S350
G1 X37.500 S500
G1 X1.250 S350
G1 X1.250 S0
G0 Y-0.100
G1 X-1.250 S0
G1 X-1.250 S350
G1 X-37.500 S500
G1 X-1.250 S350
G1 X-1.250 S0
G0 Y-0.100
G1 X1.250 S0
G1 X1.250 S350
G1 X37.500 S500
G1 X1.250 S350
G1 X1.250 S0
G0 Y-0.100
G1 X-1.250 S0
G1 X-1.250 S350
G1 X-37.500 S500
G1 X-1.250 S350
G1 X-1.250 S0
G0 Y-0.100
G1 X1.250 S0
G1 X1.250 S350
G1 X37.500 S500
G1 X1.250 S350
G1 X1.250 S0
G0 Y-0.100
G1 X-1.250 S0
G1 X-1.250 S350
G1 X-37.500 S500
G1 X-1.250 S350
G1 X-1.250 S0
G0 Y-0.100
G1 X1.250 S0
G1 X1.250 S350
G1 X37.500 S500
G1 X1.250 S350
G1 X1.250 S0
G0 Y-0.100
G1 X-1.250 S0
G1 X-1.250 S350
G1 X-37.500 S500
G1 X-1.250 S350
G1 X-1.250 S0
G0 Y-0.100
G1 X1.250 S0
G1 X1.250 S350
G1 X37.500 S500
G1 X1.250 S350
G1 X1.250 S0
G0 Y-0.100
G1 X-1.250 S0
G1 X-1.250 S350
G1 X-37.500 S500
G1 X-1.250 S350
G1 X-1.250 S0
G0 Y-0.100
G1 X1.250 S0
G1 X1.250 S350
G1 X37.500 S500
G1 X1.250 S350
G1 X1.250 S0
G0 Y-0.100
G1 X-1.250 S0
G1 X-1.250 S350
G1 X-37.500 S500
G1 X-1.250 S350
G1 X-1.250 S0
G0 Y-0.100
G1 X1.250 S0
G1 X1.250 S350
G1 X37.500 S500
G1 X1.250 S350
G1 X1.250 S0
G0 Y-0.100
G1 X-1.250 S0
G1 X-1.250 S350
G1 X-37.500 S500
G1 X-1.250 S350
G1 X-1.250 S0
G0 Y-0.100
G1 X1.250 S0
G1 X1.250 S350
G1 X37.500 S500
G1 X1.250 S350
G1 X1.250 S0
G0 Y-0.100
G1 X-1.250 S0
G1 X-1.250 S350
G1 X-37.500 S500
G1 X-1.250 S350
G1 X-1.250 S0
G0 Y-0.100
G1 X1.250 S0
G1 X1.250 S350
G1 X37.500 S500
G1 X1.250 S350
G1 X1.250 S0
G0 Y-0.100
G1 X-1.250 S0
G1 X-1.250 S350
G1 X-37.500 S500
G1 X-1.250 S350
G1 X-1.250 S0
G0 Y-0.100
G1 X1.250 S0
G1 X1.250 S350
G1 X37.500 S500
G1 X1.250 S350
G1 X1.250 S0
G0 Y-0.100
G1 X-1.250 S0
G1 X-1.250 S350
G1 X-37.500 S500
G1 X-1.250 S350
G1 X-1.250 S0
G0 Y-0.100
G1 X1.250 S0
G1 X1.250 S350
G1 X37.500 S500
G1 X1.250 S350
G1 X1.250 S0
G0 Y-0.100
G1 X-1.250 S0
G1 X-1.250 S350
G1 X-37.500 S500
G1 X-1.250 S350
G1 X-1.250 S0
G0 Y-0.100
G1 X1.250 S0
G1 X1.250 S350
G1 X37.500 S500
G1 X1.250 S350
G1 X1.250 S0
G0 Y-0.100
G1 X-1.250 S0
G1 X-1.250 S350
G1 X-37.500 S500
G1 X-1.250 S350
G1 X-1.250 S0
G0 Y-0.100
G1 X1.250 S0
G1 X1.250 S350
G1 X37.500 S500
G1 X1.250 S350
G1 X1.250 S0
G0 Y-0.100
G1 X-1.250 S0
G1 X-1.250 S350
G1 X-37.500 S500
G1 X-1.250 S350
G1 X-1.250 S0
G0 Y-0.100
G1 X1.250 S0
G1 X1.250 S350
G1 X37.500 S500
G1 X1.250 S350
G1 X1.250 S0
G0 Y-0.100
G1 X-1.250 S0
G1 X-1.250 S350
G1 X-37.500 S500
G1 X-1.250 S350
G1 X-1.250 S0
G0 Y-0.100
G1 X1.250 S0
G1 X1.250 S350
G1 X37.500 S500
G1 X1.250 S350
G1 X1.250 S0
G0 Y-0.100
G1 X-1.250 S0
G1 X-1.250 S350
G1 X-37.500 S500
G1 X-1.250 S350
G1 X-1.250 S0
G0 Y-0.100
G1 X1.250 S0
G1 X1.250 S350
G1 X37.500 S500
G1 X1.250 S350
G1 X1.250 S0
G0 Y-0.100
G1 X-1.250 S0
G1 X-1.250 S350
G1 X-37.500 S500
G1 X-1.250 S350
G1 X-1.250 S0
G0 Y-0.100
G1 X1.250 S0
G1 X1.250 S350
G1 X37.500 S500
G1 X1.250 S350
G1 X1.250 S0
G0 Y-0.100
G1 X-1.250 S0
G1 X-1.250 S350
G1 X-37.500 S500
G1 X-1.250 S350
G1 X-1.250 S0
G0 Y-0.100
G1 X1.250 S0
G1 X1.250 S350
G1 X37.500 S500
G1 X1.250 S350
G1 X1.250 S0
G0 Y-0.100
G1 X-1.250 S0
G1 X-1.250 S350
G1 X-37.500 S500
G1 X-1.250 S350
G1 X-1.250 S0
G0 Y-0.100
G1 X1.250 S0
G1 X1.250 S350
G1 X37.500 S500
G1 X1.250 S350
G1 X1.250 S0
G0 Y-0.100
G1 X-1.250 S0
G1 X-1.250 S350
G1 X-37.500 S500
G1 X-1.250 S350
G1 X-1.250 S0
G0 Y-0.100
G1 X1.250 S0
G1 X1.250 S350
G1 X37.500 S500
G1 X1.250 S350
G1 X1.250 S0
G0 Y-0.100
G1 X-1.250 S0
G1 X-1.250 S350
G1 X-37.500 S500
G1 X-1.250 S350
G1 X-1.250 S0
G0 Y-0.100
G1 X1.250 S0
G1 X1.250 S350
G1 X37.500 S500
G1 X1.250 S350
G1 X1.250 S0
G0 Y-0.100
G1 X-1.250 S0
G1 X-1.250 S350
G1 X-37.500 S500
G1 X-1.250 S350
G1 X-1.250 S0
G0 Y-0.100
G1 X1.250 S0
G1 X1.250 S350
G1 X37.500 S500
G1 X1.250 S350
G1 X1.250 S0
G0 Y-0.100
G1 X-1.250 S0
G1 X-1.250 S350
G1 X-37.500 S500
G1 X-1.250 S350
G1 X-1.250 S0
G0 Y-0.100
G1 X1.250 S0
G1 X1.250 S350
G1 X37.500 S500
G1 X1.250 S350
G1 X1.250 S0
G0 Y-0.100
G1 X-1.250 S0
G1 X-1.250 S350
G1 X-37.500 S500
G1 X-1.250 S350
G1 X-1.250 S0
G0 Y-0.100
G1 X1.250 S0
G1 X1.250 S350
G1 X37.500 S500
G1 X1.250 S350
G1 X1.250 S0
G0 Y-0.100
G1 X-1.250 S0
G1 X-1.250 S350
G1 X-37.500 S500
G1 X-1.250 S350
G1 X-1.250 S0
G0 Y-0.100
G1 X1.250 S0
G1 X1.250 S350
G1 X37.500 S500
G1 X1.250 S350
G1 X1.250 S0
G0 Y-0.100
G1 X-1.250 S0
G1 X-1.250 S350
G1 X-37.500 S500
G1 X-1.250 S350
G1 X-1.250 S0
G0 Y-0.100
G1 X1.250 S0
G1 X1.250 S350
G1 X37.500 S500
G1 X1.250 S350
G1 X1.250 S0
G0 Y-0.100
G1 X-1.250 S0
G1 X-1.250 S350
G1 X-37.500 S500
G1 X-1.250 S350
G1 X-1.250 S0
G0 Y-0.100
G1 X1.250 S0
G1 X1.250 S350
G1 X37.500 S500
G1 X1.250 S350
G1 X1.250 S0
G0 Y-0.100
G1 X-1.250 S0
G1 X-1.250 S350
G1 X-37.500 S500
G1 X-1.250 S350
G1 X-1.250 S0
G0 Y-0.100
G1 X1.250 S0
G1 X1.250 S350
G1 X37.500 S500
G1 X1.250 S350
G1 X1.250 S0
G0 Y-0.100
G1 X-1.250 S0
G1 X-1.250 S350
G1 X-37.500 S500
G1 X-1.250 S350
G1 X-1.250 S0
G0 Y-0.100
G1 X1.250 S0
G1 X1.250 S350
G1 X37.500 S500
G1 X1.250 S350
G1 X1.250 S0
G0 Y-0.100
G1 X-1.250 S0
G1 X-1.250 S350
G1 X-37.500 S500
G1 X-1.250 S350
G1 X-1.250 S0
G0 Y-0.100
G1 X1.250 S0
G1 X1.250 S350
G1 X37.500 S500
G1 X1.250 S350
G1 X1.250 S0
G0 Y-0.100
G1 X-1.250 S0
G1 X-1.250 S350
G1 X-37.500 S500
G1 X-1.250 S350
G1 X-1.250 S0
G0 Y-0.100
G1 X1.250 S0
G1 X1.250 S350
G1 X37.500 S500
G1 X1.250 S350
G1 X1.250 S0
G0 Y-0.100
G1 X-1.250 S0
G1 X-1.250 S350
G1 X-37.500 S500
G1 X-1.250 S350
G1 X-1.250 S0
G0 Y-0.100
G1 X1.250 S0
G1 X1.250 S350
G1 X37.500 S500
