; Generated by LaserForge
; Job: engrave-fill fixture
; Objects: 1, Layers: 1
G21 ; mm mode
G90 ; absolute positioning
M5 S0

; --- Engrave (pass 1) ---
M4 S0
G0 X0.000 Y29.900
G1 X1.250 Y29.900 F3000 S0
G1 X41.250 Y29.900 S500
G1 X42.500 Y29.900 S0
G0 X42.500 Y29.800
G1 X41.250 Y29.800 S0
G1 X1.250 Y29.800 S500
G1 X0.000 Y29.800 S0
G0 X0.000 Y29.700
G1 X1.250 Y29.700 S0
G1 X41.250 Y29.700 S500
G1 X42.500 Y29.700 S0
G0 X42.500 Y29.600
G1 X41.250 Y29.600 S0
G1 X1.250 Y29.600 S500
G1 X0.000 Y29.600 S0
G0 X0.000 Y29.500
G1 X1.250 Y29.500 S0
G1 X41.250 Y29.500 S500
G1 X42.500 Y29.500 S0
G0 X42.500 Y29.400
G1 X41.250 Y29.400 S0
G1 X1.250 Y29.400 S500
G1 X0.000 Y29.400 S0
G0 X0.000 Y29.300
G1 X1.250 Y29.300 S0
G1 X41.250 Y29.300 S500
G1 X42.500 Y29.300 S0
G0 X42.500 Y29.200
G1 X41.250 Y29.200 S0
G1 X1.250 Y29.200 S500
G1 X0.000 Y29.200 S0
G0 X0.000 Y29.100
G1 X1.250 Y29.100 S0
G1 X41.250 Y29.100 S500
G1 X42.500 Y29.100 S0
G0 X42.500 Y29.000
G1 X41.250 Y29.000 S0
G1 X1.250 Y29.000 S500
G1 X0.000 Y29.000 S0
G0 X0.000 Y28.900
G1 X1.250 Y28.900 S0
G1 X41.250 Y28.900 S500
G1 X42.500 Y28.900 S0
G0 X42.500 Y28.800
G1 X41.250 Y28.800 S0
G1 X1.250 Y28.800 S500
G1 X0.000 Y28.800 S0
G0 X0.000 Y28.700
G1 X1.250 Y28.700 S0
G1 X41.250 Y28.700 S500
G1 X42.500 Y28.700 S0
G0 X42.500 Y28.600
G1 X41.250 Y28.600 S0
G1 X1.250 Y28.600 S500
G1 X0.000 Y28.600 S0
G0 X0.000 Y28.500
G1 X1.250 Y28.500 S0
G1 X41.250 Y28.500 S500
G1 X42.500 Y28.500 S0
G0 X42.500 Y28.400
G1 X41.250 Y28.400 S0
G1 X1.250 Y28.400 S500
G1 X0.000 Y28.400 S0
G0 X0.000 Y28.300
G1 X1.250 Y28.300 S0
G1 X41.250 Y28.300 S500
G1 X42.500 Y28.300 S0
G0 X42.500 Y28.200
G1 X41.250 Y28.200 S0
G1 X1.250 Y28.200 S500
G1 X0.000 Y28.200 S0
G0 X0.000 Y28.100
G1 X1.250 Y28.100 S0
G1 X41.250 Y28.100 S500
G1 X42.500 Y28.100 S0
G0 X42.500 Y28.000
G1 X41.250 Y28.000 S0
G1 X1.250 Y28.000 S500
G1 X0.000 Y28.000 S0
G0 X0.000 Y27.900
G1 X1.250 Y27.900 S0
G1 X41.250 Y27.900 S500
G1 X42.500 Y27.900 S0
G0 X42.500 Y27.800
G1 X41.250 Y27.800 S0
G1 X1.250 Y27.800 S500
G1 X0.000 Y27.800 S0
G0 X0.000 Y27.700
G1 X1.250 Y27.700 S0
G1 X41.250 Y27.700 S500
G1 X42.500 Y27.700 S0
G0 X42.500 Y27.600
G1 X41.250 Y27.600 S0
G1 X1.250 Y27.600 S500
G1 X0.000 Y27.600 S0
G0 X0.000 Y27.500
G1 X1.250 Y27.500 S0
G1 X41.250 Y27.500 S500
G1 X42.500 Y27.500 S0
G0 X42.500 Y27.400
G1 X41.250 Y27.400 S0
G1 X1.250 Y27.400 S500
G1 X0.000 Y27.400 S0
G0 X0.000 Y27.300
G1 X1.250 Y27.300 S0
G1 X41.250 Y27.300 S500
G1 X42.500 Y27.300 S0
G0 X42.500 Y27.200
G1 X41.250 Y27.200 S0
G1 X1.250 Y27.200 S500
G1 X0.000 Y27.200 S0
G0 X0.000 Y27.100
G1 X1.250 Y27.100 S0
G1 X41.250 Y27.100 S500
G1 X42.500 Y27.100 S0
G0 X42.500 Y27.000
G1 X41.250 Y27.000 S0
G1 X1.250 Y27.000 S500
G1 X0.000 Y27.000 S0
G0 X0.000 Y26.900
G1 X1.250 Y26.900 S0
G1 X41.250 Y26.900 S500
G1 X42.500 Y26.900 S0
G0 X42.500 Y26.800
G1 X41.250 Y26.800 S0
G1 X1.250 Y26.800 S500
G1 X0.000 Y26.800 S0
G0 X0.000 Y26.700
G1 X1.250 Y26.700 S0
G1 X41.250 Y26.700 S500
G1 X42.500 Y26.700 S0
G0 X42.500 Y26.600
G1 X41.250 Y26.600 S0
G1 X1.250 Y26.600 S500
G1 X0.000 Y26.600 S0
G0 X0.000 Y26.500
G1 X1.250 Y26.500 S0
G1 X41.250 Y26.500 S500
G1 X42.500 Y26.500 S0
G0 X42.500 Y26.400
G1 X41.250 Y26.400 S0
G1 X1.250 Y26.400 S500
G1 X0.000 Y26.400 S0
G0 X0.000 Y26.300
G1 X1.250 Y26.300 S0
G1 X41.250 Y26.300 S500
G1 X42.500 Y26.300 S0
G0 X42.500 Y26.200
G1 X41.250 Y26.200 S0
G1 X1.250 Y26.200 S500
G1 X0.000 Y26.200 S0
G0 X0.000 Y26.100
G1 X1.250 Y26.100 S0
G1 X41.250 Y26.100 S500
G1 X42.500 Y26.100 S0
G0 X42.500 Y26.000
G1 X41.250 Y26.000 S0
G1 X1.250 Y26.000 S500
G1 X0.000 Y26.000 S0
G0 X0.000 Y25.900
G1 X1.250 Y25.900 S0
G1 X41.250 Y25.900 S500
G1 X42.500 Y25.900 S0
G0 X42.500 Y25.800
G1 X41.250 Y25.800 S0
G1 X1.250 Y25.800 S500
G1 X0.000 Y25.800 S0
G0 X0.000 Y25.700
G1 X1.250 Y25.700 S0
G1 X41.250 Y25.700 S500
G1 X42.500 Y25.700 S0
G0 X42.500 Y25.600
G1 X41.250 Y25.600 S0
G1 X1.250 Y25.600 S500
G1 X0.000 Y25.600 S0
G0 X0.000 Y25.500
G1 X1.250 Y25.500 S0
G1 X41.250 Y25.500 S500
G1 X42.500 Y25.500 S0
G0 X42.500 Y25.400
G1 X41.250 Y25.400 S0
G1 X1.250 Y25.400 S500
G1 X0.000 Y25.400 S0
G0 X0.000 Y25.300
G1 X1.250 Y25.300 S0
G1 X41.250 Y25.300 S500
G1 X42.500 Y25.300 S0
G0 X42.500 Y25.200
G1 X41.250 Y25.200 S0
G1 X1.250 Y25.200 S500
G1 X0.000 Y25.200 S0
G0 X0.000 Y25.100
G1 X1.250 Y25.100 S0
G1 X41.250 Y25.100 S500
G1 X42.500 Y25.100 S0
G0 X42.500 Y25.000
G1 X41.250 Y25.000 S0
G1 X1.250 Y25.000 S500
G1 X0.000 Y25.000 S0
G0 X0.000 Y24.900
G1 X1.250 Y24.900 S0
G1 X41.250 Y24.900 S500
G1 X42.500 Y24.900 S0
G0 X42.500 Y24.800
G1 X41.250 Y24.800 S0
G1 X1.250 Y24.800 S500
G1 X0.000 Y24.800 S0
G0 X0.000 Y24.700
G1 X1.250 Y24.700 S0
G1 X41.250 Y24.700 S500
G1 X42.500 Y24.700 S0
G0 X42.500 Y24.600
G1 X41.250 Y24.600 S0
G1 X1.250 Y24.600 S500
G1 X0.000 Y24.600 S0
G0 X0.000 Y24.500
G1 X1.250 Y24.500 S0
G1 X41.250 Y24.500 S500
G1 X42.500 Y24.500 S0
G0 X42.500 Y24.400
G1 X41.250 Y24.400 S0
G1 X1.250 Y24.400 S500
G1 X0.000 Y24.400 S0
G0 X0.000 Y24.300
G1 X1.250 Y24.300 S0
G1 X41.250 Y24.300 S500
G1 X42.500 Y24.300 S0
G0 X42.500 Y24.200
G1 X41.250 Y24.200 S0
G1 X1.250 Y24.200 S500
G1 X0.000 Y24.200 S0
G0 X0.000 Y24.100
G1 X1.250 Y24.100 S0
G1 X41.250 Y24.100 S500
G1 X42.500 Y24.100 S0
G0 X42.500 Y24.000
G1 X41.250 Y24.000 S0
G1 X1.250 Y24.000 S500
G1 X0.000 Y24.000 S0
G0 X0.000 Y23.900
G1 X1.250 Y23.900 S0
G1 X41.250 Y23.900 S500
G1 X42.500 Y23.900 S0
G0 X42.500 Y23.800
G1 X41.250 Y23.800 S0
G1 X1.250 Y23.800 S500
G1 X0.000 Y23.800 S0
G0 X0.000 Y23.700
G1 X1.250 Y23.700 S0
G1 X41.250 Y23.700 S500
G1 X42.500 Y23.700 S0
G0 X42.500 Y23.600
G1 X41.250 Y23.600 S0
G1 X1.250 Y23.600 S500
G1 X0.000 Y23.600 S0
G0 X0.000 Y23.500
G1 X1.250 Y23.500 S0
G1 X41.250 Y23.500 S500
G1 X42.500 Y23.500 S0
G0 X42.500 Y23.400
G1 X41.250 Y23.400 S0
G1 X1.250 Y23.400 S500
G1 X0.000 Y23.400 S0
G0 X0.000 Y23.300
G1 X1.250 Y23.300 S0
G1 X41.250 Y23.300 S500
G1 X42.500 Y23.300 S0
G0 X42.500 Y23.200
G1 X41.250 Y23.200 S0
G1 X1.250 Y23.200 S500
G1 X0.000 Y23.200 S0
G0 X0.000 Y23.100
G1 X1.250 Y23.100 S0
G1 X41.250 Y23.100 S500
G1 X42.500 Y23.100 S0
G0 X42.500 Y23.000
G1 X41.250 Y23.000 S0
G1 X1.250 Y23.000 S500
G1 X0.000 Y23.000 S0
G0 X0.000 Y22.900
G1 X1.250 Y22.900 S0
G1 X41.250 Y22.900 S500
G1 X42.500 Y22.900 S0
G0 X42.500 Y22.800
G1 X41.250 Y22.800 S0
G1 X1.250 Y22.800 S500
G1 X0.000 Y22.800 S0
G0 X0.000 Y22.700
G1 X1.250 Y22.700 S0
G1 X41.250 Y22.700 S500
G1 X42.500 Y22.700 S0
G0 X42.500 Y22.600
G1 X41.250 Y22.600 S0
G1 X1.250 Y22.600 S500
G1 X0.000 Y22.600 S0
G0 X0.000 Y22.500
G1 X1.250 Y22.500 S0
G1 X41.250 Y22.500 S500
G1 X42.500 Y22.500 S0
G0 X42.500 Y22.400
G1 X41.250 Y22.400 S0
G1 X1.250 Y22.400 S500
G1 X0.000 Y22.400 S0
G0 X0.000 Y22.300
G1 X1.250 Y22.300 S0
G1 X41.250 Y22.300 S500
G1 X42.500 Y22.300 S0
G0 X42.500 Y22.200
G1 X41.250 Y22.200 S0
G1 X1.250 Y22.200 S500
G1 X0.000 Y22.200 S0
G0 X0.000 Y22.100
G1 X1.250 Y22.100 S0
G1 X41.250 Y22.100 S500
G1 X42.500 Y22.100 S0
G0 X42.500 Y22.000
G1 X41.250 Y22.000 S0
G1 X1.250 Y22.000 S500
G1 X0.000 Y22.000 S0
G0 X0.000 Y21.900
G1 X1.250 Y21.900 S0
G1 X41.250 Y21.900 S500
G1 X42.500 Y21.900 S0
G0 X42.500 Y21.800
G1 X41.250 Y21.800 S0
G1 X1.250 Y21.800 S500
G1 X0.000 Y21.800 S0
G0 X0.000 Y21.700
G1 X1.250 Y21.700 S0
G1 X41.250 Y21.700 S500
G1 X42.500 Y21.700 S0
G0 X42.500 Y21.600
G1 X41.250 Y21.600 S0
G1 X1.250 Y21.600 S500
G1 X0.000 Y21.600 S0
G0 X0.000 Y21.500
G1 X1.250 Y21.500 S0
G1 X41.250 Y21.500 S500
G1 X42.500 Y21.500 S0
G0 X42.500 Y21.400
G1 X41.250 Y21.400 S0
G1 X1.250 Y21.400 S500
G1 X0.000 Y21.400 S0
G0 X0.000 Y21.300
G1 X1.250 Y21.300 S0
G1 X41.250 Y21.300 S500
G1 X42.500 Y21.300 S0
G0 X42.500 Y21.200
G1 X41.250 Y21.200 S0
G1 X1.250 Y21.200 S500
G1 X0.000 Y21.200 S0
G0 X0.000 Y21.100
G1 X1.250 Y21.100 S0
G1 X41.250 Y21.100 S500
G1 X42.500 Y21.100 S0
G0 X42.500 Y21.000
G1 X41.250 Y21.000 S0
G1 X1.250 Y21.000 S500
G1 X0.000 Y21.000 S0
G0 X0.000 Y20.900
G1 X1.250 Y20.900 S0
G1 X41.250 Y20.900 S500
G1 X42.500 Y20.900 S0
G0 X42.500 Y20.800
G1 X41.250 Y20.800 S0
G1 X1.250 Y20.800 S500
G1 X0.000 Y20.800 S0
G0 X0.000 Y20.700
G1 X1.250 Y20.700 S0
G1 X41.250 Y20.700 S500
G1 X42.500 Y20.700 S0
G0 X42.500 Y20.600
G1 X41.250 Y20.600 S0
G1 X1.250 Y20.600 S500
G1 X0.000 Y20.600 S0
G0 X0.000 Y20.500
G1 X1.250 Y20.500 S0
G1 X41.250 Y20.500 S500
G1 X42.500 Y20.500 S0
G0 X42.500 Y20.400
G1 X41.250 Y20.400 S0
G1 X1.250 Y20.400 S500
G1 X0.000 Y20.400 S0
G0 X0.000 Y20.300
G1 X1.250 Y20.300 S0
G1 X41.250 Y20.300 S500
G1 X42.500 Y20.300 S0
G0 X42.500 Y20.200
G1 X41.250 Y20.200 S0
G1 X1.250 Y20.200 S500
G1 X0.000 Y20.200 S0
G0 X0.000 Y20.100
G1 X1.250 Y20.100 S0
G1 X41.250 Y20.100 S500
G1 X42.500 Y20.100 S0
G0 X42.500 Y20.000
G1 X41.250 Y20.000 S0
G1 X1.250 Y20.000 S500
G1 X0.000 Y20.000 S0
G0 X0.000 Y19.900
G1 X1.250 Y19.900 S0
G1 X41.250 Y19.900 S500
G1 X42.500 Y19.900 S0
G0 X42.500 Y19.800
G1 X41.250 Y19.800 S0
G1 X1.250 Y19.800 S500
G1 X0.000 Y19.800 S0
G0 X0.000 Y19.700
G1 X1.250 Y19.700 S0
G1 X41.250 Y19.700 S500
G1 X42.500 Y19.700 S0
G0 X42.500 Y19.600
G1 X41.250 Y19.600 S0
G1 X1.250 Y19.600 S500
G1 X0.000 Y19.600 S0
G0 X0.000 Y19.500
G1 X1.250 Y19.500 S0
G1 X41.250 Y19.500 S500
G1 X42.500 Y19.500 S0
G0 X42.500 Y19.400
G1 X41.250 Y19.400 S0
G1 X1.250 Y19.400 S500
G1 X0.000 Y19.400 S0
G0 X0.000 Y19.300
G1 X1.250 Y19.300 S0
G1 X41.250 Y19.300 S500
G1 X42.500 Y19.300 S0
G0 X42.500 Y19.200
G1 X41.250 Y19.200 S0
G1 X1.250 Y19.200 S500
G1 X0.000 Y19.200 S0
G0 X0.000 Y19.100
G1 X1.250 Y19.100 S0
G1 X41.250 Y19.100 S500
G1 X42.500 Y19.100 S0
G0 X42.500 Y19.000
G1 X41.250 Y19.000 S0
G1 X1.250 Y19.000 S500
G1 X0.000 Y19.000 S0
G0 X0.000 Y18.900
G1 X1.250 Y18.900 S0
G1 X41.250 Y18.900 S500
G1 X42.500 Y18.900 S0
G0 X42.500 Y18.800
G1 X41.250 Y18.800 S0
G1 X1.250 Y18.800 S500
G1 X0.000 Y18.800 S0
G0 X0.000 Y18.700
G1 X1.250 Y18.700 S0
G1 X41.250 Y18.700 S500
G1 X42.500 Y18.700 S0
G0 X42.500 Y18.600
G1 X41.250 Y18.600 S0
G1 X1.250 Y18.600 S500
G1 X0.000 Y18.600 S0
G0 X0.000 Y18.500
G1 X1.250 Y18.500 S0
G1 X41.250 Y18.500 S500
G1 X42.500 Y18.500 S0
G0 X42.500 Y18.400
G1 X41.250 Y18.400 S0
G1 X1.250 Y18.400 S500
G1 X0.000 Y18.400 S0
G0 X0.000 Y18.300
G1 X1.250 Y18.300 S0
G1 X41.250 Y18.300 S500
G1 X42.500 Y18.300 S0
G0 X42.500 Y18.200
G1 X41.250 Y18.200 S0
G1 X1.250 Y18.200 S500
G1 X0.000 Y18.200 S0
G0 X0.000 Y18.100
G1 X1.250 Y18.100 S0
G1 X41.250 Y18.100 S500
G1 X42.500 Y18.100 S0
G0 X42.500 Y18.000
G1 X41.250 Y18.000 S0
G1 X1.250 Y18.000 S500
G1 X0.000 Y18.000 S0
G0 X0.000 Y17.900
G1 X1.250 Y17.900 S0
G1 X41.250 Y17.900 S500
G1 X42.500 Y17.900 S0
G0 X42.500 Y17.800
G1 X41.250 Y17.800 S0
G1 X1.250 Y17.800 S500
G1 X0.000 Y17.800 S0
G0 X0.000 Y17.700
G1 X1.250 Y17.700 S0
G1 X41.250 Y17.700 S500
G1 X42.500 Y17.700 S0
G0 X42.500 Y17.600
G1 X41.250 Y17.600 S0
G1 X1.250 Y17.600 S500
G1 X0.000 Y17.600 S0
G0 X0.000 Y17.500
G1 X1.250 Y17.500 S0
G1 X41.250 Y17.500 S500
G1 X42.500 Y17.500 S0
G0 X42.500 Y17.400
G1 X41.250 Y17.400 S0
G1 X1.250 Y17.400 S500
G1 X0.000 Y17.400 S0
G0 X0.000 Y17.300
G1 X1.250 Y17.300 S0
G1 X41.250 Y17.300 S500
G1 X42.500 Y17.300 S0
G0 X42.500 Y17.200
G1 X41.250 Y17.200 S0
G1 X1.250 Y17.200 S500
G1 X0.000 Y17.200 S0
G0 X0.000 Y17.100
G1 X1.250 Y17.100 S0
G1 X41.250 Y17.100 S500
G1 X42.500 Y17.100 S0
G0 X42.500 Y17.000
G1 X41.250 Y17.000 S0
G1 X1.250 Y17.000 S500
G1 X0.000 Y17.000 S0
G0 X0.000 Y16.900
G1 X1.250 Y16.900 S0
G1 X41.250 Y16.900 S500
G1 X42.500 Y16.900 S0
G0 X42.500 Y16.800
G1 X41.250 Y16.800 S0
G1 X1.250 Y16.800 S500
G1 X0.000 Y16.800 S0
G0 X0.000 Y16.700
G1 X1.250 Y16.700 S0
G1 X41.250 Y16.700 S500
G1 X42.500 Y16.700 S0
G0 X42.500 Y16.600
G1 X41.250 Y16.600 S0
G1 X1.250 Y16.600 S500
G1 X0.000 Y16.600 S0
G0 X0.000 Y16.500
G1 X1.250 Y16.500 S0
G1 X41.250 Y16.500 S500
G1 X42.500 Y16.500 S0
G0 X42.500 Y16.400
G1 X41.250 Y16.400 S0
G1 X1.250 Y16.400 S500
G1 X0.000 Y16.400 S0
G0 X0.000 Y16.300
G1 X1.250 Y16.300 S0
G1 X41.250 Y16.300 S500
G1 X42.500 Y16.300 S0
G0 X42.500 Y16.200
G1 X41.250 Y16.200 S0
G1 X1.250 Y16.200 S500
G1 X0.000 Y16.200 S0
G0 X0.000 Y16.100
G1 X1.250 Y16.100 S0
G1 X41.250 Y16.100 S500
G1 X42.500 Y16.100 S0
G0 X42.500 Y16.000
G1 X41.250 Y16.000 S0
G1 X1.250 Y16.000 S500
G1 X0.000 Y16.000 S0
G0 X0.000 Y15.900
G1 X1.250 Y15.900 S0
G1 X41.250 Y15.900 S500
G1 X42.500 Y15.900 S0
G0 X42.500 Y15.800
G1 X41.250 Y15.800 S0
G1 X1.250 Y15.800 S500
G1 X0.000 Y15.800 S0
G0 X0.000 Y15.700
G1 X1.250 Y15.700 S0
G1 X41.250 Y15.700 S500
G1 X42.500 Y15.700 S0
G0 X42.500 Y15.600
G1 X41.250 Y15.600 S0
G1 X1.250 Y15.600 S500
G1 X0.000 Y15.600 S0
G0 X0.000 Y15.500
G1 X1.250 Y15.500 S0
G1 X41.250 Y15.500 S500
G1 X42.500 Y15.500 S0
G0 X42.500 Y15.400
G1 X41.250 Y15.400 S0
G1 X1.250 Y15.400 S500
G1 X0.000 Y15.400 S0
G0 X0.000 Y15.300
G1 X1.250 Y15.300 S0
G1 X41.250 Y15.300 S500
G1 X42.500 Y15.300 S0
G0 X42.500 Y15.200
G1 X41.250 Y15.200 S0
G1 X1.250 Y15.200 S500
G1 X0.000 Y15.200 S0
G0 X0.000 Y15.100
G1 X1.250 Y15.100 S0
G1 X41.250 Y15.100 S500
G1 X42.500 Y15.100 S0
G0 X42.500 Y15.000
G1 X41.250 Y15.000 S0
G1 X1.250 Y15.000 S500
G1 X0.000 Y15.000 S0
G0 X0.000 Y14.900
G1 X1.250 Y14.900 S0
G1 X41.250 Y14.900 S500
G1 X42.500 Y14.900 S0
G0 X42.500 Y14.800
G1 X41.250 Y14.800 S0
G1 X1.250 Y14.800 S500
G1 X0.000 Y14.800 S0
G0 X0.000 Y14.700
G1 X1.250 Y14.700 S0
G1 X41.250 Y14.700 S500
G1 X42.500 Y14.700 S0
G0 X42.500 Y14.600
G1 X41.250 Y14.600 S0
G1 X1.250 Y14.600 S500
G1 X0.000 Y14.600 S0
G0 X0.000 Y14.500
G1 X1.250 Y14.500 S0
G1 X41.250 Y14.500 S500
G1 X42.500 Y14.500 S0
G0 X42.500 Y14.400
G1 X41.250 Y14.400 S0
G1 X1.250 Y14.400 S500
G1 X0.000 Y14.400 S0
G0 X0.000 Y14.300
G1 X1.250 Y14.300 S0
G1 X41.250 Y14.300 S500
G1 X42.500 Y14.300 S0
G0 X42.500 Y14.200
G1 X41.250 Y14.200 S0
G1 X1.250 Y14.200 S500
G1 X0.000 Y14.200 S0
G0 X0.000 Y14.100
G1 X1.250 Y14.100 S0
G1 X41.250 Y14.100 S500
G1 X42.500 Y14.100 S0
G0 X42.500 Y14.000
G1 X41.250 Y14.000 S0
G1 X1.250 Y14.000 S500
G1 X0.000 Y14.000 S0
G0 X0.000 Y13.900
G1 X1.250 Y13.900 S0
G1 X41.250 Y13.900 S500
G1 X42.500 Y13.900 S0
G0 X42.500 Y13.800
G1 X41.250 Y13.800 S0
G1 X1.250 Y13.800 S500
G1 X0.000 Y13.800 S0
G0 X0.000 Y13.700
G1 X1.250 Y13.700 S0
G1 X41.250 Y13.700 S500
G1 X42.500 Y13.700 S0
G0 X42.500 Y13.600
G1 X41.250 Y13.600 S0
G1 X1.250 Y13.600 S500
G1 X0.000 Y13.600 S0
G0 X0.000 Y13.500
G1 X1.250 Y13.500 S0
G1 X41.250 Y13.500 S500
G1 X42.500 Y13.500 S0
G0 X42.500 Y13.400
G1 X41.250 Y13.400 S0
G1 X1.250 Y13.400 S500
G1 X0.000 Y13.400 S0
G0 X0.000 Y13.300
G1 X1.250 Y13.300 S0
G1 X41.250 Y13.300 S500
G1 X42.500 Y13.300 S0
G0 X42.500 Y13.200
G1 X41.250 Y13.200 S0
G1 X1.250 Y13.200 S500
G1 X0.000 Y13.200 S0
G0 X0.000 Y13.100
G1 X1.250 Y13.100 S0
G1 X41.250 Y13.100 S500
G1 X42.500 Y13.100 S0
G0 X42.500 Y13.000
G1 X41.250 Y13.000 S0
G1 X1.250 Y13.000 S500
G1 X0.000 Y13.000 S0
G0 X0.000 Y12.900
G1 X1.250 Y12.900 S0
G1 X41.250 Y12.900 S500
G1 X42.500 Y12.900 S0
G0 X42.500 Y12.800
G1 X41.250 Y12.800 S0
G1 X1.250 Y12.800 S500
G1 X0.000 Y12.800 S0
G0 X0.000 Y12.700
G1 X1.250 Y12.700 S0
G1 X41.250 Y12.700 S500
G1 X42.500 Y12.700 S0
G0 X42.500 Y12.600
G1 X41.250 Y12.600 S0
G1 X1.250 Y12.600 S500
G1 X0.000 Y12.600 S0
G0 X0.000 Y12.500
G1 X1.250 Y12.500 S0
G1 X41.250 Y12.500 S500
G1 X42.500 Y12.500 S0
G0 X42.500 Y12.400
G1 X41.250 Y12.400 S0
G1 X1.250 Y12.400 S500
G1 X0.000 Y12.400 S0
G0 X0.000 Y12.300
G1 X1.250 Y12.300 S0
G1 X41.250 Y12.300 S500
G1 X42.500 Y12.300 S0
G0 X42.500 Y12.200
G1 X41.250 Y12.200 S0
G1 X1.250 Y12.200 S500
G1 X0.000 Y12.200 S0
G0 X0.000 Y12.100
G1 X1.250 Y12.100 S0
G1 X41.250 Y12.100 S500
G1 X42.500 Y12.100 S0
G0 X42.500 Y12.000
G1 X41.250 Y12.000 S0
G1 X1.250 Y12.000 S500
G1 X0.000 Y12.000 S0
G0 X0.000 Y11.900
G1 X1.250 Y11.900 S0
G1 X41.250 Y11.900 S500
G1 X42.500 Y11.900 S0
G0 X42.500 Y11.800
G1 X41.250 Y11.800 S0
G1 X1.250 Y11.800 S500
G1 X0.000 Y11.800 S0
G0 X0.000 Y11.700
G1 X1.250 Y11.700 S0
G1 X41.250 Y11.700 S500
G1 X42.500 Y11.700 S0
G0 X42.500 Y11.600
G1 X41.250 Y11.600 S0
G1 X1.250 Y11.600 S500
G1 X0.000 Y11.600 S0
G0 X0.000 Y11.500
G1 X1.250 Y11.500 S0
G1 X41.250 Y11.500 S500
G1 X42.500 Y11.500 S0
G0 X42.500 Y11.400
G1 X41.250 Y11.400 S0
G1 X1.250 Y11.400 S500
G1 X0.000 Y11.400 S0
G0 X0.000 Y11.300
