; Generated by LaserForge
; Job: engrave-fill fixture
; Objects: 1, Layers: 1
G21 ; T2-14 safety baseline: mm mode
G17 ; T3-20 safety baseline: XY plane
G91 ; T2-14 safety baseline: relative positioning (Head mode)
G94 ; T3-20 safety baseline: feed per minute
M5 S0 ; T2-14 safety baseline: laser off at start

; --- Engrave (pass 1) ---
; OBJ ids=det-000004
M4 S0
; G0 skipped (no motion)
M5 S0
G1 X1.250 F3000
M4 S0
G1 X1.250 S350
G1 X37.500 S500
G1 X1.250 S350
M5 S0
G1 X1.250
M4 S0
G0 Y-0.100
M5 S0
G1 X-1.250
M4 S0
G1 X-1.250 S350
G1 X-37.500 S500
G1 X-1.250 S350
M5 S0
G1 X-1.250
M4 S0
G0 Y-0.100
M5 S0
G1 X1.250
M4 S0
G1 X1.250 S350
G1 X37.500 S500
G1 X1.250 S350
M5 S0
G1 X1.250
M4 S0
G0 Y-0.100
M5 S0
G1 X-1.250
M4 S0
G1 X-1.250 S350
G1 X-37.500 S500
G1 X-1.250 S350
M5 S0
G1 X-1.250
M4 S0
G0 Y-0.100
M5 S0
G1 X1.250
M4 S0
G1 X1.250 S350
G1 X37.500 S500
G1 X1.250 S350
M5 S0
G1 X1.250
M4 S0
G0 Y-0.100
M5 S0
G1 X-1.250
M4 S0
G1 X-1.250 S350
G1 X-37.500 S500
G1 X-1.250 S350
M5 S0
G1 X-1.250
M4 S0
G0 Y-0.100
M5 S0
G1 X1.250
M4 S0
G1 X1.250 S350
G1 X37.500 S500
G1 X1.250 S350
M5 S0
G1 X1.250
M4 S0
G0 Y-0.100
M5 S0
G1 X-1.250
M4 S0
G1 X-1.250 S350
G1 X-37.500 S500
G1 X-1.250 S350
M5 S0
G1 X-1.250
M4 S0
G0 Y-0.100
M5 S0
G1 X1.250
M4 S0
G1 X1.250 S350
G1 X37.500 S500
G1 X1.250 S350
M5 S0
G1 X1.250
M4 S0
G0 Y-0.100
M5 S0
G1 X-1.250
M4 S0
G1 X-1.250 S350
G1 X-37.500 S500
G1 X-1.250 S350
M5 S0
G1 X-1.250
M4 S0
G0 Y-0.100
M5 S0
G1 X1.250
M4 S0
G1 X1.250 S350
G1 X37.500 S500
G1 X1.250 S350
M5 S0
G1 X1.250
M4 S0
G0 Y-0.100
M5 S0
G1 X-1.250
M4 S0
G1 X-1.250 S350
G1 X-37.500 S500
G1 X-1.250 S350
M5 S0
G1 X-1.250
M4 S0
G0 Y-0.100
M5 S0
G1 X1.250
M4 S0
G1 X1.250 S350
G1 X37.500 S500
G1 X1.250 S350
M5 S0
G1 X1.250
M4 S0
G0 Y-0.100
M5 S0
G1 X-1.250
M4 S0
G1 X-1.250 S350
G1 X-37.500 S500
G1 X-1.250 S350
M5 S0
G1 X-1.250
M4 S0
G0 Y-0.100
M5 S0
G1 X1.250
M4 S0
G1 X1.250 S350
G1 X37.500 S500
G1 X1.250 S350
M5 S0
G1 X1.250
M4 S0
G0 Y-0.100
M5 S0
G1 X-1.250
M4 S0
G1 X-1.250 S350
G1 X-37.500 S500
G1 X-1.250 S350
M5 S0
G1 X-1.250
M4 S0
G0 Y-0.100
M5 S0
G1 X1.250
M4 S0
G1 X1.250 S350
G1 X37.500 S500
G1 X1.250 S350
M5 S0
G1 X1.250
M4 S0
G0 Y-0.100
M5 S0
G1 X-1.250
M4 S0
G1 X-1.250 S350
G1 X-37.500 S500
G1 X-1.250 S350
M5 S0
G1 X-1.250
M4 S0
G0 Y-0.100
M5 S0
G1 X1.250
M4 S0
G1 X1.250 S350
G1 X37.500 S500
G1 X1.250 S350
M5 S0
G1 X1.250
M4 S0
G0 Y-0.100
M5 S0
G1 X-1.250
M4 S0
G1 X-1.250 S350
G1 X-37.500 S500
G1 X-1.250 S350
M5 S0
G1 X-1.250
M4 S0
G0 Y-0.100
M5 S0
G1 X1.250
M4 S0
G1 X1.250 S350
G1 X37.500 S500
G1 X1.250 S350
M5 S0
G1 X1.250
M4 S0
G0 Y-0.100
M5 S0
G1 X-1.250
M4 S0
G1 X-1.250 S350
G1 X-37.500 S500
G1 X-1.250 S350
M5 S0
G1 X-1.250
M4 S0
G0 Y-0.100
M5 S0
G1 X1.250
M4 S0
G1 X1.250 S350
G1 X37.500 S500
G1 X1.250 S350
M5 S0
G1 X1.250
M4 S0
G0 Y-0.100
M5 S0
G1 X-1.250
M4 S0
G1 X-1.250 S350
G1 X-37.500 S500
G1 X-1.250 S350
M5 S0
G1 X-1.250
M4 S0
G0 Y-0.100
M5 S0
G1 X1.250
M4 S0
G1 X1.250 S350
G1 X37.500 S500
G1 X1.250 S350
M5 S0
G1 X1.250
M4 S0
G0 Y-0.100
M5 S0
G1 X-1.250
M4 S0
G1 X-1.250 S350
G1 X-37.500 S500
G1 X-1.250 S350
M5 S0
G1 X-1.250
M4 S0
G0 Y-0.100
M5 S0
G1 X1.250
M4 S0
G1 X1.250 S350
G1 X37.500 S500
G1 X1.250 S350
M5 S0
G1 X1.250
M4 S0
G0 Y-0.100
M5 S0
G1 X-1.250
M4 S0
G1 X-1.250 S350
G1 X-37.500 S500
G1 X-1.250 S350
M5 S0
G1 X-1.250
M4 S0
G0 Y-0.100
M5 S0
G1 X1.250
M4 S0
G1 X1.250 S350
G1 X37.500 S500
G1 X1.250 S350
M5 S0
G1 X1.250
M4 S0
G0 Y-0.100
M5 S0
G1 X-1.250
M4 S0
G1 X-1.250 S350
G1 X-37.500 S500
G1 X-1.250 S350
M5 S0
G1 X-1.250
M4 S0
G0 Y-0.100
M5 S0
G1 X1.250
M4 S0
G1 X1.250 S350
G1 X37.500 S500
G1 X1.250 S350
M5 S0
G1 X1.250
M4 S0
G0 Y-0.100
M5 S0
G1 X-1.250
M4 S0
G1 X-1.250 S350
G1 X-37.500 S500
G1 X-1.250 S350
M5 S0
G1 X-1.250
M4 S0
G0 Y-0.100
M5 S0
G1 X1.250
M4 S0
G1 X1.250 S350
G1 X37.500 S500
G1 X1.250 S350
M5 S0
G1 X1.250
M4 S0
G0 Y-0.100
M5 S0
G1 X-1.250
M4 S0
G1 X-1.250 S350
G1 X-37.500 S500
G1 X-1.250 S350
M5 S0
G1 X-1.250
M4 S0
G0 Y-0.100
M5 S0
G1 X1.250
M4 S0
G1 X1.250 S350
G1 X37.500 S500
G1 X1.250 S350
M5 S0
G1 X1.250
M4 S0
G0 Y-0.100
M5 S0
G1 X-1.250
M4 S0
G1 X-1.250 S350
G1 X-37.500 S500
G1 X-1.250 S350
M5 S0
G1 X-1.250
M4 S0
G0 Y-0.100
M5 S0
G1 X1.250
M4 S0
G1 X1.250 S350
G1 X37.500 S500
G1 X1.250 S350
M5 S0
G1 X1.250
M4 S0
G0 Y-0.100
M5 S0
G1 X-1.250
M4 S0
G1 X-1.250 S350
G1 X-37.500 S500
G1 X-1.250 S350
M5 S0
G1 X-1.250
M4 S0
G0 Y-0.100
M5 S0
G1 X1.250
M4 S0
G1 X1.250 S350
G1 X37.500 S500
G1 X1.250 S350
M5 S0
G1 X1.250
M4 S0
G0 Y-0.100
M5 S0
G1 X-1.250
M4 S0
G1 X-1.250 S350
G1 X-37.500 S500
G1 X-1.250 S350
M5 S0
G1 X-1.250
M4 S0
G0 Y-0.100
M5 S0
G1 X1.250
M4 S0
G1 X1.250 S350
G1 X37.500 S500
G1 X1.250 S350
M5 S0
G1 X1.250
M4 S0
G0 Y-0.100
M5 S0
G1 X-1.250
M4 S0
G1 X-1.250 S350
G1 X-37.500 S500
G1 X-1.250 S350
M5 S0
G1 X-1.250
M4 S0
G0 Y-0.100
M5 S0
G1 X1.250
M4 S0
G1 X1.250 S350
G1 X37.500 S500
G1 X1.250 S350
M5 S0
G1 X1.250
M4 S0
G0 Y-0.100
M5 S0
G1 X-1.250
M4 S0
G1 X-1.250 S350
G1 X-37.500 S500
G1 X-1.250 S350
M5 S0
G1 X-1.250
M4 S0
G0 Y-0.100
M5 S0
G1 X1.250
M4 S0
G1 X1.250 S350
G1 X37.500 S500
G1 X1.250 S350
M5 S0
G1 X1.250
M4 S0
G0 Y-0.100
M5 S0
G1 X-1.250
M4 S0
G1 X-1.250 S350
G1 X-37.500 S500
G1 X-1.250 S350
M5 S0
G1 X-1.250
M4 S0
G0 Y-0.100
M5 S0
G1 X1.250
M4 S0
G1 X1.250 S350
G1 X37.500 S500
G1 X1.250 S350
M5 S0
G1 X1.250
M4 S0
G0 Y-0.100
M5 S0
G1 X-1.250
M4 S0
G1 X-1.250 S350
G1 X-37.500 S500
G1 X-1.250 S350
M5 S0
G1 X-1.250
M4 S0
G0 Y-0.100
M5 S0
G1 X1.250
M4 S0
G1 X1.250 S350
G1 X37.500 S500
G1 X1.250 S350
M5 S0
G1 X1.250
M4 S0
G0 Y-0.100
M5 S0
G1 X-1.250
M4 S0
G1 X-1.250 S350
G1 X-37.500 S500
G1 X-1.250 S350
M5 S0
G1 X-1.250
M4 S0
G0 Y-0.100
M5 S0
G1 X1.250
M4 S0
G1 X1.250 S350
G1 X37.500 S500
G1 X1.250 S350
M5 S0
G1 X1.250
M4 S0
G0 Y-0.100
M5 S0
G1 X-1.250
M4 S0
G1 X-1.250 S350
G1 X-37.500 S500
G1 X-1.250 S350
M5 S0
G1 X-1.250
M4 S0
G0 Y-0.100
M5 S0
G1 X1.250
M4 S0
G1 X1.250 S350
G1 X37.500 S500
G1 X1.250 S350
M5 S0
G1 X1.250
M4 S0
G0 Y-0.100
M5 S0
G1 X-1.250
M4 S0
G1 X-1.250 S350
G1 X-37.500 S500
G1 X-1.250 S350
M5 S0
G1 X-1.250
M4 S0
G0 Y-0.100
M5 S0
G1 X1.250
M4 S0
G1 X1.250 S350
G1 X37.500 S500
G1 X1.250 S350
M5 S0
G1 X1.250
M4 S0
G0 Y-0.100
M5 S0
G1 X-1.250
M4 S0
G1 X-1.250 S350
G1 X-37.500 S500
G1 X-1.250 S350
M5 S0
G1 X-1.250
M4 S0
G0 Y-0.100
M5 S0
G1 X1.250
M4 S0
G1 X1.250 S350
G1 X37.500 S500
G1 X1.250 S350
M5 S0
G1 X1.250
M4 S0
G0 Y-0.100
M5 S0
G1 X-1.250
M4 S0
G1 X-1.250 S350
G1 X-37.500 S500
G1 X-1.250 S350
M5 S0
G1 X-1.250
M4 S0
G0 Y-0.100
M5 S0
G1 X1.250
M4 S0
G1 X1.250 S350
G1 X37.500 S500
G1 X1.250 S350
M5 S0
G1 X1.250
M4 S0
G0 Y-0.100
M5 S0
G1 X-1.250
M4 S0
G1 X-1.250 S350
G1 X-37.500 S500
G1 X-1.250 S350
M5 S0
G1 X-1.250
M4 S0
G0 Y-0.100
M5 S0
G1 X1.250
M4 S0
G1 X1.250 S350
G1 X37.500 S500
G1 X1.250 S350
M5 S0
G1 X1.250
M4 S0
G0 Y-0.100
M5 S0
G1 X-1.250
M4 S0
G1 X-1.250 S350
G1 X-37.500 S500
G1 X-1.250 S350
M5 S0
G1 X-1.250
M4 S0
G0 Y-0.100
M5 S0
G1 X1.250
M4 S0
G1 X1.250 S350
G1 X37.500 S500
G1 X1.250 S350
M5 S0
G1 X1.250
M4 S0
G0 Y-0.100
M5 S0
G1 X-1.250
M4 S0
G1 X-1.250 S350
G1 X-37.500 S500
G1 X-1.250 S350
M5 S0
G1 X-1.250
M4 S0
G0 Y-0.100
M5 S0
G1 X1.250
M4 S0
G1 X1.250 S350
G1 X37.500 S500
G1 X1.250 S350
M5 S0
G1 X1.250
M4 S0
G0 Y-0.100
M5 S0
G1 X-1.250
M4 S0
G1 X-1.250 S350
G1 X-37.500 S500
G1 X-1.250 S350
M5 S0
G1 X-1.250
M4 S0
G0 Y-0.100
M5 S0
G1 X1.250
M4 S0
G1 X1.250 S350
G1 X37.500 S500
G1 X1.250 S350
M5 S0
G1 X1.250
M4 S0
G0 Y-0.100
M5 S0
G1 X-1.250
M4 S0
G1 X-1.250 S350
G1 X-37.500 S500
G1 X-1.250 S350
M5 S0
G1 X-1.250
M4 S0
G0 Y-0.100
M5 S0
G1 X1.250
M4 S0
G1 X1.250 S350
G1 X37.500 S500
G1 X1.250 S350
M5 S0
G1 X1.250
M4 S0
G0 Y-0.100
M5 S0
G1 X-1.250
M4 S0
G1 X-1.250 S350
G1 X-37.500 S500
G1 X-1.250 S350
M5 S0
G1 X-1.250
M4 S0
G0 Y-0.100
M5 S0
G1 X1.250
M4 S0
G1 X1.250 S350
G1 X37.500 S500
G1 X1.250 S350
M5 S0
G1 X1.250
M4 S0
G0 Y-0.100
M5 S0
G1 X-1.250
M4 S0
G1 X-1.250 S350
G1 X-37.500 S500
G1 X-1.250 S350
M5 S0
G1 X-1.250
M4 S0
G0 Y-0.100
M5 S0
G1 X1.250
M4 S0
G1 X1.250 S350
G1 X37.500 S500
G1 X1.250 S350
M5 S0
G1 X1.250
M4 S0
G0 Y-0.100
M5 S0
G1 X-1.250
M4 S0
G1 X-1.250 S350
G1 X-37.500 S500
G1 X-1.250 S350
M5 S0
G1 X-1.250
M4 S0
G0 Y-0.100
M5 S0
G1 X1.250
M4 S0
G1 X1.250 S350
G1 X37.500 S500
G1 X1.250 S350
M5 S0
G1 X1.250
M4 S0
G0 Y-0.100
M5 S0
G1 X-1.250
M4 S0
G1 X-1.250 S350
G1 X-37.500 S500
G1 X-1.250 S350
M5 S0
G1 X-1.250
M4 S0
G0 Y-0.100
M5 S0
G1 X1.250
M4 S0
G1 X1.250 S350
G1 X37.500 S500
G1 X1.250 S350
M5 S0
G1 X1.250
M4 S0
G0 Y-0.100
M5 S0
G1 X-1.250
M4 S0
G1 X-1.250 S350
G1 X-37.500 S500
G1 X-1.250 S350
M5 S0
G1 X-1.250
M4 S0
G0 Y-0.100
M5 S0
G1 X1.250
M4 S0
G1 X1.250 S350
G1 X37.500 S500
G1 X1.250 S350
M5 S0
G1 X1.250
M4 S0
G0 Y-0.100
M5 S0
G1 X-1.250
M4 S0
G1 X-1.250 S350
G1 X-37.500 S500
G1 X-1.250 S350
M5 S0
G1 X-1.250
M4 S0
G0 Y-0.100
M5 S0
G1 X1.250
M4 S0
G1 X1.250 S350
G1 X37.500 S500
G1 X1.250 S350
M5 S0
G1 X1.250
M4 S0
G0 Y-0.100
M5 S0
G1 X-1.250
M4 S0
G1 X-1.250 S350
G1 X-37.500 S500
G1 X-1.250 S350
M5 S0
G1 X-1.250
M4 S0
G0 Y-0.100
M5 S0
G1 X1.250
M4 S0
G1 X1.250 S350
G1 X37.500 S500
G1 X1.250 S350
M5 S0
G1 X1.250
M4 S0
G0 Y-0.100
M5 S0
G1 X-1.250
M4 S0
G1 X-1.250 S350
G1 X-37.500 S500
G1 X-1.250 S350
M5 S0
G1 X-1.250
M4 S0
G0 Y-0.100
M5 S0
G1 X1.250
M4 S0
G1 X1.250 S350
G1 X37.500 S500
G1 X1.250 S350
M5 S0
G1 X1.250
M4 S0
G0 Y-0.100
M5 S0
G1 X-1.250
M4 S0
G1 X-1.250 S350
G1 X-37.500 S500
G1 X-1.250 S350
M5 S0
G1 X-1.250
M4 S0
G0 Y-0.100
M5 S0
G1 X1.250
M4 S0
G1 X1.250 S350
G1 X37.500 S500
G1 X1.250 S350
M5 S0
G1 X1.250
M4 S0
G0 Y-0.100
M5 S0
G1 X-1.250
M4 S0
G1 X-1.250 S350
G1 X-37.500 S500
G1 X-1.250 S350
M5 S0
G1 X-1.250
M4 S0
G0 Y-0.100
M5 S0
G1 X1.250
M4 S0
G1 X1.250 S350
G1 X37.500 S500
G1 X1.250 S350
M5 S0
G1 X1.250
M4 S0
G0 Y-0.100
M5 S0
G1 X-1.250
M4 S0
G1 X-1.250 S350
G1 X-37.500 S500
G1 X-1.250 S350
M5 S0
G1 X-1.250
M4 S0
G0 Y-0.100
M5 S0
G1 X1.250
M4 S0
G1 X1.250 S350
G1 X37.500 S500
G1 X1.250 S350
M5 S0
G1 X1.250
M4 S0
G0 Y-0.100
M5 S0
G1 X-1.250
M4 S0
G1 X-1.250 S350
G1 X-37.500 S500
G1 X-1.250 S350
M5 S0
G1 X-1.250
M4 S0
G0 Y-0.100
M5 S0
G1 X1.250
M4 S0
G1 X1.250 S350
G1 X37.500 S500
G1 X1.250 S350
M5 S0
G1 X1.250
M4 S0
G0 Y-0.100
M5 S0
G1 X-1.250
M4 S0
G1 X-1.250 S350
G1 X-37.500 S500
G1 X-1.250 S350
M5 S0
G1 X-1.250
M4 S0
G0 Y-0.100
M5 S0
G1 X1.250
M4 S0
G1 X1.250 S350
G1 X37.500 S500
G1 X1.250 S350
M5 S0
G1 X1.250
M4 S0
G0 Y-0.100
M5 S0
G1 X-1.250
M4 S0
G1 X-1.250 S350
G1 X-37.500 S500
G1 X-1.250 S350
M5 S0
G1 X-1.250
M4 S0
G0 Y-0.100
M5 S0
G1 X1.250
M4 S0
G1 X1.250 S350
G1 X37.500 S500
G1 X1.250 S350
M5 S0
G1 X1.250
M4 S0
G0 Y-0.100
M5 S0
G1 X-1.250
M4 S0
G1 X-1.250 S350
G1 X-37.500 S500
G1 X-1.250 S350
M5 S0
G1 X-1.250
M4 S0
G0 Y-0.100
M5 S0
G1 X1.250
M4 S0
G1 X1.250 S350
G1 X37.500 S500
G1 X1.250 S350
M5 S0
G1 X1.250
M4 S0
G0 Y-0.100
M5 S0
G1 X-1.250
M4 S0
G1 X-1.250 S350
G1 X-37.500 S500
G1 X-1.250 S350
M5 S0
G1 X-1.250
M4 S0
G0 Y-0.100
M5 S0
G1 X1.250
M4 S0
G1 X1.250 S350
G1 X37.500 S500
G1 X1.250 S350
M5 S0
G1 X1.250
M4 S0
G0 Y-0.100
M5 S0
G1 X-1.250
M4 S0
G1 X-1.250 S350
G1 X-37.500 S500
G1 X-1.250 S350
M5 S0
G1 X-1.250
M4 S0
G0 Y-0.100
M5 S0
G1 X1.250
M4 S0
G1 X1.250 S350
G1 X37.500 S500
G1 X1.250 S350
M5 S0
G1 X1.250
M4 S0
G0 Y-0.100
M5 S0
G1 X-1.250
M4 S0
G1 X-1.250 S350
G1 X-37.500 S500
G1 X-1.250 S350
M5 S0
G1 X-1.250
M4 S0
G0 Y-0.100
M5 S0
G1 X1.250
M4 S0
G1 X1.250 S350
G1 X37.500 S500
G1 X1.250 S350
M5 S0
G1 X1.250
M4 S0
G0 Y-0.100
M5 S0
G1 X-1.250
M4 S0
G1 X-1.250 S350
G1 X-37.500 S500
G1 X-1.250 S350
M5 S0
G1 X-1.250
M4 S0
G0 Y-0.100
M5 S0
G1 X1.250
M4 S0
G1 X1.250 S350
G1 X37.500 S500
G1 X1.250 S350
M5 S0
G1 X1.250
M4 S0
G0 Y-0.100
M5 S0
G1 X-1.250
M4 S0
G1 X-1.250 S350
G1 X-37.500 S500
G1 X-1.250 S350
M5 S0
G1 X-1.250
M4 S0
G0 Y-0.100
M5 S0
G1 X1.250
M4 S0
G1 X1.250 S350
G1 X37.500 S500
G1 X1.250 S350
M5 S0
G1 X1.250
M4 S0
G0 Y-0.100
M5 S0
G1 X-1.250
M4 S0
G1 X-1.250 S350
G1 X-37.500 S500
G1 X-1.250 S350
M5 S0
G1 X-1.250
M4 S0
G0 Y-0.100
M5 S0
G1 X1.250
M4 S0
G1 X1.250 S350
G1 X37.500 S500
G1 X1.250 S350
M5 S0
G1 X1.250
M4 S0
G0 Y-0.100
M5 S0
G1 X-1.250
M4 S0
G1 X-1.250 S350
G1 X-37.500 S500
G1 X-1.250 S350
M5 S0
G1 X-1.250
M4 S0
G0 Y-0.100
M5 S0
G1 X1.250
M4 S0
G1 X1.250 S350
G1 X37.500 S500
G1 X1.250 S350
M5 S0
G1 X1.250
M4 S0
G0 Y-0.100
M5 S0
G1 X-1.250
M4 S0
G1 X-1.250 S350
G1 X-37.500 S500
G1 X-1.250 S350
M5 S0
G1 X-1.250
M4 S0
G0 Y-0.100
M5 S0
G1 X1.250
M4 S0
G1 X1.250 S350
G1 X37.500 S500
G1 X1.250 S350
M5 S0
G1 X1.250
M4 S0
G0 Y-0.100
M5 S0
G1 X-1.250
M4 S0
G1 X-1.250 S350
G1 X-37.500 S500
G1 X-1.250 S350
M5 S0
G1 X-1.250
M4 S0
G0 Y-0.100
M5 S0
G1 X1.250
M4 S0
G1 X1.250 S350
G1 X37.500 S500
G1 X1.250 S350
M5 S0
G1 X1.250
M4 S0
G0 Y-0.100
M5 S0
G1 X-1.250
M4 S0
G1 X-1.250 S350
G1 X-37.500 S500
G1 X-1.250 S350
M5 S0
G1 X-1.250
M4 S0
G0 Y-0.100
M5 S0
G1 X1.250
M4 S0
G1 X1.250 S350
G1 X37.500 S500
G1 X1.250 S350
M5 S0
G1 X1.250
M4 S0
G0 Y-0.100
M5 S0
G1 X-1.250
M4 S0
G1 X-1.250 S350
G1 X-37.500 S500
G1 X-1.250 S350
M5 S0
G1 X-1.250
M4 S0
G0 Y-0.100
M5 S0
G1 X1.250
M4 S0
G1 X1.250 S350
G1 X37.500 S500
G1 X1.250 S350
M5 S0
G1 X1.250
M4 S0
G0 Y-0.100
M5 S0
G1 X-1.250
M4 S0
G1 X-1.250 S350
G1 X-37.500 S500
G1 X-1.250 S350
M5 S0
G1 X-1.250
M4 S0
G0 Y-0.100
M5 S0
G1 X1.250
M4 S0
G1 X1.250 S350
G1 X37.500 S500
G1 X1.250 S350
M5 S0
G1 X1.250
M4 S0
G0 Y-0.100
M5 S0
G1 X-1.250
M4 S0
G1 X-1.250 S350
G1 X-37.500 S500
G1 X-1.250 S350
M5 S0
G1 X-1.250
M4 S0
G0 Y-0.100
M5 S0
G1 X1.250
M4 S0
G1 X1.250 S350
G1 X37.500 S500
G1 X1.250 S350
M5 S0
G1 X1.250
M4 S0
G0 Y-0.100
M5 S0
G1 X-1.250
M4 S0
G1 X-1.250 S350
G1 X-37.500 S500
G1 X-1.250 S350
M5 S0
G1 X-1.250
M4 S0
G0 Y-0.100
M5 S0
G1 X1.250
M4 S0
G1 X1.250 S350
G1 X37.500 S500
G1 X1.250 S350
M5 S0
G1 X1.250
M4 S0
G0 Y-0.100
M5 S0
G1 X-1.250
M4 S0
G1 X-1.250 S350
G1 X-37.500 S500
G1 X-1.250 S350
M5 S0
G1 X-1.250
M4 S0
G0 Y-0.100
M5 S0
G1 X1.250
M4 S0
G1 X1.250 S350
G1 X37.500 S500
G1 X1.250 S350
M5 S0
G1 X1.250
M4 S0
G0 Y-0.100
M5 S0
G1 X-1.250
M4 S0
G1 X-1.250 S350
G1 X-37.500 S500
G1 X-1.250 S350
M5 S0
G1 X-1.250
M4 S0
G0 Y-0.100
M5 S0
G1 X1.250
M4 S0
G1 X1.250 S350
G1 X37.500 S500
G1 X1.250 S350
M5 S0
G1 X1.250
M4 S0
G0 Y-0.100
M5 S0
G1 X-1.250
M4 S0
G1 X-1.250 S350
G1 X-37.500 S500
G1 X-1.250 S350
M5 S0
G1 X-1.250
M4 S0
G0 Y-0.100
M5 S0
G1 X1.250
M4 S0
G1 X1.250 S350
G1 X37.500 S500
G1 X1.250 S350
M5 S0
G1 X1.250
M4 S0
G0 Y-0.100
M5 S0
G1 X-1.250
M4 S0
G1 X-1.250 S350
G1 X-37.500 S500
G1 X-1.250 S350
M5 S0
G1 X-1.250
M4 S0
G0 Y-0.100
M5 S0
G1 X1.250
M4 S0
G1 X1.250 S350
G1 X37.500 S500
G1 X1.250 S350
M5 S0
G1 X1.250
M4 S0
G0 Y-0.100
M5 S0
G1 X-1.250
M4 S0
G1 X-1.250 S350
G1 X-37.500 S500
G1 X-1.250 S350
M5 S0
G1 X-1.250
M4 S0
G0 Y-0.100
M5 S0
G1 X1.250
M4 S0
G1 X1.250 S350
G1 X37.500 S500
G1 X1.250 S350
M5 S0
G1 X1.250
M4 S0
G0 Y-0.100
M5 S0
G1 X-1.250
M4 S0
G1 X-1.250 S350
G1 X-37.500 S500
G1 X-1.250 S350
M5 S0
G1 X-1.250
M4 S0
G0 Y-0.100
M5 S0
G1 X1.250
M4 S0
G1 X1.250 S350
G1 X37.500 S500
G1 X1.250 S350
M5 S0
G1 X1.250
M4 S0
G0 Y-0.100
M5 S0
G1 X-1.250
M4 S0
G1 X-1.250 S350
G1 X-37.500 S500
G1 X-1.250 S350
M5 S0
G1 X-1.250
M4 S0
G0 Y-0.100
M5 S0
G1 X1.250
M4 S0
G1 X1.250 S350
G1 X37.500 S500
G1 X1.250 S350
M5 S0
G1 X1.250
M4 S0
G0 Y-0.100
M5 S0
G1 X-1.250
M4 S0
G1 X-1.250 S350
G1 X-37.500 S500
G1 X-1.250 S350
M5 S0
G1 X-1.250
M4 S0
G0 Y-0.100
M5 S0
G1 X1.250
M4 S0
G1 X1.250 S350
G1 X37.500 S500
G1 X1.250 S350
M5 S0
G1 X1.250
M4 S0
G0 Y-0.100
M5 S0
G1 X-1.250
M4 S0
G1 X-1.250 S350
G1 X-37.500 S500
G1 X-1.250 S350
M5 S0
G1 X-1.250
M4 S0
G0 Y-0.100
M5 S0
G1 X1.250
M4 S0
G1 X1.250 S350
G1 X37.500 S500
G1 X1.250 S350
M5 S0
G1 X1.250
M4 S0
G0 Y-0.100
M5 S0
G1 X-1.250
M4 S0
G1 X-1.250 S350
G1 X-37.500 S500
G1 X-1.250 S350
M5 S0
G1 X-1.250
M4 S0
G0 Y-0.100
M5 S0
G1 X1.250
M4 S0
G1 X1.250 S350
G1 X37.500 S500
G1 X1.250 S350
M5 S0
G1 X1.250
M4 S0
G0 Y-0.100
M5 S0
G1 X-1.250
M4 S0
G1 X-1.250 S350
G1 X-37.500 S500
G1 X-1.250 S350
M5 S0
G1 X-1.250
M4 S0
G0 Y-0.100
M5 S0
G1 X1.250
M4 S0
G1 X1.250 S350
G1 X37.500 S500
G1 X1.250 S350
M5 S0
G1 X1.250
M4 S0
G0 Y-0.100
M5 S0
G1 X-1.250
M4 S0
G1 X-1.250 S350
G1 X-37.500 S500
G1 X-1.250 S350
M5 S0
G1 X-1.250
M4 S0
G0 Y-0.100
M5 S0
G1 X1.250
M4 S0
G1 X1.250 S350
G1 X37.500 S500
G1 X1.250 S350
M5 S0
