; Generated by LaserForge
; Job: mixed-scene fixture
; Objects: 4, Layers: 4
G21 ; T2-14 safety baseline: mm mode
G17 ; T3-20 safety baseline: XY plane
G91 ; T2-14 safety baseline: relative positioning (Head mode)
G94 ; T3-20 safety baseline: feed per minute
M5 S0 ; T2-14 safety baseline: laser off at start

; --- Engrave (pass 1) ---
; OBJ ids=det-000006
M4 S0
M5 S0
G0 X76.749 Y-30.050
M5 S0
G1 X1.250 F3000
M4 S0
G1 X1.250 S350
G1 X1.501 S500
G1 X1.250 S350
M5 S0
G1 X1.250
M5 S0
G0 X1.596 Y-0.100
M5 S0
G1 X-1.250
M4 S0
G1 X-1.250 S350
G1 X-4.693 S500
G1 X-1.250 S350
M5 S0
G1 X-1.250
M5 S0
G0 X-1.127 Y-0.100
M5 S0
G1 X1.250
M4 S0
G1 X1.250 S350
G1 X6.947 S500
G1 X1.250 S350
M5 S0
G1 X1.250
M5 S0
G0 X0.809 Y-0.100
M5 S0
G1 X-1.250
M4 S0
G1 X-1.250 S350
G1 X-8.566 S500
G1 X-1.250 S350
M5 S0
G1 X-1.250
M5 S0
G0 X-0.785 Y-0.100
M5 S0
G1 X1.250
M4 S0
G1 X1.250 S350
G1 X10.137 S500
G1 X1.250 S350
M5 S0
G1 X1.250
M5 S0
G0 X0.625 Y-0.100
M5 S0
G1 X-1.250
M4 S0
G1 X-1.250 S350
G1 X-11.386 S500
G1 X-1.250 S350
M5 S0
G1 X-1.250
M5 S0
G0 X-0.625 Y-0.100
M5 S0
G1 X1.250
M4 S0
G1 X1.250 S350
G1 X12.636 S500
G1 X1.250 S350
M5 S0
G1 X1.250
M5 S0
G0 X0.544 Y-0.100
M5 S0
G1 X-1.250
M4 S0
G1 X-1.250 S350
G1 X-13.723 S500
G1 X-1.250 S350
M5 S0
G1 X-1.250
M5 S0
G0 X-0.506 Y-0.100
M5 S0
G1 X1.250
M4 S0
G1 X1.250 S350
G1 X14.736 S500
G1 X1.250 S350
M5 S0
G1 X1.250
M5 S0
G0 X0.506 Y-0.100
M5 S0
G1 X-1.250
M4 S0
G1 X-1.250 S350
G1 X-15.749 S500
G1 X-1.250 S350
M5 S0
G1 X-1.250
M5 S0
G0 X-0.447 Y-0.100
M5 S0
G1 X1.250
M4 S0
G1 X1.250 S350
G1 X16.644 S500
G1 X1.250 S350
M5 S0
G1 X1.250
M5 S0
G0 X0.424 Y-0.100
M5 S0
G1 X-1.250
M4 S0
G1 X-1.250 S350
G1 X-17.491 S500
G1 X-1.250 S350
M5 S0
G1 X-1.250
M5 S0
G0 X-0.424 Y-0.100
M5 S0
G1 X1.250
M4 S0
G1 X1.250 S350
G1 X18.338 S500
G1 X1.250 S350
M5 S0
G1 X1.250
M5 S0
G0 X0.410 Y-0.100
M5 S0
G1 X-1.250
M4 S0
G1 X-1.250 S350
G1 X-19.159 S500
G1 X-1.250 S350
M5 S0
G1 X-1.250
M5 S0
G0 X-0.362 Y-0.100
M5 S0
G1 X1.250
M4 S0
G1 X1.250 S350
G1 X19.883 S500
G1 X1.250 S350
M5 S0
G1 X1.250
M5 S0
G0 X0.362 Y-0.100
M5 S0
G1 X-1.250
M4 S0
G1 X-1.250 S350
G1 X-20.607 S500
G1 X-1.250 S350
M5 S0
G1 X-1.250
M5 S0
G0 X-0.362 Y-0.100
M5 S0
G1 X1.250
M4 S0
G1 X1.250 S350
G1 X21.331 S500
G1 X1.250 S350
M5 S0
G1 X1.250
M5 S0
G0 X0.352 Y-0.100
M5 S0
G1 X-1.250
M4 S0
G1 X-1.250 S350
G1 X-22.036 S500
G1 X-1.250 S350
M5 S0
G1 X-1.250
M5 S0
G0 X-0.314 Y-0.100
M5 S0
G1 X1.250
M4 S0
G1 X1.250 S350
G1 X22.665 S500
G1 X1.250 S350
M5 S0
G1 X1.250
M5 S0
G0 X0.314 Y-0.100
M5 S0
G1 X-1.250
M4 S0
G1 X-1.250 S350
G1 X-23.294 S500
G1 X-1.250 S350
M5 S0
G1 X-1.250
M5 S0
G0 X-0.314 Y-0.100
M5 S0
G1 X1.250
M4 S0
G1 X1.250 S350
G1 X23.923 S500
G1 X1.250 S350
M5 S0
G1 X1.250
M5 S0
G0 X0.314 Y-0.100
M5 S0
G1 X-1.250
M4 S0
G1 X-1.250 S350
G1 X-24.552 S500
G1 X-1.250 S350
M5 S0
G1 X-1.250
M5 S0
G0 X-0.288 Y-0.100
M5 S0
G1 X1.250
M4 S0
G1 X1.250 S350
G1 X25.127 S500
G1 X1.250 S350
M5 S0
G1 X1.250
M5 S0
G0 X0.276 Y-0.100
M5 S0
G1 X-1.250
M4 S0
G1 X-1.250 S350
G1 X-25.679 S500
G1 X-1.250 S350
M5 S0
G1 X-1.250
M5 S0
G0 X-0.276 Y-0.100
M5 S0
G1 X1.250
M4 S0
G1 X1.250 S350
G1 X26.232 S500
G1 X1.250 S350
M5 S0
G1 X1.250
M5 S0
G0 X0.276 Y-0.100
M5 S0
G1 X-1.250
M4 S0
G1 X-1.250 S350
G1 X-26.785 S500
G1 X-1.250 S350
M5 S0
G1 X-1.250
M5 S0
G0 X-0.276 Y-0.100
M5 S0
G1 X1.250
M4 S0
G1 X1.250 S350
G1 X27.337 S500
G1 X1.250 S350
M5 S0
G1 X1.250
M5 S0
G0 X0.254 Y-0.100
M5 S0
G1 X-1.250
M4 S0
G1 X-1.250 S350
G1 X-27.845 S500
G1 X-1.250 S350
M5 S0
G1 X-1.250
M5 S0
G0 X-0.245 Y-0.100
M5 S0
G1 X1.250
M4 S0
G1 X1.250 S350
G1 X28.335 S500
G1 X1.250 S350
M5 S0
G1 X1.250
M5 S0
G0 X0.245 Y-0.100
M5 S0
G1 X-1.250
M4 S0
G1 X-1.250 S350
G1 X-28.824 S500
G1 X-1.250 S350
M5 S0
G1 X-1.250
M5 S0
G0 X-0.245 Y-0.100
M5 S0
G1 X1.250
M4 S0
G1 X1.250 S350
G1 X29.314 S500
G1 X1.250 S350
M5 S0
G1 X1.250
M5 S0
G0 X0.245 Y-0.100
M5 S0
G1 X-1.250
M4 S0
G1 X-1.250 S350
G1 X-29.803 S500
G1 X-1.250 S350
M5 S0
G1 X-1.250
M5 S0
G0 X-0.239 Y-0.100
M5 S0
G1 X1.250
M4 S0
G1 X1.250 S350
G1 X30.281 S500
G1 X1.250 S350
M5 S0
G1 X1.250
M5 S0
G0 X0.218 Y-0.100
M5 S0
G1 X-1.250
M4 S0
G1 X-1.250 S350
G1 X-30.717 S500
G1 X-1.250 S350
M5 S0
G1 X-1.250
M5 S0
G0 X-0.218 Y-0.100
M5 S0
G1 X1.250
M4 S0
G1 X1.250 S350
G1 X31.154 S500
G1 X1.250 S350
M5 S0
G1 X1.250
M5 S0
G0 X0.218 Y-0.100
M5 S0
G1 X-1.250
M4 S0
G1 X-1.250 S350
G1 X-31.590 S500
G1 X-1.250 S350
M5 S0
G1 X-1.250
M5 S0
G0 X-0.218 Y-0.100
M5 S0
G1 X1.250
M4 S0
G1 X1.250 S350
G1 X32.027 S500
G1 X1.250 S350
M5 S0
G1 X1.250
M5 S0
G0 X0.218 Y-0.100
M5 S0
G1 X-1.250
M4 S0
G1 X-1.250 S350
G1 X-32.463 S500
G1 X-1.250 S350
M5 S0
G1 X-1.250
M5 S0
G0 X-0.211 Y-0.100
M5 S0
G1 X1.250
M4 S0
G1 X1.250 S350
G1 X32.886 S500
G1 X1.250 S350
M5 S0
G1 X1.250
M5 S0
G0 X0.195 Y-0.100
M5 S0
G1 X-1.250
M4 S0
G1 X-1.250 S350
G1 X-33.277 S500
G1 X-1.250 S350
M5 S0
G1 X-1.250
M5 S0
G0 X-0.195 Y-0.100
M5 S0
G1 X1.250
M4 S0
G1 X1.250 S350
G1 X33.668 S500
G1 X1.250 S350
M5 S0
G1 X1.250
M5 S0
G0 X0.195 Y-0.100
M5 S0
G1 X-1.250
M4 S0
G1 X-1.250 S350
G1 X-34.059 S500
G1 X-1.250 S350
M5 S0
G1 X-1.250
M5 S0
G0 X-0.195 Y-0.100
M5 S0
G1 X1.250
M4 S0
G1 X1.250 S350
G1 X34.450 S500
G1 X1.250 S350
M5 S0
G1 X1.250
M5 S0
G0 X0.195 Y-0.100
M5 S0
G1 X-1.250
M4 S0
G1 X-1.250 S350
G1 X-34.841 S500
G1 X-1.250 S350
M5 S0
G1 X-1.250
M5 S0
G0 X-0.195 Y-0.100
M5 S0
G1 X1.250
M4 S0
G1 X1.250 S350
G1 X35.232 S500
G1 X1.250 S350
M5 S0
G1 X1.250
M5 S0
G0 X0.177 Y-0.100
M5 S0
G1 X-1.250
M4 S0
G1 X-1.250 S350
G1 X-35.586 S500
G1 X-1.250 S350
M5 S0
G1 X-1.250
M5 S0
G0 X-0.176 Y-0.100
M5 S0
G1 X1.250
M4 S0
G1 X1.250 S350
G1 X35.937 S500
G1 X1.250 S350
M5 S0
G1 X1.250
M5 S0
G0 X0.176 Y-0.100
M5 S0
G1 X-1.250
M4 S0
G1 X-1.250 S350
G1 X-36.288 S500
G1 X-1.250 S350
M5 S0
G1 X-1.250
M5 S0
G0 X-0.176 Y-0.100
M5 S0
G1 X1.250
M4 S0
G1 X1.250 S350
G1 X36.639 S500
G1 X1.250 S350
M5 S0
G1 X1.250
M5 S0
G0 X0.176 Y-0.100
M5 S0
G1 X-1.250
M4 S0
G1 X-1.250 S350
G1 X-36.991 S500
G1 X-1.250 S350
M5 S0
G1 X-1.250
M5 S0
G0 X-0.176 Y-0.100
M5 S0
G1 X1.250
M4 S0
G1 X1.250 S350
G1 X37.342 S500
G1 X1.250 S350
M5 S0
G1 X1.250
M5 S0
G0 X0.173 Y-0.100
M5 S0
G1 X-1.250
M4 S0
G1 X-1.250 S350
G1 X-37.689 S500
G1 X-1.250 S350
M5 S0
G1 X-1.250
M5 S0
G0 X-0.158 Y-0.100
M5 S0
G1 X1.250
M4 S0
G1 X1.250 S350
G1 X38.005 S500
G1 X1.250 S350
M5 S0
G1 X1.250
M5 S0
G0 X0.158 Y-0.100
M5 S0
G1 X-1.250
M4 S0
G1 X-1.250 S350
G1 X-38.321 S500
G1 X-1.250 S350
M5 S0
G1 X-1.250
M5 S0
G0 X-0.158 Y-0.100
M5 S0
G1 X1.250
M4 S0
G1 X1.250 S350
G1 X38.637 S500
G1 X1.250 S350
M5 S0
G1 X1.250
M5 S0
G0 X0.158 Y-0.100
M5 S0
G1 X-1.250
M4 S0
G1 X-1.250 S350
G1 X-38.953 S500
G1 X-1.250 S350
M5 S0
G1 X-1.250
M5 S0
G0 X-0.158 Y-0.100
M5 S0
G1 X1.250
M4 S0
G1 X1.250 S350
G1 X39.269 S500
G1 X1.250 S350
M5 S0
G1 X1.250
M5 S0
G0 X0.158 Y-0.100
M5 S0
G1 X-1.250
M4 S0
G1 X-1.250 S350
G1 X-39.585 S500
G1 X-1.250 S350
M5 S0
G1 X-1.250
M5 S0
G0 X-0.158 Y-0.100
M5 S0
G1 X1.250
M4 S0
G1 X1.250 S350
G1 X39.902 S500
G1 X1.250 S350
M5 S0
G1 X1.250
M5 S0
G0 X0.144 Y-0.100
M5 S0
G1 X-1.250
M4 S0
G1 X-1.250 S350
G1 X-40.189 S500
G1 X-1.250 S350
M5 S0
G1 X-1.250
M5 S0
G0 X-0.142 Y-0.100
M5 S0
G1 X1.250
M4 S0
G1 X1.250 S350
G1 X40.473 S500
G1 X1.250 S350
M5 S0
G1 X1.250
M5 S0
G0 X0.142 Y-0.100
M5 S0
G1 X-1.250
M4 S0
G1 X-1.250 S350
G1 X-40.758 S500
G1 X-1.250 S350
M5 S0
G1 X-1.250
M5 S0
G0 X-0.142 Y-0.100
M5 S0
G1 X1.250
M4 S0
G1 X1.250 S350
G1 X41.043 S500
G1 X1.250 S350
M5 S0
G1 X1.250
M5 S0
G0 X0.142 Y-0.100
M5 S0
G1 X-1.250
M4 S0
G1 X-1.250 S350
G1 X-41.327 S500
G1 X-1.250 S350
M5 S0
G1 X-1.250
M5 S0
G0 X-0.142 Y-0.100
M5 S0
G1 X1.250
M4 S0
G1 X1.250 S350
G1 X41.612 S500
G1 X1.250 S350
M5 S0
G1 X1.250
M5 S0
G0 X0.142 Y-0.100
M5 S0
G1 X-1.250
M4 S0
G1 X-1.250 S350
G1 X-41.897 S500
G1 X-1.250 S350
M5 S0
G1 X-1.250
M5 S0
G0 X-0.138 Y-0.100
M5 S0
G1 X1.250
M4 S0
G1 X1.250 S350
G1 X42.172 S500
G1 X1.250 S350
M5 S0
G1 X1.250
M5 S0
G0 X0.128 Y-0.100
M5 S0
G1 X-1.250
M4 S0
G1 X-1.250 S350
G1 X-42.428 S500
G1 X-1.250 S350
M5 S0
G1 X-1.250
M5 S0
G0 X-0.128 Y-0.100
M5 S0
G1 X1.250
M4 S0
G1 X1.250 S350
G1 X42.685 S500
G1 X1.250 S350
M5 S0
G1 X1.250
M5 S0
G0 X0.128 Y-0.100
M5 S0
G1 X-1.250
M4 S0
G1 X-1.250 S350
G1 X-42.941 S500
G1 X-1.250 S350
M5 S0
G1 X-1.250
M5 S0
G0 X-0.128 Y-0.100
M5 S0
G1 X1.250
M4 S0
G1 X1.250 S350
G1 X43.197 S500
G1 X1.250 S350
M5 S0
G1 X1.250
M5 S0
G0 X0.128 Y-0.100
M5 S0
G1 X-1.250
M4 S0
G1 X-1.250 S350
G1 X-43.453 S500
G1 X-1.250 S350
M5 S0
G1 X-1.250
M5 S0
G0 X-0.128 Y-0.100
M5 S0
G1 X1.250
M4 S0
G1 X1.250 S350
G1 X43.710 S500
G1 X1.250 S350
M5 S0
G1 X1.250
M5 S0
G0 X0.128 Y-0.100
M5 S0
G1 X-1.250
M4 S0
G1 X-1.250 S350
G1 X-43.966 S500
G1 X-1.250 S350
M5 S0
G1 X-1.250
M5 S0
G0 X-0.123 Y-0.100
M5 S0
G1 X1.250
M4 S0
G1 X1.250 S350
G1 X44.213 S500
G1 X1.250 S350
M5 S0
G1 X1.250
M5 S0
G0 X0.115 Y-0.100
M5 S0
G1 X-1.250
M4 S0
G1 X-1.250 S350
G1 X-44.443 S500
G1 X-1.250 S350
M5 S0
G1 X-1.250
M5 S0
G0 X-0.115 Y-0.100
M5 S0
G1 X1.250
M4 S0
G1 X1.250 S350
G1 X44.673 S500
G1 X1.250 S350
M5 S0
G1 X1.250
M5 S0
G0 X0.115 Y-0.100
M5 S0
G1 X-1.250
M4 S0
G1 X-1.250 S350
G1 X-44.903 S500
G1 X-1.250 S350
M5 S0
G1 X-1.250
M5 S0
G0 X-0.115 Y-0.100
M5 S0
G1 X1.250
M4 S0
G1 X1.250 S350
G1 X45.133 S500
G1 X1.250 S350
M5 S0
G1 X1.250
M5 S0
G0 X0.115 Y-0.100
M5 S0
G1 X-1.250
M4 S0
G1 X-1.250 S350
G1 X-45.364 S500
G1 X-1.250 S350
M5 S0
G1 X-1.250
M5 S0
G0 X-0.115 Y-0.100
M5 S0
G1 X1.250
M4 S0
G1 X1.250 S350
G1 X45.594 S500
G1 X1.250 S350
M5 S0
G1 X1.250
M5 S0
G0 X0.115 Y-0.100
M5 S0
G1 X-1.250
M4 S0
G1 X-1.250 S350
G1 X-45.824 S500
G1 X-1.250 S350
M5 S0
G1 X-1.250
M5 S0
G0 X-0.114 Y-0.100
M5 S0
G1 X1.250
M4 S0
G1 X1.250 S350
G1 X46.053 S500
G1 X1.250 S350
M5 S0
G1 X1.250
M5 S0
G0 X0.103 Y-0.100
M5 S0
G1 X-1.250
M4 S0
G1 X-1.250 S350
G1 X-46.259 S500
G1 X-1.250 S350
M5 S0
G1 X-1.250
M5 S0
G0 X-0.103 Y-0.100
M5 S0
G1 X1.250
M4 S0
G1 X1.250 S350
G1 X46.465 S500
G1 X1.250 S350
M5 S0
G1 X1.250
M5 S0
G0 X0.103 Y-0.100
M5 S0
G1 X-1.250
M4 S0
G1 X-1.250 S350
G1 X-46.671 S500
G1 X-1.250 S350
M5 S0
G1 X-1.250
M5 S0
G0 X-0.103 Y-0.100
M5 S0
G1 X1.250
M4 S0
G1 X1.250 S350
G1 X46.878 S500
G1 X1.250 S350
M5 S0
G1 X1.250
M5 S0
G0 X0.103 Y-0.100
M5 S0
G1 X-1.250
M4 S0
G1 X-1.250 S350
G1 X-47.084 S500
G1 X-1.250 S350
M5 S0
G1 X-1.250
M5 S0
G0 X-0.103 Y-0.100
M5 S0
G1 X1.250
M4 S0
G1 X1.250 S350
G1 X47.290 S500
G1 X1.250 S350
M5 S0
G1 X1.250
M5 S0
G0 X0.103 Y-0.100
M5 S0
G1 X-1.250
M4 S0
G1 X-1.250 S350
G1 X-47.496 S500
G1 X-1.250 S350
M5 S0
G1 X-1.250
M5 S0
G0 X-0.103 Y-0.100
M5 S0
G1 X1.250
M4 S0
G1 X1.250 S350
G1 X47.702 S500
G1 X1.250 S350
M5 S0
G1 X1.250
M5 S0
G0 X0.098 Y-0.100
M5 S0
G1 X-1.250
M4 S0
G1 X-1.250 S350
G1 X-47.899 S500
G1 X-1.250 S350
M5 S0
G1 X-1.250
M5 S0
G0 X-0.092 Y-0.100
M5 S0
G1 X1.250
M4 S0
G1 X1.250 S350
G1 X48.083 S500
G1 X1.250 S350
M5 S0
G1 X1.250
M5 S0
G0 X0.092 Y-0.100
M5 S0
G1 X-1.250
M4 S0
G1 X-1.250 S350
G1 X-48.267 S500
G1 X-1.250 S350
M5 S0
G1 X-1.250
M5 S0
G0 X-0.092 Y-0.100
M5 S0
G1 X1.250
M4 S0
G1 X1.250 S350
G1 X48.450 S500
G1 X1.250 S350
M5 S0
G1 X1.250
M5 S0
G0 X0.092 Y-0.100
M5 S0
G1 X-1.250
M4 S0
G1 X-1.250 S350
G1 X-48.634 S500
G1 X-1.250 S350
M5 S0
G1 X-1.250
M5 S0
G0 X-0.092 Y-0.100
M5 S0
G1 X1.250
M4 S0
G1 X1.250 S350
G1 X48.818 S500
G1 X1.250 S350
M5 S0
G1 X1.250
M5 S0
G0 X0.092 Y-0.100
M5 S0
G1 X-1.250
M4 S0
G1 X-1.250 S350
G1 X-49.002 S500
G1 X-1.250 S350
M5 S0
G1 X-1.250
M5 S0
G0 X-0.092 Y-0.100
M5 S0
G1 X1.250
M4 S0
G1 X1.250 S350
G1 X49.186 S500
G1 X1.250 S350
M5 S0
G1 X1.250
M5 S0
G0 X0.092 Y-0.100
M5 S0
G1 X-1.250
M4 S0
G1 X-1.250 S350
G1 X-49.370 S500
G1 X-1.250 S350
M5 S0
G1 X-1.250
M5 S0
G0 X-0.087 Y-0.100
M5 S0
G1 X1.250
M4 S0
G1 X1.250 S350
G1 X49.543 S500
G1 X1.250 S350
M5 S0
G1 X1.250
M5 S0
G0 X0.081 Y-0.100
M5 S0
G1 X-1.250
M4 S0
G1 X-1.250 S350
G1 X-49.706 S500
G1 X-1.250 S350
M5 S0
G1 X-1.250
M5 S0
G0 X-0.081 Y-0.100
M5 S0
G1 X1.250
M4 S0
G1 X1.250 S350
G1 X49.869 S500
G1 X1.250 S350
M5 S0
G1 X1.250
M5 S0
G0 X0.081 Y-0.100
M5 S0
G1 X-1.250
M4 S0
G1 X-1.250 S350
G1 X-50.032 S500
G1 X-1.250 S350
M5 S0
G1 X-1.250
M5 S0
G0 X-0.081 Y-0.100
M5 S0
G1 X1.250
M4 S0
G1 X1.250 S350
G1 X50.195 S500
G1 X1.250 S350
M5 S0
G1 X1.250
M5 S0
G0 X0.081 Y-0.100
M5 S0
G1 X-1.250
M4 S0
G1 X-1.250 S350
G1 X-50.357 S500
G1 X-1.250 S350
M5 S0
G1 X-1.250
M5 S0
G0 X-0.081 Y-0.100
M5 S0
G1 X1.250
M4 S0
G1 X1.250 S350
G1 X50.520 S500
G1 X1.250 S350
M5 S0
G1 X1.250
M5 S0
G0 X0.081 Y-0.100
M5 S0
G1 X-1.250
M4 S0
G1 X-1.250 S350
G1 X-50.683 S500
G1 X-1.250 S350
M5 S0
G1 X-1.250
M5 S0
G0 X-0.081 Y-0.100
M5 S0
G1 X1.250
M4 S0
G1 X1.250 S350
G1 X50.846 S500
G1 X1.250 S350
M5 S0
G1 X1.250
M5 S0
G0 X0.078 Y-0.100
M5 S0
G1 X-1.250
M4 S0
G1 X-1.250 S350
G1 X-51.003 S500
G1 X-1.250 S350
M5 S0
G1 X-1.250
M5 S0
G0 X-0.072 Y-0.100
M5 S0
G1 X1.250
M4 S0
G1 X1.250 S350
G1 X51.146 S500
G1 X1.250 S350
M5 S0
G1 X1.250
M5 S0
G0 X0.072 Y-0.100
M5 S0
G1 X-1.250
M4 S0
G1 X-1.250 S350
G1 X-51.289 S500
G1 X-1.250 S350
M5 S0
G1 X-1.250
M5 S0
G0 X-0.072 Y-0.100
M5 S0
G1 X1.250
M4 S0
G1 X1.250 S350
G1 X51.432 S500
G1 X1.250 S350
M5 S0
G1 X1.250
M5 S0
G0 X0.072 Y-0.100
M5 S0
G1 X-1.250
M4 S0
G1 X-1.250 S350
G1 X-51.575 S500
G1 X-1.250 S350
M5 S0
G1 X-1.250
M5 S0
G0 X-0.072 Y-0.100
M5 S0
G1 X1.250
M4 S0
G1 X1.250 S350
G1 X51.719 S500
G1 X1.250 S350
M5 S0
G1 X1.250
M5 S0
G0 X0.072 Y-0.100
M5 S0
G1 X-1.250
M4 S0
G1 X-1.250 S350
G1 X-51.862 S500
G1 X-1.250 S350
M5 S0
G1 X-1.250
M5 S0
G0 X-0.072 Y-0.100
M5 S0
G1 X1.250
M4 S0
G1 X1.250 S350
G1 X52.005 S500
G1 X1.250 S350
M5 S0
G1 X1.250
M5 S0
G0 X0.072 Y-0.100
M5 S0
G1 X-1.250
M4 S0
G1 X-1.250 S350
G1 X-52.148 S500
G1 X-1.250 S350
M5 S0
G1 X-1.250
M5 S0
G0 X-0.072 Y-0.100
M5 S0
G1 X1.250
M4 S0
G1 X1.250 S350
G1 X52.291 S500
G1 X1.250 S350
M5 S0
G1 X1.250
M5 S0
G0 X0.064 Y-0.100
M5 S0
G1 X-1.250
M4 S0
G1 X-1.250 S350
G1 X-52.418 S500
G1 X-1.250 S350
M5 S0
G1 X-1.250
M5 S0
G0 X-0.062 Y-0.100
M5 S0
G1 X1.250
M4 S0
G1 X1.250 S350
G1 X52.542 S500
G1 X1.250 S350
M5 S0
G1 X1.250
M5 S0
G0 X0.062 Y-0.100
M5 S0
G1 X-1.250
M4 S0
G1 X-1.250 S350
G1 X-52.667 S500
G1 X-1.250 S350
M5 S0
G1 X-1.250
M5 S0
G0 X-0.062 Y-0.100
M5 S0
G1 X1.250
M4 S0
G1 X1.250 S350
G1 X52.791 S500
G1 X1.250 S350
M5 S0
G1 X1.250
M5 S0
G0 X0.062 Y-0.100
M5 S0
G1 X-1.250
M4 S0
G1 X-1.250 S350
G1 X-52.915 S500
G1 X-1.250 S350
M5 S0
G1 X-1.250
M5 S0
G0 X-0.062 Y-0.100
M5 S0
G1 X1.250
M4 S0
G1 X1.250 S350
G1 X53.039 S500
G1 X1.250 S350
M5 S0
G1 X1.250
M5 S0
G0 X0.062 Y-0.100
M5 S0
G1 X-1.250
M4 S0
G1 X-1.250 S350
G1 X-53.164 S500
G1 X-1.250 S350
M5 S0
G1 X-1.250
M5 S0
G0 X-0.062 Y-0.100
M5 S0
G1 X1.250
M4 S0
G1 X1.250 S350
G1 X53.288 S500
G1 X1.250 S350
M5 S0
G1 X1.250
M5 S0
G0 X0.062 Y-0.100
M5 S0
G1 X-1.250
M4 S0
G1 X-1.250 S350
G1 X-53.412 S500
G1 X-1.250 S350
M5 S0
G1 X-1.250
M5 S0
G0 X-0.061 Y-0.100
M5 S0
G1 X1.250
M4 S0
G1 X1.250 S350
G1 X53.533 S500
G1 X1.250 S350
M5 S0
G1 X1.250
M5 S0
G0 X0.053 Y-0.100
M5 S0
G1 X-1.250
M4 S0
G1 X-1.250 S350
G1 X-53.640 S500
G1 X-1.250 S350
M5 S0
G1 X-1.250
M5 S0
G0 X-0.053 Y-0.100
M5 S0
G1 X1.250
M4 S0
G1 X1.250 S350
G1 X53.746 S500
G1 X1.250 S350
M5 S0
G1 X1.250
M5 S0
G0 X0.053 Y-0.100
M5 S0
G1 X-1.250
M4 S0
G1 X-1.250 S350
G1 X-53.852 S500
G1 X-1.250 S350
M5 S0
G1 X-1.250
M5 S0
G0 X-0.053 Y-0.100
M5 S0
G1 X1.250
M4 S0
G1 X1.250 S350
G1 X53.958 S500
G1 X1.250 S350
M5 S0
G1 X1.250
M5 S0
G0 X0.053 Y-0.100
M5 S0
G1 X-1.250
M4 S0
G1 X-1.250 S350
G1 X-54.064 S500
G1 X-1.250 S350
M5 S0
G1 X-1.250
M5 S0
G0 X-0.053 Y-0.100
M5 S0
G1 X1.250
M4 S0
G1 X1.250 S350
G1 X54.171 S500
G1 X1.250 S350
M5 S0
G1 X1.250
M5 S0
G0 X0.053 Y-0.100
M5 S0
G1 X-1.250
M4 S0
G1 X-1.250 S350
G1 X-54.277 S500
G1 X-1.250 S350
M5 S0
G1 X-1.250
M5 S0
G0 X-0.053 Y-0.100
M5 S0
G1 X1.250
M4 S0
G1 X1.250 S350
G1 X54.383 S500
G1 X1.250 S350
M5 S0
G1 X1.250
M5 S0
G0 X0.053 Y-0.100
M5 S0
G1 X-1.250
M4 S0
G1 X-1.250 S350
G1 X-54.489 S500
G1 X-1.250 S350
M5 S0
G1 X-1.250
M5 S0
G0 X-0.050 Y-0.100
M5 S0
G1 X1.250
M4 S0
G1 X1.250 S350
G1 X54.590 S500
G1 X1.250 S350
M5 S0
G1 X1.250
M5 S0
G0 X0.044 Y-0.100
M5 S0
G1 X-1.250
M4 S0
G1 X-1.250 S350
G1 X-54.679 S500
G1 X-1.250 S350
M5 S0
G1 X-1.250
M5 S0
G0 X-0.044 Y-0.100
M5 S0
G1 X1.250
M4 S0
G1 X1.250 S350
G1 X54.768 S500
G1 X1.250 S350
