; Generated by LaserForge
; Job: mixed-scene fixture
; Objects: 4, Layers: 4
G21 ; mm mode
G90 ; absolute positioning
M5 S0

; --- Engrave (pass 1) ---
; OBJ ids=mobj0p5f-6-jol6xj
M4 S0
G0 X76.749 Y79.950
G1 X77.999 Y79.950 F3000 S0
G1 X79.249 Y79.950 S350
G1 X80.751 Y79.950 S500
G1 X82.001 Y79.950 S350
G1 X83.251 Y79.950 S0
G0 X84.847 Y79.850
G1 X83.597 Y79.850 S0
G1 X82.347 Y79.850 S350
G1 X77.653 Y79.850 S500
G1 X76.403 Y79.850 S350
G1 X75.153 Y79.850 S0
G0 X74.026 Y79.750
G1 X75.276 Y79.750 S0
G1 X76.526 Y79.750 S350
G1 X83.474 Y79.750 S500
G1 X84.724 Y79.750 S350
G1 X85.974 Y79.750 S0
G0 X86.783 Y79.650
G1 X85.533 Y79.650 S0
G1 X84.283 Y79.650 S350
G1 X75.717 Y79.650 S500
G1 X74.467 Y79.650 S350
G1 X73.217 Y79.650 S0
G0 X72.432 Y79.550
G1 X73.682 Y79.550 S0
G1 X74.932 Y79.550 S350
G1 X85.068 Y79.550 S500
G1 X86.318 Y79.550 S350
G1 X87.568 Y79.550 S0
G0 X88.193 Y79.450
G1 X86.943 Y79.450 S0
G1 X85.693 Y79.450 S350
G1 X74.307 Y79.450 S500
G1 X73.057 Y79.450 S350
G1 X71.807 Y79.450 S0
G0 X71.182 Y79.350
G1 X72.432 Y79.350 S0
G1 X73.682 Y79.350 S350
G1 X86.318 Y79.350 S500
G1 X87.568 Y79.350 S350
G1 X88.818 Y79.350 S0
G0 X89.362 Y79.250
G1 X88.112 Y79.250 S0
G1 X86.862 Y79.250 S350
G1 X73.138 Y79.250 S500
G1 X71.888 Y79.250 S350
G1 X70.638 Y79.250 S0
G0 X70.132 Y79.150
G1 X71.382 Y79.150 S0
G1 X72.632 Y79.150 S350
G1 X87.368 Y79.150 S500
G1 X88.618 Y79.150 S350
G1 X89.868 Y79.150 S0
G0 X90.374 Y79.050
G1 X89.124 Y79.050 S0
G1 X87.874 Y79.050 S350
G1 X72.126 Y79.050 S500
G1 X70.876 Y79.050 S350
G1 X69.626 Y79.050 S0
G0 X69.178 Y78.950
G1 X70.428 Y78.950 S0
G1 X71.678 Y78.950 S350
G1 X88.322 Y78.950 S500
G1 X89.572 Y78.950 S350
G1 X90.822 Y78.950 S0
G0 X91.245 Y78.850
G1 X89.995 Y78.850 S0
G1 X88.745 Y78.850 S350
G1 X71.255 Y78.850 S500
G1 X70.005 Y78.850 S350
G1 X68.755 Y78.850 S0
G0 X68.331 Y78.750
G1 X69.581 Y78.750 S0
G1 X70.831 Y78.750 S350
G1 X89.169 Y78.750 S500
G1 X90.419 Y78.750 S350
G1 X91.669 Y78.750 S0
G0 X92.079 Y78.650
G1 X90.829 Y78.650 S0
G1 X89.579 Y78.650 S350
G1 X70.421 Y78.650 S500
G1 X69.171 Y78.650 S350
G1 X67.921 Y78.650 S0
G0 X67.559 Y78.550
G1 X68.809 Y78.550 S0
G1 X70.059 Y78.550 S350
G1 X89.941 Y78.550 S500
G1 X91.191 Y78.550 S350
G1 X92.441 Y78.550 S0
G0 X92.804 Y78.450
G1 X91.554 Y78.450 S0
G1 X90.304 Y78.450 S350
G1 X69.696 Y78.450 S500
G1 X68.446 Y78.450 S350
G1 X67.196 Y78.450 S0
G0 X66.834 Y78.350
G1 X68.084 Y78.350 S0
G1 X69.334 Y78.350 S350
G1 X90.666 Y78.350 S500
G1 X91.916 Y78.350 S350
G1 X93.166 Y78.350 S0
G0 X93.518 Y78.250
G1 X92.268 Y78.250 S0
G1 X91.018 Y78.250 S350
G1 X68.982 Y78.250 S500
G1 X67.732 Y78.250 S350
G1 X66.482 Y78.250 S0
G0 X66.168 Y78.150
G1 X67.418 Y78.150 S0
G1 X68.668 Y78.150 S350
G1 X91.332 Y78.150 S500
G1 X92.582 Y78.150 S350
G1 X93.832 Y78.150 S0
G0 X94.147 Y78.050
G1 X92.897 Y78.050 S0
G1 X91.647 Y78.050 S350
G1 X68.353 Y78.050 S500
G1 X67.103 Y78.050 S350
G1 X65.853 Y78.050 S0
G0 X65.539 Y77.950
G1 X66.789 Y77.950 S0
G1 X68.039 Y77.950 S350
G1 X91.961 Y77.950 S500
G1 X93.211 Y77.950 S350
G1 X94.461 Y77.950 S0
G0 X94.776 Y77.850
G1 X93.526 Y77.850 S0
G1 X92.276 Y77.850 S350
G1 X67.724 Y77.850 S500
G1 X66.474 Y77.850 S350
G1 X65.224 Y77.850 S0
G0 X64.937 Y77.750
G1 X66.187 Y77.750 S0
G1 X67.437 Y77.750 S350
G1 X92.563 Y77.750 S500
G1 X93.813 Y77.750 S350
G1 X95.063 Y77.750 S0
G0 X95.340 Y77.650
G1 X94.090 Y77.650 S0
G1 X92.840 Y77.650 S350
G1 X67.160 Y77.650 S500
G1 X65.910 Y77.650 S350
G1 X64.660 Y77.650 S0
G0 X64.384 Y77.550
G1 X65.634 Y77.550 S0
G1 X66.884 Y77.550 S350
G1 X93.116 Y77.550 S500
G1 X94.366 Y77.550 S350
G1 X95.616 Y77.550 S0
G0 X95.892 Y77.450
G1 X94.642 Y77.450 S0
G1 X93.392 Y77.450 S350
G1 X66.608 Y77.450 S500
G1 X65.358 Y77.450 S350
G1 X64.108 Y77.450 S0
G0 X63.831 Y77.350
G1 X65.081 Y77.350 S0
G1 X66.331 Y77.350 S350
G1 X93.669 Y77.350 S500
G1 X94.919 Y77.350 S350
G1 X96.169 Y77.350 S0
G0 X96.423 Y77.250
G1 X95.173 Y77.250 S0
G1 X93.923 Y77.250 S350
G1 X66.077 Y77.250 S500
G1 X64.827 Y77.250 S350
G1 X63.577 Y77.250 S0
G0 X63.333 Y77.150
G1 X64.583 Y77.150 S0
G1 X65.833 Y77.150 S350
G1 X94.167 Y77.150 S500
G1 X95.417 Y77.150 S350
G1 X96.667 Y77.150 S0
G0 X96.912 Y77.050
G1 X95.662 Y77.050 S0
G1 X94.412 Y77.050 S350
G1 X65.588 Y77.050 S500
G1 X64.338 Y77.050 S350
G1 X63.088 Y77.050 S0
G0 X62.843 Y76.950
G1 X64.093 Y76.950 S0
G1 X65.343 Y76.950 S350
G1 X94.657 Y76.950 S500
G1 X95.907 Y76.950 S350
G1 X97.157 Y76.950 S0
G0 X97.402 Y76.850
G1 X96.152 Y76.850 S0
G1 X94.902 Y76.850 S350
G1 X65.098 Y76.850 S500
G1 X63.848 Y76.850 S350
G1 X62.598 Y76.850 S0
G0 X62.360 Y76.750
G1 X63.610 Y76.750 S0
G1 X64.860 Y76.750 S350
G1 X95.140 Y76.750 S500
G1 X96.390 Y76.750 S350
G1 X97.640 Y76.750 S0
G0 X97.859 Y76.650
G1 X96.609 Y76.650 S0
G1 X95.359 Y76.650 S350
G1 X64.641 Y76.650 S500
G1 X63.391 Y76.650 S350
G1 X62.141 Y76.650 S0
G0 X61.923 Y76.550
G1 X63.173 Y76.550 S0
G1 X64.423 Y76.550 S350
G1 X95.577 Y76.550 S500
G1 X96.827 Y76.550 S350
G1 X98.077 Y76.550 S0
G0 X98.295 Y76.450
G1 X97.045 Y76.450 S0
G1 X95.795 Y76.450 S350
G1 X64.205 Y76.450 S500
G1 X62.955 Y76.450 S350
G1 X61.705 Y76.450 S0
G0 X61.487 Y76.350
G1 X62.737 Y76.350 S0
G1 X63.987 Y76.350 S350
G1 X96.013 Y76.350 S500
G1 X97.263 Y76.350 S350
G1 X98.513 Y76.350 S0
G0 X98.732 Y76.250
G1 X97.482 Y76.250 S0
G1 X96.232 Y76.250 S350
G1 X63.768 Y76.250 S500
G1 X62.518 Y76.250 S350
G1 X61.268 Y76.250 S0
G0 X61.057 Y76.150
G1 X62.307 Y76.150 S0
G1 X63.557 Y76.150 S350
G1 X96.443 Y76.150 S500
G1 X97.693 Y76.150 S350
G1 X98.943 Y76.150 S0
G0 X99.138 Y76.050
G1 X97.888 Y76.050 S0
G1 X96.638 Y76.050 S350
G1 X63.362 Y76.050 S500
G1 X62.112 Y76.050 S350
G1 X60.862 Y76.050 S0
G0 X60.666 Y75.950
G1 X61.916 Y75.950 S0
G1 X63.166 Y75.950 S350
G1 X96.834 Y75.950 S500
G1 X98.084 Y75.950 S350
G1 X99.334 Y75.950 S0
G0 X99.529 Y75.850
G1 X98.279 Y75.850 S0
G1 X97.029 Y75.850 S350
G1 X62.971 Y75.850 S500
G1 X61.721 Y75.850 S350
G1 X60.471 Y75.850 S0
G0 X60.275 Y75.750
G1 X61.525 Y75.750 S0
G1 X62.775 Y75.750 S350
G1 X97.225 Y75.750 S500
G1 X98.475 Y75.750 S350
G1 X99.725 Y75.750 S0
G0 X99.920 Y75.650
G1 X98.670 Y75.650 S0
G1 X97.420 Y75.650 S350
G1 X62.580 Y75.650 S500
G1 X61.330 Y75.650 S350
G1 X60.080 Y75.650 S0
G0 X59.884 Y75.550
G1 X61.134 Y75.550 S0
G1 X62.384 Y75.550 S350
G1 X97.616 Y75.550 S500
G1 X98.866 Y75.550 S350
G1 X100.116 Y75.550 S0
G0 X100.293 Y75.450
G1 X99.043 Y75.450 S0
G1 X97.793 Y75.450 S350
G1 X62.207 Y75.450 S500
G1 X60.957 Y75.450 S350
G1 X59.707 Y75.450 S0
G0 X59.532 Y75.350
G1 X60.782 Y75.350 S0
G1 X62.032 Y75.350 S350
G1 X97.968 Y75.350 S500
G1 X99.218 Y75.350 S350
G1 X100.468 Y75.350 S0
G0 X100.644 Y75.250
G1 X99.394 Y75.250 S0
G1 X98.144 Y75.250 S350
G1 X61.856 Y75.250 S500
G1 X60.606 Y75.250 S350
G1 X59.356 Y75.250 S0
G0 X59.180 Y75.150
G1 X60.430 Y75.150 S0
G1 X61.680 Y75.150 S350
G1 X98.320 Y75.150 S500
G1 X99.570 Y75.150 S350
G1 X100.820 Y75.150 S0
G0 X100.995 Y75.050
G1 X99.745 Y75.050 S0
G1 X98.495 Y75.050 S350
G1 X61.505 Y75.050 S500
G1 X60.255 Y75.050 S350
G1 X59.005 Y75.050 S0
G0 X58.829 Y74.950
G1 X60.079 Y74.950 S0
G1 X61.329 Y74.950 S350
G1 X98.671 Y74.950 S500
G1 X99.921 Y74.950 S350
G1 X101.171 Y74.950 S0
G0 X101.344 Y74.850
G1 X100.094 Y74.850 S0
G1 X98.844 Y74.850 S350
G1 X61.156 Y74.850 S500
G1 X59.906 Y74.850 S350
G1 X58.656 Y74.850 S0
G0 X58.498 Y74.750
G1 X59.748 Y74.750 S0
G1 X60.998 Y74.750 S350
G1 X99.002 Y74.750 S500
G1 X100.252 Y74.750 S350
G1 X101.502 Y74.750 S0
G0 X101.660 Y74.650
G1 X100.410 Y74.650 S0
G1 X99.160 Y74.650 S350
G1 X60.840 Y74.650 S500
G1 X59.590 Y74.650 S350
G1 X58.340 Y74.650 S0
G0 X58.181 Y74.550
G1 X59.431 Y74.550 S0
G1 X60.681 Y74.550 S350
G1 X99.319 Y74.550 S500
G1 X100.569 Y74.550 S350
G1 X101.819 Y74.550 S0
G0 X101.977 Y74.450
G1 X100.727 Y74.450 S0
G1 X99.477 Y74.450 S350
G1 X60.523 Y74.450 S500
G1 X59.273 Y74.450 S350
G1 X58.023 Y74.450 S0
G0 X57.865 Y74.350
G1 X59.115 Y74.350 S0
G1 X60.365 Y74.350 S350
G1 X99.635 Y74.350 S500
G1 X100.885 Y74.350 S350
G1 X102.135 Y74.350 S0
G0 X102.293 Y74.250
G1 X101.043 Y74.250 S0
G1 X99.793 Y74.250 S350
G1 X60.207 Y74.250 S500
G1 X58.957 Y74.250 S350
G1 X57.707 Y74.250 S0
G0 X57.549 Y74.150
G1 X58.799 Y74.150 S0
G1 X60.049 Y74.150 S350
G1 X99.951 Y74.150 S500
G1 X101.201 Y74.150 S350
G1 X102.451 Y74.150 S0
G0 X102.594 Y74.050
G1 X101.344 Y74.050 S0
G1 X100.094 Y74.050 S350
G1 X59.906 Y74.050 S500
G1 X58.656 Y74.050 S350
G1 X57.406 Y74.050 S0
G0 X57.263 Y73.950
G1 X58.513 Y73.950 S0
G1 X59.763 Y73.950 S350
G1 X100.237 Y73.950 S500
G1 X101.487 Y73.950 S350
G1 X102.737 Y73.950 S0
G0 X102.879 Y73.850
G1 X101.629 Y73.850 S0
G1 X100.379 Y73.850 S350
G1 X59.621 Y73.850 S500
G1 X58.371 Y73.850 S350
G1 X57.121 Y73.850 S0
G0 X56.979 Y73.750
G1 X58.229 Y73.750 S0
G1 X59.479 Y73.750 S350
G1 X100.521 Y73.750 S500
G1 X101.771 Y73.750 S350
G1 X103.021 Y73.750 S0
G0 X103.164 Y73.650
G1 X101.914 Y73.650 S0
G1 X100.664 Y73.650 S350
G1 X59.336 Y73.650 S500
G1 X58.086 Y73.650 S350
G1 X56.836 Y73.650 S0
G0 X56.694 Y73.550
G1 X57.944 Y73.550 S0
G1 X59.194 Y73.550 S350
G1 X100.806 Y73.550 S500
G1 X102.056 Y73.550 S350
G1 X103.306 Y73.550 S0
G0 X103.448 Y73.450
G1 X102.198 Y73.450 S0
G1 X100.948 Y73.450 S350
G1 X59.052 Y73.450 S500
G1 X57.802 Y73.450 S350
G1 X56.552 Y73.450 S0
G0 X56.414 Y73.350
G1 X57.664 Y73.350 S0
G1 X58.914 Y73.350 S350
G1 X101.086 Y73.350 S500
G1 X102.336 Y73.350 S350
G1 X103.586 Y73.350 S0
G0 X103.714 Y73.250
G1 X102.464 Y73.250 S0
G1 X101.214 Y73.250 S350
G1 X58.786 Y73.250 S500
G1 X57.536 Y73.250 S350
G1 X56.286 Y73.250 S0
G0 X56.158 Y73.150
G1 X57.408 Y73.150 S0
G1 X58.658 Y73.150 S350
G1 X101.342 Y73.150 S500
G1 X102.592 Y73.150 S350
G1 X103.842 Y73.150 S0
G0 X103.970 Y73.050
G1 X102.720 Y73.050 S0
G1 X101.470 Y73.050 S350
G1 X58.530 Y73.050 S500
G1 X57.280 Y73.050 S350
G1 X56.030 Y73.050 S0
G0 X55.901 Y72.950
G1 X57.151 Y72.950 S0
G1 X58.401 Y72.950 S350
G1 X101.599 Y72.950 S500
G1 X102.849 Y72.950 S350
G1 X104.099 Y72.950 S0
G0 X104.227 Y72.850
G1 X102.977 Y72.850 S0
G1 X101.727 Y72.850 S350
G1 X58.273 Y72.850 S500
G1 X57.023 Y72.850 S350
G1 X55.773 Y72.850 S0
G0 X55.645 Y72.750
G1 X56.895 Y72.750 S0
G1 X58.145 Y72.750 S350
G1 X101.855 Y72.750 S500
G1 X103.105 Y72.750 S350
G1 X104.355 Y72.750 S0
G0 X104.483 Y72.650
G1 X103.233 Y72.650 S0
G1 X101.983 Y72.650 S350
G1 X58.017 Y72.650 S500
G1 X56.767 Y72.650 S350
G1 X55.517 Y72.650 S0
G0 X55.394 Y72.550
G1 X56.644 Y72.550 S0
G1 X57.894 Y72.550 S350
G1 X102.106 Y72.550 S500
G1 X103.356 Y72.550 S350
G1 X104.606 Y72.550 S0
G0 X104.721 Y72.450
G1 X103.471 Y72.450 S0
G1 X102.221 Y72.450 S350
G1 X57.779 Y72.450 S500
G1 X56.529 Y72.450 S350
G1 X55.279 Y72.450 S0
G0 X55.164 Y72.350
G1 X56.414 Y72.350 S0
G1 X57.664 Y72.350 S350
G1 X102.336 Y72.350 S500
G1 X103.586 Y72.350 S350
G1 X104.836 Y72.350 S0
G0 X104.952 Y72.250
G1 X103.702 Y72.250 S0
G1 X102.452 Y72.250 S350
G1 X57.548 Y72.250 S500
G1 X56.298 Y72.250 S350
G1 X55.048 Y72.250 S0
G0 X54.933 Y72.150
G1 X56.183 Y72.150 S0
G1 X57.433 Y72.150 S350
G1 X102.567 Y72.150 S500
G1 X103.817 Y72.150 S350
G1 X105.067 Y72.150 S0
G0 X105.182 Y72.050
G1 X103.932 Y72.050 S0
G1 X102.682 Y72.050 S350
G1 X57.318 Y72.050 S500
G1 X56.068 Y72.050 S350
G1 X54.818 Y72.050 S0
G0 X54.703 Y71.950
G1 X55.953 Y71.950 S0
G1 X57.203 Y71.950 S350
G1 X102.797 Y71.950 S500
G1 X104.047 Y71.950 S350
G1 X105.297 Y71.950 S0
G0 X105.412 Y71.850
G1 X104.162 Y71.850 S0
G1 X102.912 Y71.850 S350
G1 X57.088 Y71.850 S500
G1 X55.838 Y71.850 S350
G1 X54.588 Y71.850 S0
G0 X54.474 Y71.750
G1 X55.724 Y71.750 S0
G1 X56.974 Y71.750 S350
G1 X103.026 Y71.750 S500
G1 X104.276 Y71.750 S350
G1 X105.526 Y71.750 S0
G0 X105.629 Y71.650
G1 X104.379 Y71.650 S0
G1 X103.129 Y71.650 S350
G1 X56.871 Y71.650 S500
G1 X55.621 Y71.650 S350
G1 X54.371 Y71.650 S0
G0 X54.267 Y71.550
G1 X55.517 Y71.550 S0
G1 X56.767 Y71.550 S350
G1 X103.233 Y71.550 S500
G1 X104.483 Y71.550 S350
G1 X105.733 Y71.550 S0
G0 X105.836 Y71.450
G1 X104.586 Y71.450 S0
G1 X103.336 Y71.450 S350
G1 X56.664 Y71.450 S500
G1 X55.414 Y71.450 S350
G1 X54.164 Y71.450 S0
G0 X54.061 Y71.350
G1 X55.311 Y71.350 S0
G1 X56.561 Y71.350 S350
G1 X103.439 Y71.350 S500
G1 X104.689 Y71.350 S350
G1 X105.939 Y71.350 S0
G0 X106.042 Y71.250
G1 X104.792 Y71.250 S0
G1 X103.542 Y71.250 S350
G1 X56.458 Y71.250 S500
G1 X55.208 Y71.250 S350
G1 X53.958 Y71.250 S0
G0 X53.855 Y71.150
G1 X55.105 Y71.150 S0
G1 X56.355 Y71.150 S350
G1 X103.645 Y71.150 S500
G1 X104.895 Y71.150 S350
G1 X106.145 Y71.150 S0
G0 X106.248 Y71.050
G1 X104.998 Y71.050 S0
G1 X103.748 Y71.050 S350
G1 X56.252 Y71.050 S500
G1 X55.002 Y71.050 S350
G1 X53.752 Y71.050 S0
G0 X53.649 Y70.950
G1 X54.899 Y70.950 S0
G1 X56.149 Y70.950 S350
G1 X103.851 Y70.950 S500
G1 X105.101 Y70.950 S350
G1 X106.351 Y70.950 S0
G0 X106.449 Y70.850
G1 X105.199 Y70.850 S0
G1 X103.949 Y70.850 S350
G1 X56.051 Y70.850 S500
G1 X54.801 Y70.850 S350
G1 X53.551 Y70.850 S0
G0 X53.459 Y70.750
G1 X54.709 Y70.750 S0
G1 X55.959 Y70.750 S350
G1 X104.041 Y70.750 S500
G1 X105.291 Y70.750 S350
G1 X106.541 Y70.750 S0
G0 X106.633 Y70.650
G1 X105.383 Y70.650 S0
G1 X104.133 Y70.650 S350
G1 X55.867 Y70.650 S500
G1 X54.617 Y70.650 S350
G1 X53.367 Y70.650 S0
G0 X53.275 Y70.550
G1 X54.525 Y70.550 S0
G1 X55.775 Y70.550 S350
G1 X104.225 Y70.550 S500
G1 X105.475 Y70.550 S350
G1 X106.725 Y70.550 S0
G0 X106.817 Y70.450
G1 X105.567 Y70.450 S0
G1 X104.317 Y70.450 S350
G1 X55.683 Y70.450 S500
G1 X54.433 Y70.450 S350
G1 X53.183 Y70.450 S0
G0 X53.091 Y70.350
G1 X54.341 Y70.350 S0
G1 X55.591 Y70.350 S350
G1 X104.409 Y70.350 S500
G1 X105.659 Y70.350 S350
G1 X106.909 Y70.350 S0
G0 X107.001 Y70.250
G1 X105.751 Y70.250 S0
G1 X104.501 Y70.250 S350
G1 X55.499 Y70.250 S500
G1 X54.249 Y70.250 S350
G1 X52.999 Y70.250 S0
G0 X52.907 Y70.150
G1 X54.157 Y70.150 S0
G1 X55.407 Y70.150 S350
G1 X104.593 Y70.150 S500
G1 X105.843 Y70.150 S350
G1 X107.093 Y70.150 S0
G0 X107.185 Y70.050
G1 X105.935 Y70.050 S0
G1 X104.685 Y70.050 S350
G1 X55.315 Y70.050 S500
G1 X54.065 Y70.050 S350
G1 X52.815 Y70.050 S0
G0 X52.729 Y69.950
G1 X53.979 Y69.950 S0
G1 X55.229 Y69.950 S350
G1 X104.771 Y69.950 S500
G1 X106.021 Y69.950 S350
G1 X107.271 Y69.950 S0
G0 X107.353 Y69.850
G1 X106.103 Y69.850 S0
G1 X104.853 Y69.850 S350
G1 X55.147 Y69.850 S500
G1 X53.897 Y69.850 S350
G1 X52.647 Y69.850 S0
G0 X52.566 Y69.750
G1 X53.816 Y69.750 S0
G1 X55.066 Y69.750 S350
G1 X104.934 Y69.750 S500
G1 X106.184 Y69.750 S350
G1 X107.434 Y69.750 S0
G0 X107.516 Y69.650
G1 X106.266 Y69.650 S0
G1 X105.016 Y69.650 S350
G1 X54.984 Y69.650 S500
G1 X53.734 Y69.650 S350
G1 X52.484 Y69.650 S0
G0 X52.403 Y69.550
G1 X53.653 Y69.550 S0
G1 X54.903 Y69.550 S350
G1 X105.097 Y69.550 S500
G1 X106.347 Y69.550 S350
G1 X107.597 Y69.550 S0
G0 X107.679 Y69.450
G1 X106.429 Y69.450 S0
G1 X105.179 Y69.450 S350
G1 X54.821 Y69.450 S500
G1 X53.571 Y69.450 S350
G1 X52.321 Y69.450 S0
G0 X52.240 Y69.350
G1 X53.490 Y69.350 S0
G1 X54.740 Y69.350 S350
G1 X105.260 Y69.350 S500
G1 X106.510 Y69.350 S350
G1 X107.760 Y69.350 S0
G0 X107.842 Y69.250
G1 X106.592 Y69.250 S0
G1 X105.342 Y69.250 S350
G1 X54.658 Y69.250 S500
G1 X53.408 Y69.250 S350
G1 X52.158 Y69.250 S0
G0 X52.077 Y69.150
G1 X53.327 Y69.150 S0
G1 X54.577 Y69.150 S350
G1 X105.423 Y69.150 S500
G1 X106.673 Y69.150 S350
G1 X107.923 Y69.150 S0
G0 X108.002 Y69.050
G1 X106.752 Y69.050 S0
G1 X105.502 Y69.050 S350
G1 X54.498 Y69.050 S500
G1 X53.248 Y69.050 S350
G1 X51.998 Y69.050 S0
G0 X51.927 Y68.950
G1 X53.177 Y68.950 S0
G1 X54.427 Y68.950 S350
G1 X105.573 Y68.950 S500
G1 X106.823 Y68.950 S350
G1 X108.073 Y68.950 S0
G0 X108.145 Y68.850
G1 X106.895 Y68.850 S0
G1 X105.645 Y68.850 S350
G1 X54.355 Y68.850 S500
G1 X53.105 Y68.850 S350
G1 X51.855 Y68.850 S0
G0 X51.784 Y68.750
G1 X53.034 Y68.750 S0
G1 X54.284 Y68.750 S350
G1 X105.716 Y68.750 S500
G1 X106.966 Y68.750 S350
G1 X108.216 Y68.750 S0
G0 X108.288 Y68.650
G1 X107.038 Y68.650 S0
G1 X105.788 Y68.650 S350
G1 X54.212 Y68.650 S500
G1 X52.962 Y68.650 S350
G1 X51.712 Y68.650 S0
G0 X51.641 Y68.550
G1 X52.891 Y68.550 S0
G1 X54.141 Y68.550 S350
G1 X105.859 Y68.550 S500
G1 X107.109 Y68.550 S350
G1 X108.359 Y68.550 S0
G0 X108.431 Y68.450
G1 X107.181 Y68.450 S0
G1 X105.931 Y68.450 S350
G1 X54.069 Y68.450 S500
