; LaserForge power/speed test grid
; Generated by LaserForge Test Grid
; Grid: 6 powers x 6 speeds
; Cell size: 10mm, interval: 0.2mm
G90 ; absolute positioning
G21 ; mm units
M4 S0 ; laser dynamic mode, off
; Cell power=100 speed=6000
G0 X76.000 Y16.000 F6000
G1 X86.000 F6000 S100
G0 X86.000 Y16.200 F6000
G1 X76.000 F6000 S100
G0 X76.000 Y16.400 F6000
G1 X86.000 F6000 S100
G0 X86.000 Y16.600 F6000
G1 X76.000 F6000 S100
G0 X76.000 Y16.800 F6000
G1 X86.000 F6000 S100
G0 X86.000 Y17.000 F6000
G1 X76.000 F6000 S100
G0 X76.000 Y17.200 F6000
G1 X86.000 F6000 S100
G0 X86.000 Y17.400 F6000
G1 X76.000 F6000 S100
G0 X76.000 Y17.600 F6000
G1 X86.000 F6000 S100
G0 X86.000 Y17.800 F6000
G1 X76.000 F6000 S100
G0 X76.000 Y18.000 F6000
G1 X86.000 F6000 S100
G0 X86.000 Y18.200 F6000
G1 X76.000 F6000 S100
G0 X76.000 Y18.400 F6000
G1 X86.000 F6000 S100
G0 X86.000 Y18.600 F6000
G1 X76.000 F6000 S100
G0 X76.000 Y18.800 F6000
G1 X86.000 F6000 S100
G0 X86.000 Y19.000 F6000
G1 X76.000 F6000 S100
G0 X76.000 Y19.200 F6000
G1 X86.000 F6000 S100
G0 X86.000 Y19.400 F6000
G1 X76.000 F6000 S100
G0 X76.000 Y19.600 F6000
G1 X86.000 F6000 S100
G0 X86.000 Y19.800 F6000
G1 X76.000 F6000 S100
G0 X76.000 Y20.000 F6000
G1 X86.000 F6000 S100
G0 X86.000 Y20.200 F6000
G1 X76.000 F6000 S100
G0 X76.000 Y20.400 F6000
G1 X86.000 F6000 S100
G0 X86.000 Y20.600 F6000
G1 X76.000 F6000 S100
G0 X76.000 Y20.800 F6000
G1 X86.000 F6000 S100
G0 X86.000 Y21.000 F6000
G1 X76.000 F6000 S100
G0 X76.000 Y21.200 F6000
G1 X86.000 F6000 S100
G0 X86.000 Y21.400 F6000
G1 X76.000 F6000 S100
G0 X76.000 Y21.600 F6000
G1 X86.000 F6000 S100
G0 X86.000 Y21.800 F6000
G1 X76.000 F6000 S100
G0 X76.000 Y22.000 F6000
G1 X86.000 F6000 S100
G0 X86.000 Y22.200 F6000
G1 X76.000 F6000 S100
G0 X76.000 Y22.400 F6000
G1 X86.000 F6000 S100
G0 X86.000 Y22.600 F6000
G1 X76.000 F6000 S100
G0 X76.000 Y22.800 F6000
G1 X86.000 F6000 S100
G0 X86.000 Y23.000 F6000
G1 X76.000 F6000 S100
G0 X76.000 Y23.200 F6000
G1 X86.000 F6000 S100
G0 X86.000 Y23.400 F6000
G1 X76.000 F6000 S100
G0 X76.000 Y23.600 F6000
G1 X86.000 F6000 S100
G0 X86.000 Y23.800 F6000
G1 X76.000 F6000 S100
G0 X76.000 Y24.000 F6000
G1 X86.000 F6000 S100
G0 X86.000 Y24.200 F6000
G1 X76.000 F6000 S100
G0 X76.000 Y24.400 F6000
G1 X86.000 F6000 S100
G0 X86.000 Y24.600 F6000
G1 X76.000 F6000 S100
G0 X76.000 Y24.800 F6000
G1 X86.000 F6000 S100
G0 X86.000 Y25.000 F6000
G1 X76.000 F6000 S100
G0 X76.000 Y25.200 F6000
G1 X86.000 F6000 S100
G0 X86.000 Y25.400 F6000
G1 X76.000 F6000 S100
G0 X76.000 Y25.600 F6000
G1 X86.000 F6000 S100
G0 X86.000 Y25.800 F6000
G1 X76.000 F6000 S100
G0 X76.000 Y26.000 F6000
G1 X86.000 F6000 S100
G1 S0
; Cell power=100 speed=3000
G0 X64.000 Y16.000 F6000
G1 X74.000 F3000 S100
G0 X74.000 Y16.200 F6000
G1 X64.000 F3000 S100
G0 X64.000 Y16.400 F6000
G1 X74.000 F3000 S100
G0 X74.000 Y16.600 F6000
G1 X64.000 F3000 S100
G0 X64.000 Y16.800 F6000
G1 X74.000 F3000 S100
G0 X74.000 Y17.000 F6000
G1 X64.000 F3000 S100
G0 X64.000 Y17.200 F6000
G1 X74.000 F3000 S100
G0 X74.000 Y17.400 F6000
G1 X64.000 F3000 S100
G0 X64.000 Y17.600 F6000
G1 X74.000 F3000 S100
G0 X74.000 Y17.800 F6000
G1 X64.000 F3000 S100
G0 X64.000 Y18.000 F6000
G1 X74.000 F3000 S100
G0 X74.000 Y18.200 F6000
G1 X64.000 F3000 S100
G0 X64.000 Y18.400 F6000
G1 X74.000 F3000 S100
G0 X74.000 Y18.600 F6000
G1 X64.000 F3000 S100
G0 X64.000 Y18.800 F6000
G1 X74.000 F3000 S100
G0 X74.000 Y19.000 F6000
G1 X64.000 F3000 S100
G0 X64.000 Y19.200 F6000
G1 X74.000 F3000 S100
G0 X74.000 Y19.400 F6000
G1 X64.000 F3000 S100
G0 X64.000 Y19.600 F6000
G1 X74.000 F3000 S100
G0 X74.000 Y19.800 F6000
G1 X64.000 F3000 S100
G0 X64.000 Y20.000 F6000
G1 X74.000 F3000 S100
G0 X74.000 Y20.200 F6000
G1 X64.000 F3000 S100
G0 X64.000 Y20.400 F6000
G1 X74.000 F3000 S100
G0 X74.000 Y20.600 F6000
G1 X64.000 F3000 S100
G0 X64.000 Y20.800 F6000
G1 X74.000 F3000 S100
G0 X74.000 Y21.000 F6000
G1 X64.000 F3000 S100
G0 X64.000 Y21.200 F6000
G1 X74.000 F3000 S100
G0 X74.000 Y21.400 F6000
G1 X64.000 F3000 S100
G0 X64.000 Y21.600 F6000
G1 X74.000 F3000 S100
G0 X74.000 Y21.800 F6000
G1 X64.000 F3000 S100
G0 X64.000 Y22.000 F6000
G1 X74.000 F3000 S100
G0 X74.000 Y22.200 F6000
G1 X64.000 F3000 S100
G0 X64.000 Y22.400 F6000
G1 X74.000 F3000 S100
G0 X74.000 Y22.600 F6000
G1 X64.000 F3000 S100
G0 X64.000 Y22.800 F6000
G1 X74.000 F3000 S100
G0 X74.000 Y23.000 F6000
G1 X64.000 F3000 S100
G0 X64.000 Y23.200 F6000
G1 X74.000 F3000 S100
G0 X74.000 Y23.400 F6000
G1 X64.000 F3000 S100
G0 X64.000 Y23.600 F6000
G1 X74.000 F3000 S100
G0 X74.000 Y23.800 F6000
G1 X64.000 F3000 S100
G0 X64.000 Y24.000 F6000
G1 X74.000 F3000 S100
G0 X74.000 Y24.200 F6000
G1 X64.000 F3000 S100
G0 X64.000 Y24.400 F6000
G1 X74.000 F3000 S100
G0 X74.000 Y24.600 F6000
G1 X64.000 F3000 S100
G0 X64.000 Y24.800 F6000
G1 X74.000 F3000 S100
G0 X74.000 Y25.000 F6000
G1 X64.000 F3000 S100
G0 X64.000 Y25.200 F6000
G1 X74.000 F3000 S100
G0 X74.000 Y25.400 F6000
G1 X64.000 F3000 S100
G0 X64.000 Y25.600 F6000
G1 X74.000 F3000 S100
G0 X74.000 Y25.800 F6000
G1 X64.000 F3000 S100
G0 X64.000 Y26.000 F6000
G1 X74.000 F3000 S100
G1 S0
; Cell power=100 speed=2000
G0 X52.000 Y16.000 F6000
G1 X62.000 F2000 S100
G0 X62.000 Y16.200 F6000
G1 X52.000 F2000 S100
G0 X52.000 Y16.400 F6000
G1 X62.000 F2000 S100
G0 X62.000 Y16.600 F6000
G1 X52.000 F2000 S100
G0 X52.000 Y16.800 F6000
G1 X62.000 F2000 S100
G0 X62.000 Y17.000 F6000
G1 X52.000 F2000 S100
G0 X52.000 Y17.200 F6000
G1 X62.000 F2000 S100
G0 X62.000 Y17.400 F6000
G1 X52.000 F2000 S100
G0 X52.000 Y17.600 F6000
G1 X62.000 F2000 S100
G0 X62.000 Y17.800 F6000
G1 X52.000 F2000 S100
G0 X52.000 Y18.000 F6000
G1 X62.000 F2000 S100
G0 X62.000 Y18.200 F6000
G1 X52.000 F2000 S100
G0 X52.000 Y18.400 F6000
G1 X62.000 F2000 S100
G0 X62.000 Y18.600 F6000
G1 X52.000 F2000 S100
G0 X52.000 Y18.800 F6000
G1 X62.000 F2000 S100
G0 X62.000 Y19.000 F6000
G1 X52.000 F2000 S100
G0 X52.000 Y19.200 F6000
G1 X62.000 F2000 S100
G0 X62.000 Y19.400 F6000
G1 X52.000 F2000 S100
G0 X52.000 Y19.600 F6000
G1 X62.000 F2000 S100
G0 X62.000 Y19.800 F6000
G1 X52.000 F2000 S100
G0 X52.000 Y20.000 F6000
G1 X62.000 F2000 S100
G0 X62.000 Y20.200 F6000
G1 X52.000 F2000 S100
G0 X52.000 Y20.400 F6000
G1 X62.000 F2000 S100
G0 X62.000 Y20.600 F6000
G1 X52.000 F2000 S100
G0 X52.000 Y20.800 F6000
G1 X62.000 F2000 S100
G0 X62.000 Y21.000 F6000
G1 X52.000 F2000 S100
G0 X52.000 Y21.200 F6000
G1 X62.000 F2000 S100
G0 X62.000 Y21.400 F6000
G1 X52.000 F2000 S100
G0 X52.000 Y21.600 F6000
G1 X62.000 F2000 S100
G0 X62.000 Y21.800 F6000
G1 X52.000 F2000 S100
G0 X52.000 Y22.000 F6000
G1 X62.000 F2000 S100
G0 X62.000 Y22.200 F6000
G1 X52.000 F2000 S100
G0 X52.000 Y22.400 F6000
G1 X62.000 F2000 S100
G0 X62.000 Y22.600 F6000
G1 X52.000 F2000 S100
G0 X52.000 Y22.800 F6000
G1 X62.000 F2000 S100
G0 X62.000 Y23.000 F6000
G1 X52.000 F2000 S100
G0 X52.000 Y23.200 F6000
G1 X62.000 F2000 S100
G0 X62.000 Y23.400 F6000
G1 X52.000 F2000 S100
G0 X52.000 Y23.600 F6000
G1 X62.000 F2000 S100
G0 X62.000 Y23.800 F6000
G1 X52.000 F2000 S100
G0 X52.000 Y24.000 F6000
G1 X62.000 F2000 S100
G0 X62.000 Y24.200 F6000
G1 X52.000 F2000 S100
G0 X52.000 Y24.400 F6000
G1 X62.000 F2000 S100
G0 X62.000 Y24.600 F6000
G1 X52.000 F2000 S100
G0 X52.000 Y24.800 F6000
G1 X62.000 F2000 S100
G0 X62.000 Y25.000 F6000
G1 X52.000 F2000 S100
G0 X52.000 Y25.200 F6000
G1 X62.000 F2000 S100
G0 X62.000 Y25.400 F6000
G1 X52.000 F2000 S100
G0 X52.000 Y25.600 F6000
G1 X62.000 F2000 S100
G0 X62.000 Y25.800 F6000
G1 X52.000 F2000 S100
G0 X52.000 Y26.000 F6000
G1 X62.000 F2000 S100
G1 S0
; Cell power=100 speed=1500
G0 X40.000 Y16.000 F6000
G1 X50.000 F1500 S100
G0 X50.000 Y16.200 F6000
G1 X40.000 F1500 S100
G0 X40.000 Y16.400 F6000
G1 X50.000 F1500 S100
G0 X50.000 Y16.600 F6000
G1 X40.000 F1500 S100
G0 X40.000 Y16.800 F6000
G1 X50.000 F1500 S100
G0 X50.000 Y17.000 F6000
G1 X40.000 F1500 S100
G0 X40.000 Y17.200 F6000
G1 X50.000 F1500 S100
G0 X50.000 Y17.400 F6000
G1 X40.000 F1500 S100
G0 X40.000 Y17.600 F6000
G1 X50.000 F1500 S100
G0 X50.000 Y17.800 F6000
G1 X40.000 F1500 S100
G0 X40.000 Y18.000 F6000
G1 X50.000 F1500 S100
G0 X50.000 Y18.200 F6000
G1 X40.000 F1500 S100
G0 X40.000 Y18.400 F6000
G1 X50.000 F1500 S100
G0 X50.000 Y18.600 F6000
G1 X40.000 F1500 S100
G0 X40.000 Y18.800 F6000
G1 X50.000 F1500 S100
G0 X50.000 Y19.000 F6000
G1 X40.000 F1500 S100
G0 X40.000 Y19.200 F6000
G1 X50.000 F1500 S100
G0 X50.000 Y19.400 F6000
G1 X40.000 F1500 S100
G0 X40.000 Y19.600 F6000
G1 X50.000 F1500 S100
G0 X50.000 Y19.800 F6000
G1 X40.000 F1500 S100
G0 X40.000 Y20.000 F6000
G1 X50.000 F1500 S100
G0 X50.000 Y20.200 F6000
G1 X40.000 F1500 S100
G0 X40.000 Y20.400 F6000
G1 X50.000 F1500 S100
G0 X50.000 Y20.600 F6000
G1 X40.000 F1500 S100
G0 X40.000 Y20.800 F6000
G1 X50.000 F1500 S100
G0 X50.000 Y21.000 F6000
G1 X40.000 F1500 S100
G0 X40.000 Y21.200 F6000
G1 X50.000 F1500 S100
G0 X50.000 Y21.400 F6000
G1 X40.000 F1500 S100
G0 X40.000 Y21.600 F6000
G1 X50.000 F1500 S100
G0 X50.000 Y21.800 F6000
G1 X40.000 F1500 S100
G0 X40.000 Y22.000 F6000
G1 X50.000 F1500 S100
G0 X50.000 Y22.200 F6000
G1 X40.000 F1500 S100
G0 X40.000 Y22.400 F6000
G1 X50.000 F1500 S100
G0 X50.000 Y22.600 F6000
G1 X40.000 F1500 S100
G0 X40.000 Y22.800 F6000
G1 X50.000 F1500 S100
G0 X50.000 Y23.000 F6000
G1 X40.000 F1500 S100
G0 X40.000 Y23.200 F6000
G1 X50.000 F1500 S100
G0 X50.000 Y23.400 F6000
G1 X40.000 F1500 S100
G0 X40.000 Y23.600 F6000
G1 X50.000 F1500 S100
G0 X50.000 Y23.800 F6000
G1 X40.000 F1500 S100
G0 X40.000 Y24.000 F6000
G1 X50.000 F1500 S100
G0 X50.000 Y24.200 F6000
G1 X40.000 F1500 S100
G0 X40.000 Y24.400 F6000
G1 X50.000 F1500 S100
G0 X50.000 Y24.600 F6000
G1 X40.000 F1500 S100
G0 X40.000 Y24.800 F6000
G1 X50.000 F1500 S100
G0 X50.000 Y25.000 F6000
G1 X40.000 F1500 S100
G0 X40.000 Y25.200 F6000
G1 X50.000 F1500 S100
G0 X50.000 Y25.400 F6000
G1 X40.000 F1500 S100
G0 X40.000 Y25.600 F6000
G1 X50.000 F1500 S100
G0 X50.000 Y25.800 F6000
G1 X40.000 F1500 S100
G0 X40.000 Y26.000 F6000
G1 X50.000 F1500 S100
G1 S0
; Cell power=100 speed=1000
G0 X28.000 Y16.000 F6000
G1 X38.000 F1000 S100
G0 X38.000 Y16.200 F6000
G1 X28.000 F1000 S100
G0 X28.000 Y16.400 F6000
G1 X38.000 F1000 S100
G0 X38.000 Y16.600 F6000
G1 X28.000 F1000 S100
G0 X28.000 Y16.800 F6000
G1 X38.000 F1000 S100
G0 X38.000 Y17.000 F6000
G1 X28.000 F1000 S100
G0 X28.000 Y17.200 F6000
G1 X38.000 F1000 S100
G0 X38.000 Y17.400 F6000
G1 X28.000 F1000 S100
G0 X28.000 Y17.600 F6000
G1 X38.000 F1000 S100
G0 X38.000 Y17.800 F6000
G1 X28.000 F1000 S100
G0 X28.000 Y18.000 F6000
G1 X38.000 F1000 S100
G0 X38.000 Y18.200 F6000
G1 X28.000 F1000 S100
G0 X28.000 Y18.400 F6000
G1 X38.000 F1000 S100
G0 X38.000 Y18.600 F6000
G1 X28.000 F1000 S100
G0 X28.000 Y18.800 F6000
G1 X38.000 F1000 S100
G0 X38.000 Y19.000 F6000
G1 X28.000 F1000 S100
G0 X28.000 Y19.200 F6000
G1 X38.000 F1000 S100
G0 X38.000 Y19.400 F6000
G1 X28.000 F1000 S100
G0 X28.000 Y19.600 F6000
G1 X38.000 F1000 S100
G0 X38.000 Y19.800 F6000
G1 X28.000 F1000 S100
G0 X28.000 Y20.000 F6000
G1 X38.000 F1000 S100
G0 X38.000 Y20.200 F6000
G1 X28.000 F1000 S100
G0 X28.000 Y20.400 F6000
G1 X38.000 F1000 S100
G0 X38.000 Y20.600 F6000
G1 X28.000 F1000 S100
G0 X28.000 Y20.800 F6000
G1 X38.000 F1000 S100
G0 X38.000 Y21.000 F6000
G1 X28.000 F1000 S100
G0 X28.000 Y21.200 F6000
G1 X38.000 F1000 S100
G0 X38.000 Y21.400 F6000
G1 X28.000 F1000 S100
G0 X28.000 Y21.600 F6000
G1 X38.000 F1000 S100
G0 X38.000 Y21.800 F6000
G1 X28.000 F1000 S100
G0 X28.000 Y22.000 F6000
G1 X38.000 F1000 S100
G0 X38.000 Y22.200 F6000
G1 X28.000 F1000 S100
G0 X28.000 Y22.400 F6000
G1 X38.000 F1000 S100
G0 X38.000 Y22.600 F6000
G1 X28.000 F1000 S100
G0 X28.000 Y22.800 F6000
G1 X38.000 F1000 S100
G0 X38.000 Y23.000 F6000
G1 X28.000 F1000 S100
G0 X28.000 Y23.200 F6000
G1 X38.000 F1000 S100
G0 X38.000 Y23.400 F6000
G1 X28.000 F1000 S100
G0 X28.000 Y23.600 F6000
G1 X38.000 F1000 S100
G0 X38.000 Y23.800 F6000
G1 X28.000 F1000 S100
G0 X28.000 Y24.000 F6000
G1 X38.000 F1000 S100
G0 X38.000 Y24.200 F6000
G1 X28.000 F1000 S100
G0 X28.000 Y24.400 F6000
G1 X38.000 F1000 S100
G0 X38.000 Y24.600 F6000
G1 X28.000 F1000 S100
G0 X28.000 Y24.800 F6000
G1 X38.000 F1000 S100
G0 X38.000 Y25.000 F6000
G1 X28.000 F1000 S100
G0 X28.000 Y25.200 F6000
G1 X38.000 F1000 S100
G0 X38.000 Y25.400 F6000
G1 X28.000 F1000 S100
G0 X28.000 Y25.600 F6000
G1 X38.000 F1000 S100
G0 X38.000 Y25.800 F6000
G1 X28.000 F1000 S100
G0 X28.000 Y26.000 F6000
G1 X38.000 F1000 S100
G1 S0
; Cell power=100 speed=500
G0 X16.000 Y16.000 F6000
G1 X26.000 F500 S100
G0 X26.000 Y16.200 F6000
G1 X16.000 F500 S100
G0 X16.000 Y16.400 F6000
G1 X26.000 F500 S100
G0 X26.000 Y16.600 F6000
G1 X16.000 F500 S100
G0 X16.000 Y16.800 F6000
G1 X26.000 F500 S100
G0 X26.000 Y17.000 F6000
G1 X16.000 F500 S100
G0 X16.000 Y17.200 F6000
G1 X26.000 F500 S100
G0 X26.000 Y17.400 F6000
G1 X16.000 F500 S100
G0 X16.000 Y17.600 F6000
G1 X26.000 F500 S100
G0 X26.000 Y17.800 F6000
G1 X16.000 F500 S100
G0 X16.000 Y18.000 F6000
G1 X26.000 F500 S100
G0 X26.000 Y18.200 F6000
G1 X16.000 F500 S100
G0 X16.000 Y18.400 F6000
G1 X26.000 F500 S100
G0 X26.000 Y18.600 F6000
G1 X16.000 F500 S100
G0 X16.000 Y18.800 F6000
G1 X26.000 F500 S100
G0 X26.000 Y19.000 F6000
G1 X16.000 F500 S100
G0 X16.000 Y19.200 F6000
G1 X26.000 F500 S100
G0 X26.000 Y19.400 F6000
G1 X16.000 F500 S100
G0 X16.000 Y19.600 F6000
G1 X26.000 F500 S100
G0 X26.000 Y19.800 F6000
G1 X16.000 F500 S100
G0 X16.000 Y20.000 F6000
G1 X26.000 F500 S100
G0 X26.000 Y20.200 F6000
G1 X16.000 F500 S100
G0 X16.000 Y20.400 F6000
G1 X26.000 F500 S100
G0 X26.000 Y20.600 F6000
G1 X16.000 F500 S100
G0 X16.000 Y20.800 F6000
G1 X26.000 F500 S100
G0 X26.000 Y21.000 F6000
G1 X16.000 F500 S100
G0 X16.000 Y21.200 F6000
G1 X26.000 F500 S100
G0 X26.000 Y21.400 F6000
G1 X16.000 F500 S100
G0 X16.000 Y21.600 F6000
G1 X26.000 F500 S100
G0 X26.000 Y21.800 F6000
G1 X16.000 F500 S100
G0 X16.000 Y22.000 F6000
G1 X26.000 F500 S100
G0 X26.000 Y22.200 F6000
G1 X16.000 F500 S100
G0 X16.000 Y22.400 F6000
G1 X26.000 F500 S100
G0 X26.000 Y22.600 F6000
G1 X16.000 F500 S100
G0 X16.000 Y22.800 F6000
G1 X26.000 F500 S100
G0 X26.000 Y23.000 F6000
G1 X16.000 F500 S100
G0 X16.000 Y23.200 F6000
G1 X26.000 F500 S100
G0 X26.000 Y23.400 F6000
G1 X16.000 F500 S100
G0 X16.000 Y23.600 F6000
G1 X26.000 F500 S100
G0 X26.000 Y23.800 F6000
G1 X16.000 F500 S100
G0 X16.000 Y24.000 F6000
G1 X26.000 F500 S100
G0 X26.000 Y24.200 F6000
G1 X16.000 F500 S100
G0 X16.000 Y24.400 F6000
G1 X26.000 F500 S100
G0 X26.000 Y24.600 F6000
G1 X16.000 F500 S100
G0 X16.000 Y24.800 F6000
G1 X26.000 F500 S100
G0 X26.000 Y25.000 F6000
G1 X16.000 F500 S100
G0 X16.000 Y25.200 F6000
G1 X26.000 F500 S100
G0 X26.000 Y25.400 F6000
G1 X16.000 F500 S100
G0 X16.000 Y25.600 F6000
G1 X26.000 F500 S100
G0 X26.000 Y25.800 F6000
G1 X16.000 F500 S100
G0 X16.000 Y26.000 F6000
G1 X26.000 F500 S100
G1 S0
; Cell power=200 speed=6000
G0 X76.000 Y28.000 F6000
G1 X86.000 F6000 S200
G0 X86.000 Y28.200 F6000
G1 X76.000 F6000 S200
G0 X76.000 Y28.400 F6000
G1 X86.000 F6000 S200
G0 X86.000 Y28.600 F6000
G1 X76.000 F6000 S200
G0 X76.000 Y28.800 F6000
G1 X86.000 F6000 S200
G0 X86.000 Y29.000 F6000
G1 X76.000 F6000 S200
G0 X76.000 Y29.200 F6000
G1 X86.000 F6000 S200
G0 X86.000 Y29.400 F6000
G1 X76.000 F6000 S200
G0 X76.000 Y29.600 F6000
G1 X86.000 F6000 S200
G0 X86.000 Y29.800 F6000
G1 X76.000 F6000 S200
G0 X76.000 Y30.000 F6000
G1 X86.000 F6000 S200
G0 X86.000 Y30.200 F6000
G1 X76.000 F6000 S200
G0 X76.000 Y30.400 F6000
G1 X86.000 F6000 S200
G0 X86.000 Y30.600 F6000
G1 X76.000 F6000 S200
G0 X76.000 Y30.800 F6000
G1 X86.000 F6000 S200
G0 X86.000 Y31.000 F6000
G1 X76.000 F6000 S200
G0 X76.000 Y31.200 F6000
G1 X86.000 F6000 S200
G0 X86.000 Y31.400 F6000
G1 X76.000 F6000 S200
G0 X76.000 Y31.600 F6000
G1 X86.000 F6000 S200
G0 X86.000 Y31.800 F6000
G1 X76.000 F6000 S200
G0 X76.000 Y32.000 F6000
G1 X86.000 F6000 S200
G0 X86.000 Y32.200 F6000
G1 X76.000 F6000 S200
G0 X76.000 Y32.400 F6000
G1 X86.000 F6000 S200
G0 X86.000 Y32.600 F6000
G1 X76.000 F6000 S200
G0 X76.000 Y32.800 F6000
G1 X86.000 F6000 S200
G0 X86.000 Y33.000 F6000
G1 X76.000 F6000 S200
