; Generated by LaserForge
; Job: text-hershey-sans fixture
; Objects: 1, Layers: 1
G21 ; T2-14 safety baseline: mm mode
G17 ; T3-20 safety baseline: XY plane
G91 ; T2-14 safety baseline: relative positioning (Head mode)
G94 ; T3-20 safety baseline: feed per minute
M5 S0 ; T2-14 safety baseline: laser off at start

; --- Cut (pass 1) ---
M8 ; air assist ON
; OBJ ids=det-000003
; G0 skipped (no motion)
M4 S0
G1 Y-20.000 F150 S800
M5 S0
; OBJ ids=det-000003
M5 S0
G0 Y10.476
M4 S0
G1 X13.333 S800
M5 S0
; OBJ ids=det-000003
M5 S0
G0 X-2.857
M4 S0
G1 X7.619 S800
M5 S0
; OBJ ids=det-000003
M5 S0
G0 X0.952 Y9.524
M4 S0
G1 Y-20.000 S800
M5 S0
; OBJ ids=det-000003
; G0 skipped (no motion)
M4 S0
G1 X11.429 S800
M5 S0
; OBJ ids=det-000003
M5 S0
G0 X-4.762
M4 S0
G1 X11.429 S800
M5 S0
; OBJ ids=det-000003
M5 S0
G0 Y20.000
M4 S0
G1 X-1.905 Y-0.952 S800
G1 X-1.905 Y-1.905 S800
G1 X-0.952 Y-1.905 S800
G1 X-0.952 Y-2.857 S800
G1 Y-4.762 S800
G1 X0.952 Y-2.857 S800
G1 X0.952 Y-1.905 S800
G1 X1.905 Y-1.905 S800
G1 X1.905 Y-0.952 S800
G1 X3.810 S800
G1 X1.905 Y0.952 S800
G1 X1.905 Y1.905 S800
G1 X0.952 Y1.905 S800
G1 X0.952 Y2.857 S800
G1 Y4.762 S800
G1 X-0.952 Y2.857 S800
G1 X-0.952 Y1.905 S800
G1 X-1.905 Y1.905 S800
G1 X-1.905 Y0.952 S800
G1 X-3.810 S800
M5 S0
; OBJ ids=det-000003
M5 S0
G0 X-26.667
M4 S0
G1 Y-20.000 S800
M5 S0
; OBJ ids=det-000003
; G0 skipped (no motion)
M4 S0
G1 X12.381 S800
M5 S0
; OBJ ids=det-000003
M5 S0
G0 X-9.524
M4 S0
G1 Y20.000 S800
M5 S0
; OBJ ids=det-000003
M5 S0
G0 X-2.857
M4 S0
G1 X12.381 S800
M5 S0
; OBJ ids=det-000003
M5 S0
G0 X2.857
M4 S0
G1 Y-20.000 S800
M5 S0
M9 ; air assist OFF

M5 S0 ; T2-14 safety baseline: laser off at end
G0 X-25.714 Y20.000 ; return to start
G90 ; restore absolute positioning
M2 ; T2-14 safety baseline: program end