; Generated by LaserForge
; Job: text-bundled-inter fixture
; Objects: 1, Layers: 1
G21 ; mm mode
G90 ; absolute positioning
M5 S0

; --- Cut (pass 1) ---
M8 ; air assist ON
G0 X55.400 Y1.719
M4 S800
G1 X55.400 Y1.719 F150 S800
G1 X57.749 Y2.378 S800
G1 X59.419 Y4.321 S800
G1 X60.039 Y7.461 S800
G1 X60.039 Y7.461 S800
G1 X59.419 Y10.620 S800
G1 X57.749 Y12.563 S800
G1 X55.400 Y13.223 S800
G1 X55.400 Y13.223 S800
G1 X53.037 Y12.559 S800
G1 X51.362 Y10.610 S800
G1 X50.742 Y7.461 S800
G1 X50.742 Y7.461 S800
G1 X51.362 Y4.326 S800
G1 X53.037 Y2.383 S800
G1 X55.400 Y1.719 S800
G1 X55.400 Y1.719 S800
M5 S0
G0 X55.400 Y0.000
M4 S800
G1 X55.400 Y0.000 S800
G1 X52.075 Y0.903 S800
G1 X49.775 Y3.481 S800
G1 X48.936 Y7.461 S800
G1 X48.936 Y7.461 S800
G1 X49.775 Y11.450 S800
G1 X52.075 Y14.033 S800
G1 X55.400 Y14.941 S800
G1 X55.400 Y14.941 S800
G1 X58.721 Y14.033 S800
G1 X61.011 Y11.450 S800
G1 X61.846 Y7.461 S800
G1 X61.846 Y7.461 S800
G1 X61.011 Y3.481 S800
G1 X58.721 Y0.903 S800
G1 X55.400 Y0.000 S800
G1 X55.400 Y0.000 S800
M5 S0
G0 X46.787 Y0.195
M4 S800
G1 X38.193 Y0.195 S800
G1 X38.193 Y14.746 S800
G1 X40.049 Y14.746 S800
G1 X40.049 Y1.836 S800
G1 X46.787 Y1.836 S800
G1 X46.787 Y0.195 S800
G1 X46.787 Y0.195 S800
M5 S0
G0 X35.479 Y0.195
M4 S800
G1 X26.885 Y0.195 S800
G1 X26.885 Y14.746 S800
G1 X28.740 Y14.746 S800
G1 X28.740 Y1.836 S800
G1 X35.479 Y1.836 S800
G1 X35.479 Y0.195 S800
G1 X35.479 Y0.195 S800
M5 S0
G0 X23.818 Y0.195
M4 S800
G1 X14.863 Y0.195 S800
G1 X14.863 Y14.746 S800
G1 X23.730 Y14.746 S800
G1 X23.730 Y13.105 S800
G1 X16.719 Y13.105 S800
G1 X16.719 Y8.359 S800
G1 X23.252 Y8.359 S800
G1 X23.252 Y6.719 S800
G1 X16.719 Y6.719 S800
G1 X16.719 Y1.836 S800
G1 X23.818 Y1.836 S800
G1 X23.818 Y0.195 S800
G1 X23.818 Y0.195 S800
M5 S0
G0 X1.855 Y0.195
M4 S800
G1 X0.000 Y0.195 S800
G1 X0.000 Y14.746 S800
G1 X1.855 Y14.746 S800
G1 X1.855 Y8.457 S800
G1 X9.492 Y8.457 S800
G1 X9.492 Y14.746 S800
G1 X11.348 Y14.746 S800
G1 X11.348 Y0.195 S800
G1 X9.492 Y0.195 S800
G1 X9.492 Y6.816 S800
G1 X1.855 Y6.816 S800
G1 X1.855 Y0.195 S800
G1 X1.855 Y0.195 S800
M5 S0
M9 ; air assist OFF

M5 S0
G0 X0.000 Y0.000 ; return to job origin
M2 ; program end