; Generated by LaserForge
; Job: text-bundled-inter fixture
; Objects: 1, Layers: 1
G21 ; mm mode
G90 ; absolute positioning
M5 S0

; --- Cut (pass 1) ---
M8 ; air assist ON
; OBJ ids=mobj0o1u-3-yf4pis
G0 X55.400 Y1.719
M4 S800
G1 X55.400 Y1.719 F150 S800
G1 X56.034 Y1.760 S800
G1 X56.637 Y1.884 S800
G1 X57.209 Y2.090 S800
G1 X57.749 Y2.378 S800
G1 X58.247 Y2.747 S800
G1 X58.691 Y3.193 S800
G1 X59.082 Y3.718 S800
G1 X59.419 Y4.321 S800
G1 X59.690 Y4.999 S800
G1 X59.884 Y5.748 S800
G1 X60.000 Y6.569 S800
G1 X60.039 Y7.461 S800
G1 X60.039 Y7.461 S800
G1 X60.000 Y8.362 S800
G1 X59.884 Y9.188 S800
G1 X59.690 Y9.941 S800
G1 X59.419 Y10.620 S800
G1 X59.082 Y11.223 S800
G1 X58.691 Y11.748 S800
G1 X58.247 Y12.195 S800
G1 X57.749 Y12.563 S800
G1 X57.209 Y12.852 S800
G1 X56.637 Y13.058 S800
G1 X56.034 Y13.181 S800
G1 X55.400 Y13.223 S800
G1 X55.400 Y13.223 S800
G1 X54.762 Y13.181 S800
G1 X54.155 Y13.057 S800
G1 X53.580 Y12.849 S800
G1 X53.037 Y12.559 S800
G1 X52.537 Y12.188 S800
G1 X52.091 Y11.740 S800
G1 X51.700 Y11.214 S800
G1 X51.362 Y10.610 S800
G1 X51.091 Y9.932 S800
G1 X50.897 Y9.181 S800
G1 X50.781 Y8.357 S800
G1 X50.742 Y7.461 S800
G1 X50.742 Y7.461 S800
G1 X50.781 Y6.569 S800
G1 X50.897 Y5.750 S800
G1 X51.091 Y5.002 S800
G1 X51.362 Y4.326 S800
G1 X51.700 Y3.725 S800
G1 X52.091 Y3.201 S800
G1 X52.537 Y2.753 S800
G1 X53.037 Y2.383 S800
G1 X53.580 Y2.092 S800
G1 X54.155 Y1.885 S800
G1 X54.762 Y1.760 S800
G1 X55.400 Y1.719 S800
G1 X55.400 Y1.719 S800
M5 S0
; OBJ ids=mobj0o1u-3-yf4pis
G0 X55.400 Y0.000
M4 S800
G1 X55.400 Y0.000 S800
G1 X54.493 Y0.056 S800
G1 X53.636 Y0.226 S800
G1 X52.831 Y0.508 S800
G1 X52.075 Y0.903 S800
G1 X51.384 Y1.403 S800
G1 X50.770 Y2.000 S800
G1 X50.234 Y2.692 S800
G1 X49.775 Y3.481 S800
G1 X49.408 Y4.358 S800
G1 X49.146 Y5.314 S800
G1 X48.988 Y6.348 S800
G1 X48.936 Y7.461 S800
G1 X48.936 Y7.461 S800
G1 X48.988 Y8.578 S800
G1 X49.146 Y9.615 S800
G1 X49.408 Y10.573 S800
G1 X49.775 Y11.450 S800
G1 X50.234 Y12.240 S800
G1 X50.770 Y12.933 S800
G1 X51.384 Y13.531 S800
G1 X52.075 Y14.033 S800
G1 X52.831 Y14.431 S800
G1 X53.636 Y14.714 S800
G1 X54.493 Y14.885 S800
G1 X55.400 Y14.941 S800
G1 X55.400 Y14.941 S800
G1 X56.307 Y14.885 S800
G1 X57.163 Y14.714 S800
G1 X57.968 Y14.431 S800
G1 X58.721 Y14.033 S800
G1 X59.409 Y13.531 S800
G1 X60.021 Y12.933 S800
G1 X60.555 Y12.240 S800
G1 X61.011 Y11.450 S800
G1 X61.376 Y10.573 S800
G1 X61.637 Y9.615 S800
G1 X61.794 Y8.578 S800
G1 X61.846 Y7.461 S800
G1 X61.846 Y7.461 S800
G1 X61.794 Y6.348 S800
G1 X61.637 Y5.314 S800
G1 X61.376 Y4.358 S800
G1 X61.011 Y3.481 S800
G1 X60.555 Y2.692 S800
G1 X60.021 Y2.000 S800
G1 X59.409 Y1.403 S800
G1 X58.721 Y0.903 S800
G1 X57.968 Y0.508 S800
G1 X57.163 Y0.226 S800
G1 X56.307 Y0.056 S800
G1 X55.400 Y0.000 S800
G1 X55.400 Y0.000 S800
M5 S0
; OBJ ids=mobj0o1u-3-yf4pis
G0 X46.787 Y0.195
M4 S800
G1 X38.193 Y0.195 S800
G1 X38.193 Y14.746 S800
G1 X40.049 Y14.746 S800
G1 X40.049 Y1.836 S800
G1 X46.787 Y1.836 S800
G1 X46.787 Y0.195 S800
G1 X46.787 Y0.195 S800
M5 S0
; OBJ ids=mobj0o1u-3-yf4pis
G0 X35.479 Y0.195
M4 S800
G1 X26.885 Y0.195 S800
G1 X26.885 Y14.746 S800
G1 X28.740 Y14.746 S800
G1 X28.740 Y1.836 S800
G1 X35.479 Y1.836 S800
G1 X35.479 Y0.195 S800
G1 X35.479 Y0.195 S800
M5 S0
; OBJ ids=mobj0o1u-3-yf4pis
G0 X23.818 Y0.195
M4 S800
G1 X14.863 Y0.195 S800
G1 X14.863 Y14.746 S800
G1 X23.730 Y14.746 S800
G1 X23.730 Y13.105 S800
G1 X16.719 Y13.105 S800
G1 X16.719 Y8.359 S800
G1 X23.252 Y8.359 S800
G1 X23.252 Y6.719 S800
G1 X16.719 Y6.719 S800
G1 X16.719 Y1.836 S800
G1 X23.818 Y1.836 S800
G1 X23.818 Y0.195 S800
G1 X23.818 Y0.195 S800
M5 S0
; OBJ ids=mobj0o1u-3-yf4pis
G0 X1.855 Y0.195
M4 S800
G1 X0.000 Y0.195 S800
G1 X0.000 Y14.746 S800
G1 X1.855 Y14.746 S800
G1 X1.855 Y8.457 S800
G1 X9.492 Y8.457 S800
G1 X9.492 Y14.746 S800
G1 X11.348 Y14.746 S800
G1 X11.348 Y0.195 S800
G1 X9.492 Y0.195 S800
G1 X9.492 Y6.816 S800
G1 X1.855 Y6.816 S800
G1 X1.855 Y0.195 S800
G1 X1.855 Y0.195 S800
M5 S0
M9 ; air assist OFF

M5 S0
G0 X0.000 Y0.000 ; return to job origin
M2 ; program end