; Generated by LaserForge
; Job: text-hershey-sans fixture
; Objects: 1, Layers: 1
G21 ; mm mode
G90 ; absolute positioning
M5 S0

; --- Cut (pass 1) ---
M8 ; air assist ON
; OBJ ids=mobm0spw-3-7glleh
G0 X0.000 Y20.000
M4 S800
G1 X0.000 Y0.000 F150 S800
M5 S0
; OBJ ids=mobm0spw-3-7glleh
G0 X0.000 Y10.476
M4 S800
G1 X13.333 Y10.476 S800
M5 S0
; OBJ ids=mobm0spw-3-7glleh
G0 X10.476 Y10.476
M4 S800
G1 X18.095 Y10.476 S800
M5 S0
; OBJ ids=mobm0spw-3-7glleh
G0 X19.048 Y20.000
M4 S800
G1 X19.048 Y0.000 S800
M5 S0
; OBJ ids=mobm0spw-3-7glleh
G0 X19.048 Y0.000
M4 S800
G1 X30.476 Y0.000 S800
M5 S0
; OBJ ids=mobm0spw-3-7glleh
G0 X25.714 Y0.000
M4 S800
G1 X37.143 Y0.000 S800
M5 S0
; OBJ ids=mobm0spw-3-7glleh
G0 X37.143 Y20.000
M4 S800
G1 X35.238 Y19.048 S800
G1 X33.333 Y17.143 S800
G1 X32.381 Y15.238 S800
G1 X31.429 Y12.381 S800
G1 X31.429 Y7.619 S800
G1 X32.381 Y4.762 S800
G1 X33.333 Y2.857 S800
G1 X35.238 Y0.952 S800
G1 X37.143 Y0.000 S800
G1 X40.952 Y0.000 S800
G1 X42.857 Y0.952 S800
G1 X44.762 Y2.857 S800
G1 X45.714 Y4.762 S800
G1 X46.667 Y7.619 S800
G1 X46.667 Y12.381 S800
G1 X45.714 Y15.238 S800
G1 X44.762 Y17.143 S800
G1 X42.857 Y19.048 S800
G1 X40.952 Y20.000 S800
G1 X37.143 Y20.000 S800
M5 S0
; OBJ ids=mobm0spw-3-7glleh
G0 X10.476 Y20.000
M4 S800
G1 X10.476 Y0.000 S800
M5 S0
; OBJ ids=mobm0spw-3-7glleh
G0 X10.476 Y0.000
M4 S800
G1 X22.857 Y0.000 S800
M5 S0
; OBJ ids=mobm0spw-3-7glleh
G0 X13.333 Y0.000
M4 S800
G1 X13.333 Y20.000 S800
M5 S0
; OBJ ids=mobm0spw-3-7glleh
G0 X10.476 Y20.000
M4 S800
G1 X22.857 Y20.000 S800
M5 S0
; OBJ ids=mobm0spw-3-7glleh
G0 X25.714 Y20.000
M4 S800
G1 X25.714 Y0.000 S800
M5 S0
M9 ; air assist OFF

M5 S0
G0 X0.000 Y0.000 ; return to job origin
M2 ; program end