; Generated by LaserForge
; Job: text-bundled-inter fixture
; Objects: 1, Layers: 1
G21 ; T2-14 safety baseline: mm mode
G91 ; T2-14 safety baseline: relative positioning (Head mode)
M5 S0 ; T2-14 safety baseline: laser off at start

; --- Cut (pass 1) ---
M8 ; air assist ON
; OBJ ids=det-000003
G0 X55.400 Y-13.223
M4 S800
G1 F150 S800
G1 X0.634 Y0.041 S800
G1 X0.603 Y0.124 S800
G1 X0.572 Y0.206 S800
G1 X0.540 Y0.288 S800
G1 X0.498 Y0.369 S800
G1 X0.444 Y0.447 S800
G1 X0.391 Y0.525 S800
G1 X0.337 Y0.603 S800
G1 X0.271 Y0.678 S800
G1 X0.194 Y0.749 S800
G1 X0.116 Y0.821 S800
G1 X0.039 Y0.892 S800
G1 S800
G1 X-0.039 Y0.901 S800
G1 X-0.116 Y0.827 S800
G1 X-0.194 Y0.753 S800
G1 X-0.271 Y0.679 S800
G1 X-0.337 Y0.603 S800
G1 X-0.391 Y0.525 S800
G1 X-0.444 Y0.447 S800
G1 X-0.498 Y0.369 S800
G1 X-0.540 Y0.288 S800
G1 X-0.572 Y0.206 S800
G1 X-0.603 Y0.124 S800
G1 X-0.634 Y0.041 S800
G1 S800
G1 X-0.638 Y-0.042 S800
G1 X-0.607 Y-0.125 S800
G1 X-0.575 Y-0.208 S800
G1 X-0.543 Y-0.291 S800
G1 X-0.500 Y-0.371 S800
G1 X-0.446 Y-0.448 S800
G1 X-0.392 Y-0.526 S800
G1 X-0.337 Y-0.603 S800
G1 X-0.271 Y-0.678 S800
G1 X-0.194 Y-0.751 S800
G1 X-0.116 Y-0.824 S800
G1 X-0.039 Y-0.896 S800
G1 S800
G1 X0.039 Y-0.892 S800
G1 X0.116 Y-0.820 S800
G1 X0.194 Y-0.748 S800
G1 X0.271 Y-0.676 S800
G1 X0.337 Y-0.601 S800
G1 X0.392 Y-0.524 S800
G1 X0.446 Y-0.447 S800
G1 X0.500 Y-0.370 S800
G1 X0.543 Y-0.291 S800
G1 X0.575 Y-0.208 S800
G1 X0.607 Y-0.125 S800
G1 X0.638 Y-0.042 S800
G1 S800
M5 S0
; OBJ ids=det-000003
G0 Y-1.719
M4 S800
G1 S800
G1 X-0.907 Y0.056 S800
G1 X-0.857 Y0.169 S800
G1 X-0.806 Y0.282 S800
G1 X-0.755 Y0.395 S800
G1 X-0.691 Y0.500 S800
G1 X-0.614 Y0.596 S800
G1 X-0.536 Y0.693 S800
G1 X-0.459 Y0.789 S800
G1 X-0.367 Y0.877 S800
G1 X-0.262 Y0.956 S800
G1 X-0.157 Y1.034 S800
G1 X-0.052 Y1.113 S800
G1 S800
G1 X0.052 Y1.117 S800
G1 X0.157 Y1.037 S800
G1 X0.262 Y0.957 S800
G1 X0.367 Y0.877 S800
G1 X0.459 Y0.789 S800
G1 X0.536 Y0.694 S800
G1 X0.614 Y0.598 S800
G1 X0.691 Y0.502 S800
G1 X0.755 Y0.397 S800
G1 X0.806 Y0.284 S800
G1 X0.857 Y0.170 S800
G1 X0.907 Y0.057 S800
G1 S800
G1 X0.907 Y-0.057 S800
G1 X0.856 Y-0.170 S800
G1 X0.804 Y-0.284 S800
G1 X0.753 Y-0.397 S800
G1 X0.689 Y-0.502 S800
G1 X0.611 Y-0.598 S800
G1 X0.534 Y-0.694 S800
G1 X0.456 Y-0.789 S800
G1 X0.365 Y-0.877 S800
G1 X0.261 Y-0.957 S800
G1 X0.157 Y-1.037 S800
G1 X0.052 Y-1.117 S800
G1 S800
G1 X-0.052 Y-1.113 S800
G1 X-0.157 Y-1.034 S800
G1 X-0.261 Y-0.956 S800
G1 X-0.365 Y-0.877 S800
G1 X-0.456 Y-0.789 S800
G1 X-0.534 Y-0.693 S800
G1 X-0.611 Y-0.596 S800
G1 X-0.689 Y-0.500 S800
G1 X-0.753 Y-0.395 S800
G1 X-0.804 Y-0.282 S800
G1 X-0.856 Y-0.169 S800
G1 X-0.907 Y-0.056 S800
G1 S800
M5 S0
; OBJ ids=det-000003
G0 X-8.613 Y0.195
M4 S800
G1 X-8.594 S800
G1 Y14.551 S800
G1 X1.855 S800
G1 Y-12.910 S800
G1 X6.738 S800
G1 Y-1.641 S800
G1 S800
M5 S0
; OBJ ids=det-000003
G0 X-11.309
M4 S800
G1 X-8.594 S800
G1 Y14.551 S800
G1 X1.855 S800
G1 Y-12.910 S800
G1 X6.738 S800
G1 Y-1.641 S800
G1 S800
M5 S0
; OBJ ids=det-000003
G0 X-11.660
M4 S800
G1 X-8.955 S800
G1 Y14.551 S800
G1 X8.867 S800
G1 Y-1.641 S800
G1 X-7.012 S800
G1 Y-4.746 S800
G1 X6.533 S800
G1 Y-1.641 S800
G1 X-6.533 S800
G1 Y-4.883 S800
G1 X7.100 S800
G1 Y-1.641 S800
G1 S800
M5 S0
; OBJ ids=det-000003
G0 X-21.963
M4 S800
G1 X-1.855 S800
G1 Y14.551 S800
G1 X1.855 S800
G1 Y-6.289 S800
G1 X7.637 S800
G1 Y6.289 S800
G1 X1.855 S800
G1 Y-14.551 S800
G1 X-1.855 S800
G1 Y6.621 S800
G1 X-7.637 S800
G1 Y-6.621 S800
G1 S800
M5 S0
M9 ; air assist OFF

M5 S0 ; T2-14 safety baseline: laser off at end
G0 X-1.855 Y14.746 ; return to start
G90 ; restore absolute positioning
M2 ; T2-14 safety baseline: program end